;Header Start
;header_type: laser
;file_total_lines:268
;max_x(mm): 96.8
;max_y(mm): 46.9
;max_z(mm): 0
;min_x(mm): 0.5
;min_y(mm): 0.5
;min_z(mm): 0
;Header End
; LightBurn 1.2.04
; SnapMaker device profile, user origin
; Bounds: X0.5 Y0.5 to X96.8 Y46.9

;USER START SCRIPT
M106 P0 S255
G28
G53
G0 Z45 F6000
G54
G92 Z0
G53
G0 X100 Y75 F6000
G54
G92 X0 Y0
M3 S0


;USER START SCRIPT

G21
G90
G0 X0 Y0 F0
G91
; Cut @ 2000 mm/min, 100% power
M106 P0 S255
M05
G0 X36.562 Y19.298 F0
; Layer NO CUT
M03 P100 S255
G1 X0.238 Y-0.159 F2000
G1 X0.256 Y-0.126
G1 X0.267 Y-0.09
G1 X0.275 Y-0.054
G1 X0.278 Y-0.018
G1 X0.278 Y0.018
G1 X0.275 Y0.054
G1 X0.267 Y0.09
G1 X0.256 Y0.126
G1 X0.238 Y0.159
G1 X0.212 Y0.187
G1 X0.184 Y0.21
G1 X0.154 Y0.232
G1 X0.124 Y0.25
G1 X0.09 Y0.265
G1 X0.056 Y0.277
G1 X0.019 Y0.285
G1 X-0.019 Y0.285
G1 X-0.056 Y0.277
G1 X-0.09 Y0.264
G1 X-0.123 Y0.25
G1 X-0.155 Y0.232
G1 X-0.184 Y0.211
G1 X-0.212 Y0.186
G1 X-0.237 Y0.159
G1 X-0.257 Y0.127
G1 X-0.267 Y0.09
G1 X-0.275 Y0.054
G1 X-0.278 Y0.018
G1 X-0.278 Y-0.018
G1 X-0.274 Y-0.054
G1 X-0.268 Y-0.09
G1 X-0.256 Y-0.126
G1 X-0.238 Y-0.159
G1 X-0.211 Y-0.187
G1 X-0.184 Y-0.211
G1 X-0.155 Y-0.231
G1 X-0.124 Y-0.25
G1 X-0.09 Y-0.265
G1 X-0.056 Y-0.277
G1 X-0.018 Y-0.285
G1 X0.018 Y-0.285
G1 X0.056 Y-0.277
G1 X0.09 Y-0.265
G1 X0.124 Y-0.25
G1 X0.154 Y-0.231
G1 X0.185 Y-0.211
G1 X0.211 Y-0.187
M05
G0 X25.085 Y5.242 F0
M03 P100 S255
G1 X0.194 Y-0.362 F2000
G1 X0.217 Y-0.35
G1 X0.239 Y-0.334
G1 X0.261 Y-0.32
G1 X0.283 Y-0.302
G1 X0.302 Y-0.285
G1 X0.322 Y-0.265
G1 X0.341 Y-0.245
G1 X0.36 Y-0.224
G1 X0.373 Y-0.199
G1 X0.383 Y-0.173
G1 X0.391 Y-0.146
G1 X0.398 Y-0.12
G1 X0.403 Y-0.093
G1 X0.407 Y-0.066
G1 X0.409 Y-0.04
G1 X0.411 Y-0.013
G1 X0.411 Y0.013
G1 X0.41 Y0.04
G1 X0.407 Y0.067
G1 X0.403 Y0.093
G1 X0.397 Y0.12
G1 X0.391 Y0.146
G1 X0.383 Y0.173
G1 X0.373 Y0.199
G1 X0.36 Y0.224
G1 X0.341 Y0.245
G1 X0.322 Y0.266
G1 X0.302 Y0.284
G1 X0.282 Y0.303
G1 X0.261 Y0.319
G1 X0.239 Y0.335
G1 X0.217 Y0.349
G1 X0.194 Y0.363
G1 X0.17 Y0.374
G1 X0.146 Y0.386
G1 X0.121 Y0.395
G1 X0.095 Y0.404
G1 X0.068 Y0.412
G1 X0.042 Y0.418
G1 X0.014 Y0.423
G1 X-0.014 Y0.423
G1 X-0.042 Y0.419
G1 X-0.069 Y0.411
G1 X-0.095 Y0.405
G1 X-0.121 Y0.395
G1 X-0.146 Y0.386
G1 X-0.17 Y0.375
G1 X-0.194 Y0.362
G1 X-0.217 Y0.35
G1 X-0.239 Y0.334
G1 X-0.261 Y0.32
G1 X-0.282 Y0.302
G1 X-0.303 Y0.284
G1 X-0.322 Y0.266
G1 X-0.341 Y0.245
G1 X-0.36 Y0.224
G1 X-0.373 Y0.199
G1 X-0.383 Y0.173
G1 X-0.391 Y0.146
G1 X-0.398 Y0.12
G1 X-0.403 Y0.093
G1 X-0.406 Y0.066
G1 X-0.41 Y0.04
G1 X-0.411 Y0.013
G1 X-0.411 Y-0.013
G1 X-0.41 Y-0.04
G1 X-0.406 Y-0.067
G1 X-0.403 Y-0.093
G1 X-0.398 Y-0.12
G1 X-0.391 Y-0.146
G1 X-0.383 Y-0.173
G1 X-0.373 Y-0.199
G1 X-0.36 Y-0.224
G1 X-0.341 Y-0.246
G1 X-0.322 Y-0.265
G1 X-0.302 Y-0.285
G1 X-0.282 Y-0.302
G1 X-0.261 Y-0.319
G1 X-0.239 Y-0.335
G1 X-0.217 Y-0.349
G1 X-0.194 Y-0.363
G1 X-0.17 Y-0.375
G1 X-0.146 Y-0.385
G1 X-0.121 Y-0.396
G1 X-0.095 Y-0.404
G1 X-0.068 Y-0.411
G1 X-0.042 Y-0.418
G1 X-0.014 Y-0.423
G1 X0.014 Y-0.423
G1 X0.042 Y-0.419
G1 X0.069 Y-0.411
G1 X0.095 Y-0.405
G1 X0.121 Y-0.395
G1 X0.146 Y-0.386
G1 X0.17 Y-0.375
M05
G0 X24.482 Y6.373 F0
M03 P100 S255
G1 X0.263 Y-0.319 F2000
G1 X0.318 Y-0.263
G1 X0.366 Y-0.198
G1 X0.404 Y-0.125
G1 X0.434 Y-0.044
G1 X0.434 Y0.044
G1 X0.404 Y0.125
G1 X0.366 Y0.198
G1 X0.318 Y0.263
G1 X0.263 Y0.319
G1 X0.199 Y0.366
G1 X0.125 Y0.404
G1 X0.044 Y0.433
G1 X-0.044 Y0.434
G1 X-0.125 Y0.404
G1 X-0.199 Y0.366
G1 X-0.263 Y0.319
G1 X-0.318 Y0.262
G1 X-0.366 Y0.199
G1 X-0.404 Y0.125
G1 X-0.434 Y0.044
G1 X-0.434 Y-0.044
G1 X-0.404 Y-0.125
G1 X-0.366 Y-0.199
G1 X-0.318 Y-0.262
G1 X-0.263 Y-0.319
G1 X-0.198 Y-0.366
G1 X-0.126 Y-0.404
G1 X-0.044 Y-0.434
G1 X0.044 Y-0.433
G1 X0.126 Y-0.404
G1 X0.198 Y-0.366
M05
G0 X10.167 Y15.491 F0
M03 P100 S255
G1 X-58.737 F2000
G1 X-26.353 Y-15.24
G1  Y-14.521
G1 X-0.019 Y-0.246
G1 X-0.056 Y-0.236
G1 X-0.09 Y-0.223
G1 X-0.122 Y-0.205
G1 X-0.151 Y-0.185
G1 X-0.178 Y-0.161
G1 X-0.203 Y-0.133
G1 X-0.225 Y-0.102
G1 X-10.162 Y-3.699
G1 X6.612 Y-11.453
G1 X0.992 Y0.453
G1 X1.013 Y0.394
G1 X1.033 Y0.336
G1 X1.05 Y0.275
G1 X1.064 Y0.216
G1 X1.076 Y0.155
G1 X1.085 Y0.094
G1 X1.091 Y0.031
G1 X16.51
G1  Y9.842
G1 X0.032 Y0.32
G1 X0.093 Y0.298
G1 X0.146 Y0.27
G1 X0.194 Y0.235
G1 X0.235 Y0.194
G1 X0.27 Y0.146
G1 X0.298 Y0.093
G1 X0.32 Y0.032
G1 X63.182
G1  Y33.02
M107
M05
G90

;USER END SCRIPT
M5
G0 Z330 F6000
G0 Y100
G28
;USER END SCRIPT
