;Header Start
;header_type: laser
;file_total_lines:38651
;max_x(mm): 79.72
;max_y(mm): 41.22
;max_z(mm): 0
;min_x(mm): 13.51
;min_y(mm): 3.66
;min_z(mm): 0
;Header End
; LightBurn 1.2.04
; SnapMaker device profile, user origin
; Bounds: X13.51 Y3.66 to X79.72 Y41.22

;USER START SCRIPT
M106 P0 S255
G28
G53
G0 Z45 F6000
G54
G92 Z0
G53
G0 X100 Y75 F6000
G54
G92 X0 Y0
M3 S0


;USER START SCRIPT

G21
G90
G0 X0 Y0 F0
G91
; Scan @ 2300 mm/min, 30% power
M106 P0 S255
M05
G0 X14.999 Y3.164 F0
; Layer C16
M03 P30 S76.5
G1 X0.034 F2300
M05
G1 X0.137Y0.03
M03 P30 S76.5
G1 X-0.307
M05
G1 X-0.045Y0.03
M03 P30 S76.5
G1 X0.396
M05
G1 X0.045Y0.03
M03 P30 S76.5
G1 X-0.485
M05
G1 X-0.035Y0.03
M03 P30 S76.5
G1 X0.555
M05
G1 X0.02Y0.03
M03 P30 S76.5
G1 X-0.595
M05
G1 X-0.021Y0.03
M03 P30 S76.5
G1 X0.636
M05
G1 X0.02Y0.03
M03 P30 S76.5
G1 X-0.676
M05
G1 X-0.015Y0.03
M03 P30 S76.5
G1 X0.706
M05
G1 X0.007Y0.03
M03 P30 S76.5
G1 X-0.719
M05
G1 X-0.006Y0.03
M03 P30 S76.5
G1 X0.731
M05
G1 X0.006Y0.03
M03 P30 S76.5
G1 X-0.743
M05
G1 X-0.006Y0.03
M03 P30 S76.5
G1 X0.755
M05
G1 Y0.03
M03 P30 S76.5
G1 X-0.759
M05
G1 Y0.03
M03 P30 S76.5
G1 X0.762
M05
G1 Y0.03
M03 P30 S76.5
G1 X-0.762
M05
G1 Y0.03
M03 P30 S76.5
G1 X0.762
M05
G1 Y0.03
M03 P30 S76.5
G1 X-0.762
M05
G1 Y0.03
M03 P30 S76.5
G1 X0.762
M05
G1 Y0.03
M03 P30 S76.5
G1 X-0.762
M05
G1 Y0.03
M03 P30 S76.5
G1 X0.762
M05
G1 Y0.03
M03 P30 S76.5
G1 X-0.762
M05
G1 Y0.03
M03 P30 S76.5
G1 X0.762
M05
G1 Y0.03
M03 P30 S76.5
G1 X-0.762
M05
G1 Y0.03
M03 P30 S76.5
G1 X0.762
M05
G1 Y0.03
M03 P30 S76.5
G1 X-0.762
M05
G1 Y0.03
M03 P30 S76.5
G1 X0.762
M05
G1 Y0.03
M03 P30 S76.5
G1 X-0.762
M05
G1 Y0.03
M03 P30 S76.5
G1 X0.762
M05
G1 Y0.03
M03 P30 S76.5
G1 X-0.762
M05
G1 Y0.03
M03 P30 S76.5
G1 X0.762
M05
G1 Y0.03
M03 P30 S76.5
G1 X-0.762
M05
G1 Y0.03
M03 P30 S76.5
G1 X0.762
M05
G1 Y0.03
M03 P30 S76.5
G1 X-0.762
M05
G1 Y0.03
M03 P30 S76.5
G1 X0.762
M05
G1 Y0.03
M03 P30 S76.5
G1 X-0.762
M05
G1 Y0.03
M03 P30 S76.5
G1 X0.762
M05
G1 Y0.03
M03 P30 S76.5
G1 X-0.762
M05
G1 Y0.03
M03 P30 S76.5
G1 X0.762
M05
G1 Y0.03
M03 P30 S76.5
G1 X-0.762
M05
G1 Y0.03
M03 P30 S76.5
G1 X0.762
M05
G1 Y0.03
M03 P30 S76.5
G1 X-0.762
M05
G1 Y0.03
M03 P30 S76.5
G1 X0.762
M05
G1 Y0.03
M03 P30 S76.5
G1 X-0.762
M05
G1 Y0.03
M03 P30 S76.5
G1 X0.762
M05
G1 Y0.03
M03 P30 S76.5
G1 X-0.762
M05
G1 Y0.03
M03 P30 S76.5
G1 X0.762
M05
G1 Y0.03
M03 P30 S76.5
G1 X-0.762
M05
G1 Y0.03
M03 P30 S76.5
G1 X0.762
M05
G1 Y0.03
M03 P30 S76.5
G1 X-0.762
M05
G1 Y0.03
M03 P30 S76.5
G1 X0.762
M05
G1 Y0.03
M03 P30 S76.5
G1 X-0.762
M05
G1 Y0.03
M03 P30 S76.5
G1 X0.762
M05
G1 Y0.03
M03 P30 S76.5
G1 X-0.762
M05
G1 Y0.03
M03 P30 S76.5
G1 X0.762
M05
G1 Y0.03
M03 P30 S76.5
G1 X-0.762
M05
G1 Y0.03
M03 P30 S76.5
G1 X0.762
M05
G1 Y0.03
M03 P30 S76.5
G1 X-0.762
M05
G1 Y0.03
M03 P30 S76.5
G1 X0.762
M05
G1 Y0.03
M03 P30 S76.5
G1 X-0.762
M05
G1 Y0.03
M03 P30 S76.5
G1 X0.762
M05
G1 Y0.03
M03 P30 S76.5
G1 X-0.762
M05
G1 Y0.03
M03 P30 S76.5
G1 X0.762
M05
G1 Y0.03
M03 P30 S76.5
G1 X-0.762
M05
G1 Y0.03
M03 P30 S76.5
G1 X0.762
M05
G1 Y0.03
M03 P30 S76.5
G1 X-0.762
M05
G1 Y0.03
M03 P30 S76.5
G1 X0.762
M05
G1 Y0.03
M03 P30 S76.5
G1 X-0.762
M05
G1 Y0.03
M03 P30 S76.5
G1 X0.762
M05
G1 Y0.03
M03 P30 S76.5
G1 X-0.762
M05
G1 Y0.03
M03 P30 S76.5
G1 X0.762
M05
G1 Y0.03
M03 P30 S76.5
G1 X-0.762
M05
G1 Y0.03
M03 P30 S76.5
G1 X0.762
M05
G1 Y0.03
M03 P30 S76.5
G1 X-0.762
M05
G1 Y0.03
M03 P30 S76.5
G1 X0.762
M05
G1 Y0.03
M03 P30 S76.5
G1 X-0.762
M05
G1 Y0.03
M03 P30 S76.5
G1 X0.762
M05
G1 Y0.03
M03 P30 S76.5
G1 X-0.762
M05
G1 Y0.03
M03 P30 S76.5
G1 X0.762
M05
G1 Y0.03
M03 P30 S76.5
G1 X-0.762
M05
G1 Y0.03
M03 P30 S76.5
G1 X0.762
M05
G1 Y0.03
M03 P30 S76.5
G1 X-0.762
M05
G1 Y0.03
M03 P30 S76.5
G1 X0.762
M05
G1 Y0.03
M03 P30 S76.5
G1 X-0.762
M05
G1 Y0.03
M03 P30 S76.5
G1 X0.762
M05
G1 Y0.03
M03 P30 S76.5
G1 X-0.762
M05
G1 Y0.03
M03 P30 S76.5
G1 X0.762
M05
G1 Y0.03
M03 P30 S76.5
G1 X-0.762
M05
G1 Y0.03
M03 P30 S76.5
G1 X0.762
M05
G1 Y0.03
M03 P30 S76.5
G1 X-0.762
M05
G1 Y0.03
M03 P30 S76.5
G1 X0.762
M05
G1 Y0.03
M03 P30 S76.5
G1 X-0.762
M05
G1 Y0.03
M03 P30 S76.5
G1 X0.762
M05
G1 Y0.03
M03 P30 S76.5
G1 X-0.762
M05
G1 Y0.03
M03 P30 S76.5
G1 X0.762
M05
G1 Y0.03
M03 P30 S76.5
G1 X-0.762
M05
G1 Y0.03
M03 P30 S76.5
G1 X0.762
M05
G1 Y0.03
M03 P30 S76.5
G1 X-0.762
M05
G1 Y0.03
M03 P30 S76.5
G1 X0.762
M05
G1 Y0.03
M03 P30 S76.5
G1 X-0.762
M05
G1 Y0.03
M03 P30 S76.5
G1 X0.762
M05
G1 Y0.03
M03 P30 S76.5
G1 X-0.762
M05
G1 Y0.03
M03 P30 S76.5
G1 X0.762
M05
G1 Y0.03
M03 P30 S76.5
G1 X-0.762
M05
G1 Y0.03
M03 P30 S76.5
G1 X0.762
M05
G1 Y0.03
M03 P30 S76.5
G1 X-0.762
M05
G1 Y0.03
M03 P30 S76.5
G1 X0.762
M05
G1 Y0.03
M03 P30 S76.5
G1 X-0.762
M05
G1 Y0.03
M03 P30 S76.5
G1 X0.762
M05
G1 Y0.03
M03 P30 S76.5
G1 X-0.762
M05
G1 Y0.03
M03 P30 S76.5
G1 X0.762
M05
G1 Y0.03
M03 P30 S76.5
G1 X-0.762
M05
G1 Y0.03
M03 P30 S76.5
G1 X0.762
M05
G1 Y0.03
M03 P30 S76.5
G1 X-0.762
M05
G1 Y0.03
M03 P30 S76.5
G1 X0.762
M05
G1 Y0.03
M03 P30 S76.5
G1 X-0.762
M05
G1 Y0.03
M03 P30 S76.5
G1 X0.762
M05
G1 Y0.03
M03 P30 S76.5
G1 X-0.762
M05
G1 Y0.03
M03 P30 S76.5
G1 X0.762
M05
G1 Y0.03
M03 P30 S76.5
G1 X-0.758
M05
G1 X0.006Y0.03
M03 P30 S76.5
G1 X0.743
M05
G1 X-0.006Y0.03
M03 P30 S76.5
G1 X-0.731
M05
G1 X0.006Y0.03
M03 P30 S76.5
G1 X0.719
M05
G1 X-0.007Y0.03
M03 P30 S76.5
G1 X-0.706
M05
G1 X0.015Y0.03
M03 P30 S76.5
G1 X0.676
M05
G1 X-0.02Y0.03
M03 P30 S76.5
G1 X-0.636
M05
G1 X0.021Y0.03
M03 P30 S76.5
G1 X0.595
M05
G1 X-0.02Y0.03
M03 P30 S76.5
G1 X-0.555
M05
G1 X0.035Y0.03
M03 P30 S76.5
G1 X0.485
M05
G1 X-0.045Y0.03
M03 P30 S76.5
G1 X-0.396
M05
G1 X0.045Y0.03
M03 P30 S76.5
G1 X0.307
M05
G1 X-0.137Y0.03
M03 P30 S76.5
G1 X-0.034
M05
G1 X0.392Y-3.582
M03 P30 S76.5
G1 Y3.234
M05
G1 X-0.03Y0.128
M03 P30 S76.5
G1 Y-3.49
M05
G1 X-0.03Y-0.044
M03 P30 S76.5
G1 Y3.578
M05
G1 X-0.03Y0.045
M03 P30 S76.5
G1 Y-3.668
M05
G1 X-0.03Y-0.033
M03 P30 S76.5
G1 Y3.733
M05
G1 X-0.03Y0.021
M03 P30 S76.5
G1 Y-3.774
M05
G1 X-0.03Y-0.02
M03 P30 S76.5
G1 Y3.814
M05
G1 X-0.03Y0.02
M03 P30 S76.5
G1 Y-3.854
M05
G1 X-0.03Y-0.014
M03 P30 S76.5
G1 Y3.882
M05
G1 X-0.03Y0.006
M03 P30 S76.5
G1 Y-3.894
M05
G1 X-0.03Y-0.006
M03 P30 S76.5
G1 Y3.906
M05
G1 X-0.03Y0.006
M03 P30 S76.5
G1 Y-3.918
M05
G1 X-0.03Y-0.006
M03 P30 S76.5
G1 Y3.93
M05
G1 X-0.03
M03 P30 S76.5
G1 Y-3.931
M05
G1 X-0.03Y0.007
M03 P30 S76.5
G1 Y3.918
M05
G1 X-0.03Y-0.006
M03 P30 S76.5
G1 Y-3.906
M05
G1 X-0.03Y0.006
M03 P30 S76.5
G1 Y3.894
M05
G1 X-0.03Y-0.006
M03 P30 S76.5
G1 Y-3.882
M05
G1 X-0.03Y0.014
M03 P30 S76.5
G1 Y3.854
M05
G1 X-0.03Y-0.02
M03 P30 S76.5
G1 Y-3.814
M05
G1 X-0.03Y0.02
M03 P30 S76.5
G1 Y3.774
M05
G1 X-0.03Y-0.021
M03 P30 S76.5
G1 Y-3.733
M05
G1 X-0.03Y0.033
M03 P30 S76.5
G1 Y3.668
M05
G1 X-0.03Y-0.045
M03 P30 S76.5
G1 Y-3.578
M05
G1 X-0.03Y0.044
M03 P30 S76.5
G1 Y3.49
M05
G1 X-0.03Y-0.128
M03 P30 S76.5
G1 Y-3.234
M05
G0 X1.058 Y9.496 F0
M03 P30 S76.5
G1 X0.203 F2300
M05
G1 X0.156Y0.03
M03 P30 S76.5
G1 X-0.451
M05
G1 X-0.049Y0.03
M03 P30 S76.5
G1 X0.587
M05
G1 X0.076Y0.03
M03 P30 S76.5
G1 X-0.697
M05
G1 X-1.722Y0.03
M03 P30 S76.5
G1 X0.419
M05
G1 X1.282
M03 P30 S76.5
G1 X0.772
M05
G1 X0.053Y0.03
M03 P30 S76.5
G1 X-0.841
M05
G1 X-1.157
M03 P30 S76.5
G1 X-0.637
M05
G1 X-0.079Y0.03
M03 P30 S76.5
G1 X0.794
M05
G1 X1.068
M03 P30 S76.5
G1 X0.896
M05
G1 X0.04Y0.03
M03 P30 S76.5
G1 X-0.942
M05
G1 X-0.996
M03 P30 S76.5
G1 X-0.923
M05
G1 X-0.051Y0.03
M03 P30 S76.5
G1 X1.026
M05
G1 X0.94
M03 P30 S76.5
G1 X0.986
M05
G1 X0.032Y0.03
M03 P30 S76.5
G1 X-1.015
M05
G1 X-0.893
M03 P30 S76.5
G1 X-1.122
M05
G1 X-0.04Y0.03
M03 P30 S76.5
G1 X1.201
M05
G1 X0.859
M03 P30 S76.5
G1 X1.04
M05
G1 X0.03Y0.03
M03 P30 S76.5
G1 X-1.06
M05
G1 X-0.829
M03 P30 S76.5
G1 X-1.278
M05
G1 X-0.032Y0.03
M03 P30 S76.5
G1 X1.343
M05
G1 X0.814
M03 P30 S76.5
G1 X1.069
M05
G1 X0.024Y0.03
M03 P30 S76.5
G1 X-1.069
M05
G1 X-0.808
M03 P30 S76.5
G1 X-1.404
M05
G1 X-0.027Y0.03
M03 P30 S76.5
G1 X1.462
M05
G1 X0.812
M03 P30 S76.5
G1 X1.056
M05
G1 X0.02Y0.03
M03 P30 S76.5
G1 X-1.015
M05
G1 X-0.85
M03 P30 S76.5
G1 X-1.512
M05
G1 X-0.022Y0.03
M03 P30 S76.5
G1 X1.557
M05
G1 X1.137
M03 P30 S76.5
G1 X0.723
M05
G1 X0.016Y0.03
M03 P30 S76.5
G1 X-0.661
M05
G1 X-1.192
M03 P30 S76.5
G1 X-1.602
M05
G1 X-0.021Y0.03
M03 P30 S76.5
G1 X1.641
M05
G1 X1.229
M03 P30 S76.5
G1 X0.621
M05
G1 X0.016Y0.03
M03 P30 S76.5
G1 X-0.592
M05
G1 X-1.255
M03 P30 S76.5
G1 X-0.767
M05
G1 X-0.165
M03 P30 S76.5
G1 X-0.746
M05
G1 X-0.018Y0.03
M03 P30 S76.5
G1 X0.645
M05
G1 X0.393
M03 P30 S76.5
G1 X0.676
M05
G1 X1.273
M03 P30 S76.5
G1 X0.571
M05
G1 X0.009Y0.03
M03 P30 S76.5
G1 X-0.546
M05
G1 X-1.293
M03 P30 S76.5
G1 X-0.626
M05
G1 X-0.515
M03 P30 S76.5
G1 X-0.602
M05
G1 X-0.014Y0.03
M03 P30 S76.5
G1 X0.567
M05
G1 X0.612
M03 P30 S76.5
G1 X0.591
M05
G1 X1.306
M03 P30 S76.5
G1 X0.528
M05
G1 X0.009Y0.03
M03 P30 S76.5
G1 X-0.511
M05
G1 X-1.319
M03 P30 S76.5
G1 X-0.565
M05
G1 X-0.685
M03 P30 S76.5
G1 X-0.546
M05
G1 X-0.012Y0.03
M03 P30 S76.5
G1 X0.524
M05
G1 X0.75
M03 P30 S76.5
G1 X0.546
M05
G1 X1.326
M03 P30 S76.5
G1 X0.5
M05
G1 X0.005Y0.03
M03 P30 S76.5
G1 X-0.487
M05
G1 X-1.335
M03 P30 S76.5
G1 X-0.529
M05
G1 X-0.798
M03 P30 S76.5
G1 X-0.513
M05
G1 X-0.01Y0.03
M03 P30 S76.5
G1 X0.5
M05
G1 X0.844
M03 P30 S76.5
G1 X0.516
M05
G1 X1.341
M03 P30 S76.5
G1 X0.477
M05
G1 X0.006Y0.03
M03 P30 S76.5
G1 X-0.471
M05
G1 X-1.344
M03 P30 S76.5
G1 X-0.507
M05
G1 X-0.883
M03 P30 S76.5
G1 X-0.488
M05
G1 X-0.008Y0.03
M03 P30 S76.5
G1 X0.482
M05
G1 X0.913
M03 P30 S76.5
G1 X0.499
M05
G1 X1.349
M03 P30 S76.5
G1 X0.463
M05
G1 Y0.03
M03 P30 S76.5
G1 X-0.456
M05
G1 X-1.349
M03 P30 S76.5
G1 X-0.493
M05
G1 X-0.94
M03 P30 S76.5
G1 X-0.475
M05
G1 X-0.006Y0.03
M03 P30 S76.5
G1 X0.467
M05
G1 X0.963
M03 P30 S76.5
G1 X0.49
M05
G1 X1.35
M03 P30 S76.5
G1 X0.456
M05
G1 Y0.03
M03 P30 S76.5
G1 X-0.452
M05
G1 X-1.347
M03 P30 S76.5
G1 X-0.488
M05
G1 X-0.98
M03 P30 S76.5
G1 X-0.464
M05
G1 X-0.005Y0.03
M03 P30 S76.5
G1 X0.461
M05
G1 X0.997
M03 P30 S76.5
G1 X0.485
M05
G1 X1.344
M03 P30 S76.5
G1 X0.455
M05
G1 Y0.03
M03 P30 S76.5
G1 X-0.454
M05
G1 X-1.338
M03 P30 S76.5
G1 X-0.485
M05
G1 X-1.012
M03 P30 S76.5
G1 X-0.458
M05
G1 Y0.03
M03 P30 S76.5
G1 X0.453
M05
G1 X1.023
M03 P30 S76.5
G1 X0.485
M05
G1 X1.333
M03 P30 S76.5
G1 X0.456
M05
G1 Y0.03
M03 P30 S76.5
G1 X-0.455
M05
G1 X-1.327
M03 P30 S76.5
G1 X-0.485
M05
G1 X-1.033
M03 P30 S76.5
G1 X-0.455
M05
G1 Y0.03
M03 P30 S76.5
G1 X0.451
M05
G1 X1.043
M03 P30 S76.5
G1 X0.485
M05
G1 X1.322
M03 P30 S76.5
G1 X0.456
M05
G1 Y0.03
M03 P30 S76.5
G1 X-0.456
M05
G1 X-1.315
M03 P30 S76.5
G1 X-0.486
M05
G1 X-1.051
M03 P30 S76.5
G1 X-0.453
M05
G1 Y0.03
M03 P30 S76.5
G1 X0.452
M05
G1 X1.058
M03 P30 S76.5
G1 X0.486
M05
G1 X1.309
M03 P30 S76.5
G1 X0.456
M05
G1 Y0.03
M03 P30 S76.5
G1 X-0.456
M05
G1 X-1.302
M03 P30 S76.5
G1 X-0.487
M05
G1 X-1.064
M03 P30 S76.5
G1 X-0.455
M05
G1 Y0.03
M03 P30 S76.5
G1 X0.454
M05
G1 X1.072
M03 P30 S76.5
G1 X0.486
M05
G1 X1.296
M03 P30 S76.5
G1 X0.456
M05
G1 Y0.03
M03 P30 S76.5
G1 X-0.456
M05
G1 X-1.29
M03 P30 S76.5
G1 X-0.486
M05
G1 X-1.078
M03 P30 S76.5
G1 X-0.457
M05
G1 Y0.03
M03 P30 S76.5
G1 X0.456
M05
G1 X1.085
M03 P30 S76.5
G1 X0.487
M05
G1 X1.283
M03 P30 S76.5
G1 X0.456
M05
G1 Y0.03
M03 P30 S76.5
G1 X-0.456
M05
G1 X-1.277
M03 P30 S76.5
G1 X-0.487
M05
G1 X-1.091
M03 P30 S76.5
G1 X-0.459
M05
G1 Y0.03
M03 P30 S76.5
G1 X0.458
M05
G1 X1.098
M03 P30 S76.5
G1 X0.488
M05
G1 X1.27
M03 P30 S76.5
G1 X0.456
M05
G1 Y0.03
M03 P30 S76.5
G1 X-0.456
M05
G1 X-1.264
M03 P30 S76.5
G1 X-0.488
M05
G1 X-1.104
M03 P30 S76.5
G1 X-0.461
M05
G1 Y0.03
M03 P30 S76.5
G1 X0.46
M05
G1 X1.111
M03 P30 S76.5
G1 X0.489
M05
G1 X1.256
M03 P30 S76.5
G1 X0.457
M05
G1 Y0.03
M03 P30 S76.5
G1 X-0.457
M05
G1 X-1.25
M03 P30 S76.5
G1 X-0.489
M05
G1 X-1.117
M03 P30 S76.5
G1 X-0.463
M05
G1 Y0.03
M03 P30 S76.5
G1 X0.464
M05
G1 X1.123
M03 P30 S76.5
G1 X0.489
M05
G1 X1.242
M03 P30 S76.5
G1 X0.458
M05
G1 Y0.03
M03 P30 S76.5
G1 X-0.46
M05
G1 X-1.234
M03 P30 S76.5
G1 X-0.489
M05
G1 X-1.127
M03 P30 S76.5
G1 X-0.467
M05
G1 Y0.03
M03 P30 S76.5
G1 X0.468
M05
G1 X1.132
M03 P30 S76.5
G1 X0.49
M05
G1 X1.225
M03 P30 S76.5
G1 X0.459
M05
G1 Y0.03
M03 P30 S76.5
G1 X-0.46
M05
G1 X-1.218
M03 P30 S76.5
G1 X-0.49
M05
G1 X-1.134
M03 P30 S76.5
G1 X-0.468
M05
G1 Y0.03
M03 P30 S76.5
G1 X0.474
M05
G1 X1.134
M03 P30 S76.5
G1 X0.491
M05
G1 X1.207
M03 P30 S76.5
G1 X0.459
M05
G1 Y0.03
M03 P30 S76.5
G1 X-0.463
M05
G1 X-1.196
M03 P30 S76.5
G1 X-0.492
M05
G1 X-1.133
M03 P30 S76.5
G1 X-0.477
M05
G1 Y0.03
M03 P30 S76.5
G1 X0.484
M05
G1 X1.132
M03 P30 S76.5
G1 X0.493
M05
G1 X1.185
M03 P30 S76.5
G1 X0.46
M05
G1 Y0.03
M03 P30 S76.5
G1 X-0.464
M05
G1 X-1.175
M03 P30 S76.5
G1 X-0.493
M05
G1 X-1.127
M03 P30 S76.5
G1 X-0.484
M05
G1 X0.006Y0.03
M03 P30 S76.5
G1 X0.49
M05
G1 X1.123
M03 P30 S76.5
G1 X0.495
M05
G1 X1.155
M03 P30 S76.5
G1 X0.465
M05
G1 X-0.007Y0.03
M03 P30 S76.5
G1 X-0.468
M05
G1 X-1.135
M03 P30 S76.5
G1 X-0.496
M05
G1 X-1.12
M03 P30 S76.5
G1 X-0.496
M05
G1 X0.008Y0.03
M03 P30 S76.5
G1 X0.508
M05
G1 X1.108
M03 P30 S76.5
G1 X0.499
M05
G1 X1.113
M03 P30 S76.5
G1 X0.473
M05
G1 X-0.007Y0.03
M03 P30 S76.5
G1 X-0.481
M05
G1 X-1.086
M03 P30 S76.5
G1 X-0.502
M05
G1 X-1.097
M03 P30 S76.5
G1 X-0.518
M05
G1 X0.01Y0.03
M03 P30 S76.5
G1 X0.529
M05
G1 X1.085
M03 P30 S76.5
G1 X0.511
M05
G1 X1.051
M03 P30 S76.5
G1 X0.49
M05
G1 X-0.009Y0.03
M03 P30 S76.5
G1 X-0.498
M05
G1 X-1.015
M03 P30 S76.5
G1 X-0.521
M05
G1 X-1.063
M03 P30 S76.5
G1 X-0.55
M05
G1 X0.012Y0.03
M03 P30 S76.5
G1 X0.569
M05
G1 X1.042
M03 P30 S76.5
G1 X0.534
M05
G1 X0.967
M03 P30 S76.5
G1 X0.514
M05
G1 X-0.012Y0.03
M03 P30 S76.5
G1 X-0.527
M05
G1 X-0.917
M03 P30 S76.5
G1 X-0.546
M05
G1 X-1.014
M03 P30 S76.5
G1 X-0.595
M05
G1 X0.015Y0.03
M03 P30 S76.5
G1 X0.626
M05
G1 X0.981
M03 P30 S76.5
G1 X0.563
M05
G1 X0.858
M03 P30 S76.5
G1 X0.544
M05
G1 X-0.012Y0.03
M03 P30 S76.5
G1 X-0.567
M05
G1 X-0.79
M03 P30 S76.5
G1 X-0.583
M05
G1 X-0.927
M03 P30 S76.5
G1 X-0.678
M05
G1 X0.018Y0.03
M03 P30 S76.5
G1 X0.749
M05
G1 X0.854
M03 P30 S76.5
G1 X0.608
M05
G1 X0.71
M03 P30 S76.5
G1 X0.592
M05
G1 X-0.016Y0.03
M03 P30 S76.5
G1 X-0.626
M05
G1 X-0.613
M03 P30 S76.5
G1 X-0.64
M05
G1 X-0.779
M03 P30 S76.5
G1 X-0.819
M05
G1 X0.02Y0.03
M03 P30 S76.5
G1 X0.86
M05
G1 X0.736
M03 P30 S76.5
G1 X0.682
M05
G1 X0.491
M03 P30 S76.5
G1 X0.673
M05
G1 X-0.017Y0.03
M03 P30 S76.5
G1 X-0.744
M05
G1 X-0.321
M03 P30 S76.5
G1 X-0.745
M05
G1 X-0.719
M03 P30 S76.5
G1 X-0.876
M05
G1 X0.026Y0.03
M03 P30 S76.5
G1 X0.873
M05
G1 X0.715
M03 P30 S76.5
G1 X1.771
M05
G1 X-0.02Y0.03
M03 P30 S76.5
G1 X-1.729
M05
G1 X-0.722
M03 P30 S76.5
G1 X-0.861
M05
G1 X0.026Y0.03
M03 P30 S76.5
G1 X0.844
M05
G1 X0.736
M03 P30 S76.5
G1 X1.685
M05
G1 X-0.025Y0.03
M03 P30 S76.5
G1 X-1.636
M05
G1 X-0.756
M03 P30 S76.5
G1 X-0.815
M05
G1 X0.035Y0.03
M03 P30 S76.5
G1 X0.78
M05
G1 X0.784
M03 P30 S76.5
G1 X1.583
M05
G1 X-0.028Y0.03
M03 P30 S76.5
G1 X-1.527
M05
G1 X-0.814
M03 P30 S76.5
G1 X-0.744
M05
G1 X0.045Y0.03
M03 P30 S76.5
G1 X0.693
M05
G1 X0.853
M03 P30 S76.5
G1 X1.464
M05
G1 X-0.031Y0.03
M03 P30 S76.5
G1 X-1.4
M05
G1 X-0.894
M03 P30 S76.5
G1 X-0.641
M05
G1 X0.052Y0.03
M03 P30 S76.5
G1 X0.573
M05
G1 X0.949
M03 P30 S76.5
G1 X1.323
M05
G1 X-0.038Y0.03
M03 P30 S76.5
G1 X-1.246
M05
G1 X-1.01
M03 P30 S76.5
G1 X-0.496
M05
G1 X0.072Y0.03
M03 P30 S76.5
G1 X0.393
M05
G1 X1.089
M03 P30 S76.5
G1 X1.151
M05
G1 X-0.048Y0.03
M03 P30 S76.5
G1 X-1.052
M05
G1 X-1.191
M03 P30 S76.5
G1 X-0.25
M05
G1 X1.501Y0.03
M03 P30 S76.5
G1 X0.929
M05
G1 X-0.073Y0.03
M03 P30 S76.5
G1 X-0.782
M05
G1 X0.096Y0.03
M03 P30 S76.5
G1 X0.59
M05
G1 X-0.162Y0.03
M03 P30 S76.5
G1 X-0.265
M05
G1 X1.185Y-1.669
M03 P30 S76.5
G1 Y0.727
M05
G1 X-0.031Y0.161
M03 P30 S76.5
G1 Y-1.062
M05
G1 X-0.029Y-0.106
M03 P30 S76.5
G1 Y1.269
M05
G1 X-0.03Y0.074
M03 P30 S76.5
G1 Y-1.401
M05
G1 X-0.031Y-0.058
M03 P30 S76.5
G1 Y1.521
M05
G1 X-0.029Y0.057
M03 P30 S76.5
G1 Y-1.627
M05
G1 X-0.03Y-0.042
M03 P30 S76.5
G1 Y1.714
M05
G1 X-0.03Y0.045
M03 P30 S76.5
G1 Y-1.798
M05
G1 X-0.03Y-0.031
M03 P30 S76.5
G1 Y1.865
M05
G1 X-0.03Y0.037
M03 P30 S76.5
G1 Y-1.932
M05
G1 X-0.03Y-0.031
M03 P30 S76.5
G1 Y1.994
M05
G1 X-0.03Y0.029
M03 P30 S76.5
G1 Y-2.05
M05
G1 X-0.03Y-0.022
M03 P30 S76.5
G1 Y2.1
M05
G1 X-0.03Y0.024
M03 P30 S76.5
G1 Y-2.147
M05
G1 X-0.03Y-0.022
M03 P30 S76.5
G1 Y2.193
M05
G1 X-0.031Y0.021
M03 P30 S76.5
G1 Y-0.853
M05
G1 Y-0.6
M03 P30 S76.5
G1 Y-0.781
M05
G1 X-0.029Y-0.016
M03 P30 S76.5
G1 Y0.678
M05
G1 Y0.882
M03 P30 S76.5
G1 Y0.709
M05
G1 X-0.03Y0.018
M03 P30 S76.5
G1 Y-0.653
M05
G1 Y-1.02
M03 P30 S76.5
G1 Y-0.631
M05
G1 X-0.031Y-0.017
M03 P30 S76.5
G1 Y0.599
M05
G1 Y1.122
M03 P30 S76.5
G1 Y0.617
M05
G1 X-0.029Y0.015
M03 P30 S76.5
G1 Y-0.592
M05
G1 Y-1.198
M03 P30 S76.5
G1 Y-0.578
M05
G1 X-0.03Y-0.012
M03 P30 S76.5
G1 Y0.556
M05
G1 Y1.268
M03 P30 S76.5
G1 Y0.57
M05
G1 X-0.03Y0.013
M03 P30 S76.5
G1 Y-0.554
M05
G1 Y-1.323
M03 P30 S76.5
G1 Y-0.541
M05
G1 X-0.03Y-0.012
M03 P30 S76.5
G1 Y0.526
M05
G1 Y1.375
M03 P30 S76.5
G1 Y0.54
M05
G1 X-0.03Y0.01
M03 P30 S76.5
G1 Y-0.525
M05
G1 Y-1.42
M03 P30 S76.5
G1 Y-0.517
M05
G1 X-0.03Y-0.008
M03 P30 S76.5
G1 Y0.505
M05
G1 Y1.458
M03 P30 S76.5
G1 Y0.517
M05
G1 X-0.03Y0.008
M03 P30 S76.5
G1 Y-0.507
M05
G1 Y-1.493
M03 P30 S76.5
G1 Y-0.495
M05
G1 X-0.031Y-0.006
M03 P30 S76.5
G1 Y0.487
M05
G1 Y1.523
M03 P30 S76.5
G1 Y0.498
M05
G1 X-0.029Y0.007
M03 P30 S76.5
G1 Y-0.492
M05
G1 X-0.03Y0.013
M03 P30 S76.5
G1 Y0.486
M05
G1 X-0.031
M03 P30 S76.5
G1 Y-0.476
M05
G1 X-0.029Y0.007
M03 P30 S76.5
G1 Y0.477
M05
G1 X-0.03
M03 P30 S76.5
G1 Y-0.47
M05
G1 X-0.03Y0.007
M03 P30 S76.5
G1 Y0.47
M05
G1 X-0.03
M03 P30 S76.5
G1 Y-0.467
M05
G1 X-0.03
M03 P30 S76.5
G1 Y0.471
M05
G1 X-0.03
M03 P30 S76.5
G1 Y-0.466
M05
G1 X-0.03
M03 P30 S76.5
G1 Y0.466
M05
G1 X-0.031
M03 P30 S76.5
G1 Y-0.469
M05
G1 X-0.029
M03 P30 S76.5
G1 Y0.466
M05
G1 X-0.03
M03 P30 S76.5
G1 Y-0.475
M05
G1 X-0.031Y-0.006
M03 P30 S76.5
G1 Y0.474
M05
G1 X-0.029
M03 P30 S76.5
G1 Y-0.482
M05
G1 X-0.03Y-0.01
M03 P30 S76.5
G1 Y0.483
M05
G1 X-0.03Y-0.006
M03 P30 S76.5
G1 Y-0.488
M05
G1 X-0.03Y-0.014
M03 P30 S76.5
G1 Y0.496
M05
G1 X-0.03Y-0.008
M03 P30 S76.5
G1 Y-0.503
M05
G1 X-0.03Y-0.016
M03 P30 S76.5
G1 Y0.511
M05
G1 X-0.03Y-0.009
M03 P30 S76.5
G1 Y-0.523
M05
G1 X-0.03Y-0.021
M03 P30 S76.5
G1 Y0.533
M05
G1 X-0.03Y-0.012
M03 P30 S76.5
G1 Y-0.548
M05
G1 X-0.03Y-0.027
M03 P30 S76.5
G1 Y0.563
M05
G1 X-0.03Y-0.013
M03 P30 S76.5
G1 Y-0.585
M05
G1 X-0.03Y-0.037
M03 P30 S76.5
G1 Y0.607
M05
G1 X-0.03Y-0.015
M03 P30 S76.5
G1 Y-0.641
M05
G1 X-0.03Y-0.072
M03 P30 S76.5
G1 Y0.695
M05
G1 X-0.03Y-0.019
M03 P30 S76.5
G1 Y-0.78
M05
G1 X-0.03Y-0.136
M03 P30 S76.5
G1 Y0.896
M05
G1 X-0.03Y-0.023
M03 P30 S76.5
G1 Y-1.012
M05
G1 X-0.03Y-0.139
M03 P30 S76.5
G1 Y1.129
M05
G1 X-0.03Y-0.026
M03 P30 S76.5
G1 Y-1.242
M05
G1 X-0.03Y-0.139
M03 P30 S76.5
G1 Y1.354
M05
G1 X-0.03Y-0.029
M03 P30 S76.5
G1 Y-1.448
M05
G1 X-0.03Y-0.09
M03 P30 S76.5
G1 Y1.505
M05
G1 X-0.03Y-0.033
M03 P30 S76.5
G1 Y-1.544
M05
G1 X-0.03Y-0.055
M03 P30 S76.5
G1 Y1.56
M05
G1 X-0.03Y-0.041
M03 P30 S76.5
G1 Y-1.569
M05
G1 X-0.03Y-0.041
M03 P30 S76.5
G1 Y1.562
M05
G1 X-0.03Y-0.053
M03 P30 S76.5
G1 Y-1.549
M05
G1 X-0.03Y-0.035
M03 P30 S76.5
G1 Y1.525
M05
G1 X-0.03Y-0.071
M03 P30 S76.5
G1 Y-1.484
M05
G1 X-0.03Y-0.029
M03 P30 S76.5
G1 Y1.417
M05
G1 X-0.03Y-0.102
M03 P30 S76.5
G1 Y-1.341
M05
G1 X-0.03Y-0.022
M03 P30 S76.5
G1 Y1.216
M05
G1 X-0.03Y-0.147
M03 P30 S76.5
G1 Y-1.092
M05
G1 X-0.03Y-0.021
M03 P30 S76.5
G1 Y0.966
M05
G1 X-0.03Y-0.147
M03 P30 S76.5
G1 Y-0.836
M05
G1 X-0.03Y-0.018
M03 P30 S76.5
G1 Y0.721
M05
G1 X-0.03Y-0.094
M03 P30 S76.5
G1 Y-0.644
M05
G1 X-0.03Y-0.013
M03 P30 S76.5
G1 Y0.6
M05
G1 X-0.03Y-0.04
M03 P30 S76.5
G1 Y-0.573
M05
G1 X-0.03Y-0.013
M03 P30 S76.5
G1 Y0.552
M05
G1 X-0.03Y-0.03
M03 P30 S76.5
G1 Y-0.533
M05
G1 X-0.03Y-0.01
M03 P30 S76.5
G1 Y0.52
M05
G1 X-0.03Y-0.021
M03 P30 S76.5
G1 Y-0.508
M05
G1 X-0.03Y-0.009
M03 P30 S76.5
G1 Y0.5
M05
G1 X-0.03Y-0.015
M03 P30 S76.5
G1 Y-0.492
M05
G1 X-0.03Y-0.005
M03 P30 S76.5
G1 Y0.484
M05
G1 X-0.03Y-0.01
M03 P30 S76.5
G1 Y-0.48
M05
G1 X-0.03
M03 P30 S76.5
G1 Y0.47
M05
G1 X-0.03Y1.77
M03 P30 S76.5
G1 Y-0.262
M05
G1 Y-1.514
M03 P30 S76.5
G1 Y-0.472
M05
G1 X-0.03
M03 P30 S76.5
G1 Y0.466
M05
G1 Y1.488
M03 P30 S76.5
G1 Y0.33
M05
G1 X-0.03Y0.024
M03 P30 S76.5
G1 Y-0.376
M05
G1 Y-1.468
M03 P30 S76.5
G1 Y-0.468
M05
G1 X-0.03
M03 P30 S76.5
G1 Y0.465
M05
G1 Y1.455
M03 P30 S76.5
G1 Y0.408
M05
G1 X-0.03Y0.012
M03 P30 S76.5
G1 Y-0.432
M05
G1 Y-1.442
M03 P30 S76.5
G1 Y-0.466
M05
G1 X-0.03
M03 P30 S76.5
G1 Y0.469
M05
G1 Y1.428
M03 P30 S76.5
G1 Y0.451
M05
G1 X-0.03
M03 P30 S76.5
G1 Y-0.46
M05
G1 Y-1.416
M03 P30 S76.5
G1 Y-0.469
M05
G1 X-0.03
M03 P30 S76.5
G1 Y0.472
M05
G1 Y1.404
M03 P30 S76.5
G1 Y0.475
M05
G1 X-0.03
M03 P30 S76.5
G1 Y-0.483
M05
G1 Y-1.388
M03 P30 S76.5
G1 Y-0.472
M05
G1 X-0.03
M03 P30 S76.5
G1 Y0.481
M05
G1 Y1.368
M03 P30 S76.5
G1 Y0.487
M05
G1 X-0.03
M03 P30 S76.5
G1 Y-0.5
M05
G1 Y-1.346
M03 P30 S76.5
G1 Y-0.48
M05
G1 X-0.03Y0.007
M03 P30 S76.5
G1 Y0.487
M05
G1 Y1.32
M03 P30 S76.5
G1 Y0.502
M05
G1 X-0.03Y-0.008
M03 P30 S76.5
G1 Y-0.51
M05
G1 Y-1.288
M03 P30 S76.5
G1 Y-0.496
M05
G1 X-0.03Y0.009
M03 P30 S76.5
G1 Y0.504
M05
G1 Y1.252
M03 P30 S76.5
G1 Y0.52
M05
G1 X-0.03Y-0.009
M03 P30 S76.5
G1 Y-0.531
M05
G1 Y-1.209
M03 P30 S76.5
G1 Y-0.517
M05
G1 X-0.03Y0.01
M03 P30 S76.5
G1 Y0.533
M05
G1 Y1.159
M03 P30 S76.5
G1 Y0.542
M05
G1 X-0.03Y-0.012
M03 P30 S76.5
G1 Y-0.559
M05
G1 Y-1.103
M03 P30 S76.5
G1 Y-0.548
M05
G1 X-0.03Y0.014
M03 P30 S76.5
G1 Y0.574
M05
G1 Y1.033
M03 P30 S76.5
G1 Y0.576
M05
G1 X-0.03Y-0.016
M03 P30 S76.5
G1 Y-0.605
M05
G1 Y-0.948
M03 P30 S76.5
G1 Y-0.6
M05
G1 X-0.03Y0.016
M03 P30 S76.5
G1 Y0.646
M05
G1 Y0.837
M03 P30 S76.5
G1 Y0.638
M05
G1 X-0.03Y-0.016
M03 P30 S76.5
G1 Y-0.698
M05
G1 Y-0.674
M03 P30 S76.5
G1 Y-0.715
M05
G1 X-0.03Y0.018
M03 P30 S76.5
G1 Y2.049
M05
G1 X-0.03Y-0.02
M03 P30 S76.5
G1 Y-2.008
M05
G1 X-0.03Y0.022
M03 P30 S76.5
G1 Y1.965
M05
G1 X-0.03Y-0.022
M03 P30 S76.5
G1 Y-1.919
M05
G1 X-0.03Y0.027
M03 P30 S76.5
G1 Y1.866
M05
G1 X-0.03Y-0.026
M03 P30 S76.5
G1 Y-1.812
M05
G1 X-0.03Y0.032
M03 P30 S76.5
G1 Y1.753
M05
G1 X-0.03Y-0.035
M03 P30 S76.5
G1 Y-1.685
M05
G1 X-0.03Y0.039
M03 P30 S76.5
G1 Y1.612
M05
G1 X-0.03Y-0.037
M03 P30 S76.5
G1 Y-1.534
M05
G1 X-0.03Y0.049
M03 P30 S76.5
G1 Y1.44
M05
G1 X-0.03Y-0.045
M03 P30 S76.5
G1 Y-1.343
M05
G1 X-0.03Y0.066
M03 P30 S76.5
G1 Y1.217
M05
G1 X-0.03Y-0.062
M03 P30 S76.5
G1 Y-1.074
M05
G1 X-0.03Y0.11
M03 P30 S76.5
G1 Y0.875
M05
G1 X-0.03Y-0.129
M03 P30 S76.5
G1 Y-0.465
M05
G1 X2.94Y-1.15
M03 P30 S76.5
G1 Y0.48
M05
G1 X-0.03Y-0.008
M03 P30 S76.5
G1 Y-0.479
M05
G1 X-0.031
M03 P30 S76.5
G1 Y0.47
M05
G1 X-0.029Y-0.007
M03 P30 S76.5
G1 Y-0.468
M05
G1 X-0.03
M03 P30 S76.5
G1 Y0.464
M05
G1 X-0.03
M03 P30 S76.5
G1 Y-0.469
M05
G1 X-0.03
M03 P30 S76.5
G1 Y0.466
M05
G1 X-0.03
M03 P30 S76.5
G1 Y-0.466
M05
G1 X-0.03
M03 P30 S76.5
G1 Y0.47
M05
G1 X-0.03
M03 P30 S76.5
G1 Y-0.463
M05
G1 X-0.031Y0.007
M03 P30 S76.5
G1 Y0.453
M05
G1 X-0.029Y-0.006
M03 P30 S76.5
G1 Y-0.437
M05
G1 X-0.03Y0.013
M03 P30 S76.5
G1 Y0.415
M05
G1 X-0.031Y-0.014
M03 P30 S76.5
G1 Y-0.385
M05
G1 X-0.029Y0.023
M03 P30 S76.5
G1 Y0.341
M05
G1 X-0.03Y-0.029
M03 P30 S76.5
G1 Y-0.282
M05
G1 X-0.03Y0.049
M03 P30 S76.5
G1 Y0.189
M05
G1 X-1.35Y1.942
M03 P30 S76.5
G1 Y-0.134
M05
G0 X-0.95 Y1.015 F0
M03 P30 S76.5
G1 X3.454 F2300
M05
G1 X0.064Y0.03
M03 P30 S76.5
G1 X-3.589
M05
G1 X-0.036Y0.03
M03 P30 S76.5
G1 X3.659
M05
G1 X0.021Y0.03
M03 P30 S76.5
G1 X-3.702
M05
G1 X-0.015Y0.03
M03 P30 S76.5
G1 X3.732
M05
G1 X0.007Y0.03
M03 P30 S76.5
G1 X-3.748
M05
G1 X-0.008Y0.03
M03 P30 S76.5
G1 X3.762
M05
G1 Y0.03
M03 P30 S76.5
G1 X-3.768
M05
G1 Y0.03
M03 P30 S76.5
G1 X3.769
M05
G1 Y0.03
M03 P30 S76.5
G1 X-3.775
M05
G1 Y0.03
M03 P30 S76.5
G1 X3.767
M05
G1 X-0.008Y0.03
M03 P30 S76.5
G1 X-3.76
M05
G1 Y0.03
M03 P30 S76.5
G1 X3.742
M05
G1 X-0.026Y0.03
M03 P30 S76.5
G1 X-3.716
M05
G1 Y0.03
M03 P30 S76.5
G1 X3.669
M05
G1 X-1.468Y0.03
M03 P30 S76.5
G1 X-0.467
M05
G1 X-1.268
M03 P30 S76.5
G1 X-0.466
M05
G1 Y0.03
M03 P30 S76.5
G1 X0.466
M05
G1 X1.268
M03 P30 S76.5
G1 X0.467
M05
G1 Y0.03
M03 P30 S76.5
G1 X-0.467
M05
G1 X-1.268
M03 P30 S76.5
G1 X-0.466
M05
G1 Y0.03
M03 P30 S76.5
G1 X0.466
M05
G1 X1.268
M03 P30 S76.5
G1 X0.467
M05
G1 Y0.03
M03 P30 S76.5
G1 X-0.467
M05
G1 X-1.268
M03 P30 S76.5
G1 X-0.466
M05
G1 Y0.03
M03 P30 S76.5
G1 X0.466
M05
G1 X1.268
M03 P30 S76.5
G1 X0.467
M05
G1 Y0.03
M03 P30 S76.5
G1 X-0.467
M05
G1 X-1.268
M03 P30 S76.5
G1 X-0.466
M05
G1 Y0.03
M03 P30 S76.5
G1 X0.466
M05
G1 X1.268
M03 P30 S76.5
G1 X0.467
M05
G1 Y0.03
M03 P30 S76.5
G1 X-0.467
M05
G1 X-1.268
M03 P30 S76.5
G1 X-0.466
M05
G1 Y0.03
M03 P30 S76.5
G1 X0.466
M05
G1 X1.268
M03 P30 S76.5
G1 X0.467
M05
G1 Y0.03
M03 P30 S76.5
G1 X-0.467
M05
G1 X-1.268
M03 P30 S76.5
G1 X-0.466
M05
G1 Y0.03
M03 P30 S76.5
G1 X0.466
M05
G1 X1.268
M03 P30 S76.5
G1 X0.467
M05
G1 Y0.03
M03 P30 S76.5
G1 X-0.467
M05
G1 X-1.268
M03 P30 S76.5
G1 X-0.466
M05
G1 Y0.03
M03 P30 S76.5
G1 X0.466
M05
G1 X1.268
M03 P30 S76.5
G1 X0.467
M05
G1 Y0.03
M03 P30 S76.5
G1 X-0.467
M05
G1 X-1.268
M03 P30 S76.5
G1 X-0.466
M05
G1 Y0.03
M03 P30 S76.5
G1 X0.466
M05
G1 X1.268
M03 P30 S76.5
G1 X0.467
M05
G1 Y0.03
M03 P30 S76.5
G1 X-0.467
M05
G1 X-1.268
M03 P30 S76.5
G1 X-0.466
M05
G1 Y0.03
M03 P30 S76.5
G1 X0.466
M05
G1 X1.268
M03 P30 S76.5
G1 X0.467
M05
G1 Y0.03
M03 P30 S76.5
G1 X-0.467
M05
G1 X-1.268
M03 P30 S76.5
G1 X-0.466
M05
G1 Y0.03
M03 P30 S76.5
G1 X0.466
M05
G1 X1.268
M03 P30 S76.5
G1 X0.467
M05
G1 Y0.03
M03 P30 S76.5
G1 X-0.467
M05
G1 X-1.268
M03 P30 S76.5
G1 X-0.466
M05
G1 Y0.03
M03 P30 S76.5
G1 X0.466
M05
G1 X1.268
M03 P30 S76.5
G1 X0.467
M05
G1 Y0.03
M03 P30 S76.5
G1 X-0.467
M05
G1 X-1.268
M03 P30 S76.5
G1 X-0.466
M05
G1 Y0.03
M03 P30 S76.5
G1 X0.466
M05
G1 X1.268
M03 P30 S76.5
G1 X0.467
M05
G1 Y0.03
M03 P30 S76.5
G1 X-0.467
M05
G1 X-1.268
M03 P30 S76.5
G1 X-0.466
M05
G1 Y0.03
M03 P30 S76.5
G1 X0.466
M05
G1 X1.268
M03 P30 S76.5
G1 X0.467
M05
G1 Y0.03
M03 P30 S76.5
G1 X-0.467
M05
G1 X-1.268
M03 P30 S76.5
G1 X-0.466
M05
G1 Y0.03
M03 P30 S76.5
G1 X0.466
M05
G1 X1.268
M03 P30 S76.5
G1 X0.466
M05
G1 Y0.03
M03 P30 S76.5
G1 X-0.466
M05
G1 X-1.266
M03 P30 S76.5
G1 X-0.468
M05
G1 Y0.03
M03 P30 S76.5
G1 X0.47
M05
G1 X1.263
M03 P30 S76.5
G1 X0.466
M05
G1 Y0.03
M03 P30 S76.5
G1 X-0.469
M05
G1 X-1.258
M03 P30 S76.5
G1 X-0.471
M05
G1 Y0.03
M03 P30 S76.5
G1 X0.472
M05
G1 X1.255
M03 P30 S76.5
G1 X0.47
M05
G1 Y0.03
M03 P30 S76.5
G1 X-0.473
M05
G1 X-1.248
M03 P30 S76.5
G1 X-0.474
M05
G1 Y0.03
M03 P30 S76.5
G1 X0.479
M05
G1 X1.24
M03 P30 S76.5
G1 X0.474
M05
G1 Y0.03
M03 P30 S76.5
G1 X-0.481
M05
G1 X-1.227
M03 P30 S76.5
G1 X-0.48
M05
G1 Y0.03
M03 P30 S76.5
G1 X0.486
M05
G1 X1.214
M03 P30 S76.5
G1 X0.483
M05
G1 Y0.03
M03 P30 S76.5
G1 X-0.49
M05
G1 X-1.201
M03 P30 S76.5
G1 X-0.486
M05
G1 X0.006Y0.03
M03 P30 S76.5
G1 X0.489
M05
G1 X1.185
M03 P30 S76.5
G1 X0.488
M05
G1 X-0.005Y0.03
M03 P30 S76.5
G1 X-0.497
M05
G1 X-1.161
M03 P30 S76.5
G1 X-0.494
M05
G1 X0.006Y0.03
M03 P30 S76.5
G1 X0.5
M05
G1 X1.136
M03 P30 S76.5
G1 X0.503
M05
G1 X-0.008Y0.03
M03 P30 S76.5
G1 X-0.509
M05
G1 X-1.109
M03 P30 S76.5
G1 X-0.505
M05
G1 X0.009Y0.03
M03 P30 S76.5
G1 X0.512
M05
G1 X1.08
M03 P30 S76.5
G1 X0.513
M05
G1 X-0.009Y0.03
M03 P30 S76.5
G1 X-0.524
M05
G1 X-1.043
M03 P30 S76.5
G1 X-0.52
M05
G1 X0.009Y0.03
M03 P30 S76.5
G1 X0.532
M05
G1 X1.002
M03 P30 S76.5
G1 X0.532
M05
G1 X-0.011Y0.03
M03 P30 S76.5
G1 X-0.546
M05
G1 X-0.955
M03 P30 S76.5
G1 X-0.542
M05
G1 X0.012Y0.03
M03 P30 S76.5
G1 X0.557
M05
G1 X0.901
M03 P30 S76.5
G1 X0.561
M05
G1 X-0.014Y0.03
M03 P30 S76.5
G1 X-0.578
M05
G1 X-0.84
M03 P30 S76.5
G1 X-0.574
M05
G1 X0.015Y0.03
M03 P30 S76.5
G1 X0.594
M05
G1 X0.767
M03 P30 S76.5
G1 X0.602
M05
G1 X-0.017Y0.03
M03 P30 S76.5
G1 X-0.63
M05
G1 X-0.679
M03 P30 S76.5
G1 X-0.622
M05
G1 X0.017Y0.03
M03 P30 S76.5
G1 X0.661
M05
G1 X0.566
M03 P30 S76.5
G1 X0.67
M05
G1 X-0.018Y0.03
M03 P30 S76.5
G1 X-0.741
M05
G1 X-0.401
M03 P30 S76.5
G1 X-0.719
M05
G1 X0.019Y0.03
M03 P30 S76.5
G1 X0.902
G1 X0.918
M05
G1 X-0.021Y0.03
M03 P30 S76.5
G1 X-1.778
M05
G1 X0.022Y0.03
M03 P30 S76.5
G1 X1.732
M05
G1 X-0.025Y0.03
M03 P30 S76.5
G1 X-1.682
M05
G1 X0.026Y0.03
M03 P30 S76.5
G1 X1.629
M05
G1 X-0.03Y0.03
M03 P30 S76.5
G1 X-1.57
M05
G1 X0.031Y0.03
M03 P30 S76.5
G1 X1.508
M05
G1 X-0.036Y0.03
M03 P30 S76.5
G1 X-1.437
M05
G1 X0.037Y0.03
M03 P30 S76.5
G1 X1.363
M05
G1 X-0.044Y0.03
M03 P30 S76.5
G1 X-1.279
M05
G1 X0.049Y0.03
M03 P30 S76.5
G1 X1.185
M05
G1 X-0.051Y0.03
M03 P30 S76.5
G1 X-1.081
M05
G1 X0.053Y0.03
M03 P30 S76.5
G1 X0.967
M05
G1 X-0.071Y0.03
M03 P30 S76.5
G1 X-0.818
M05
G1 X0.079Y0.03
M03 P30 S76.5
G1 X0.647
M05
G1 X-0.132Y0.03
M03 P30 S76.5
G1 X-0.375
M05
G1 X2.858Y-2.305
M03 P30 S76.5
G1 Y0.194
M05
G1 X-0.03Y0.057
M03 P30 S76.5
G1 Y-0.307
M05
G1 X-0.03Y-0.031
M03 P30 S76.5
G1 Y0.363
M05
G1 X-0.03Y0.017
M03 P30 S76.5
G1 Y-0.399
M05
G1 X-0.03Y-0.013
M03 P30 S76.5
G1 Y0.425
M05
G1 X-0.03Y0.007
M03 P30 S76.5
G1 Y-0.442
M05
G1 X-0.03
M03 P30 S76.5
G1 Y0.448
M05
G1 X-0.03
M03 P30 S76.5
G1 Y-0.456
M05
G1 X-0.03
M03 P30 S76.5
G1 Y0.46
M05
G1 X-0.03
M03 P30 S76.5
G1 Y-0.464
M05
G1 X-0.03
M03 P30 S76.5
G1 Y0.466
M05
G1 X-0.03
M03 P30 S76.5
G1 Y-0.466
M05
G1 X-0.03
M03 P30 S76.5
G1 Y0.466
M05
G1 X-0.03
M03 P30 S76.5
G1 Y-0.466
M05
G1 X-0.03
M03 P30 S76.5
G1 Y0.466
M05
G1 X-0.03
M03 P30 S76.5
G1 Y-0.466
M05
G1 X-0.03
M03 P30 S76.5
G1 Y0.466
M05
G1 X-0.03
M03 P30 S76.5
G1 Y-0.466
M05
G1 X-0.03
M03 P30 S76.5
G1 Y0.466
M05
G1 X-0.03
M03 P30 S76.5
G1 Y-0.466
M05
G1 X-0.03
M03 P30 S76.5
G1 Y0.466
M05
G1 X-0.03
M03 P30 S76.5
G1 Y-0.466
M05
G1 X-0.03
M03 P30 S76.5
G1 Y0.466
M05
G1 X-0.03
M03 P30 S76.5
G1 Y-0.466
M05
G1 X-0.03
M03 P30 S76.5
G1 Y0.466
M05
G1 X-0.03
M03 P30 S76.5
G1 Y-0.466
M05
G1 X-0.03
M03 P30 S76.5
G1 Y0.466
M05
G1 X-0.03
M03 P30 S76.5
G1 Y-0.466
M05
G1 X-0.03
M03 P30 S76.5
G1 Y0.466
M05
G1 X-0.03
M03 P30 S76.5
G1 Y-0.466
M05
G1 X-0.03
M03 P30 S76.5
G1 Y0.466
M05
G1 X-0.03
M03 P30 S76.5
G1 Y-0.466
M05
G1 X-0.03
M03 P30 S76.5
G1 Y0.466
M05
G1 X-0.03
M03 P30 S76.5
G1 Y-0.466
M05
G1 X-0.03
M03 P30 S76.5
G1 Y0.466
M05
G1 X-0.03
M03 P30 S76.5
G1 Y-0.466
M05
G1 X-0.03
M03 P30 S76.5
G1 Y0.466
M05
G1 X-0.03
M03 P30 S76.5
G1 Y-0.466
M05
G1 X-0.03
M03 P30 S76.5
G1 Y0.466
M05
G1 X-0.03
M03 P30 S76.5
G1 Y-0.466
M05
G1 X-0.03
M03 P30 S76.5
G1 Y0.466
M05
G1 X-0.03
M03 P30 S76.5
G1 Y-0.466
M05
G1 X-0.03
M03 P30 S76.5
G1 Y0.466
M05
G1 X-0.03
M03 P30 S76.5
G1 Y-0.466
M05
G1 X-0.03
M03 P30 S76.5
G1 Y0.466
M05
G1 X-0.03
M03 P30 S76.5
G1 Y-0.466
M05
G1 X-0.03
M03 P30 S76.5
G1 Y0.466
M05
G1 X-0.03
M03 P30 S76.5
G1 Y-0.466
M05
G1 X-0.03
M03 P30 S76.5
G1 Y0.466
M05
G1 X-0.03
M03 P30 S76.5
G1 Y-0.466
M05
G1 X-0.03
M03 P30 S76.5
G1 Y0.466
M05
G1 X-0.03
M03 P30 S76.5
G1 Y-0.466
M05
G1 X-0.03
M03 P30 S76.5
G1 Y0.466
M05
G1 X-0.03Y1.159
M03 P30 S76.5
G1 Y-1.625
M05
G1 X-0.03
M03 P30 S76.5
G1 Y1.727
M05
G1 X-0.03Y0.08
M03 P30 S76.5
G1 Y-1.807
M05
G1 X-0.03
M03 P30 S76.5
G1 Y1.871
M05
G1 X-0.03Y0.054
M03 P30 S76.5
G1 Y-1.925
M05
G1 X-0.03
M03 P30 S76.5
G1 Y1.974
M05
G1 X-0.03Y0.042
M03 P30 S76.5
G1 Y-2.016
M05
G1 X-0.03
M03 P30 S76.5
G1 Y2.055
M05
G1 X-0.03Y0.036
M03 P30 S76.5
G1 Y-2.091
M05
G1 X-0.03
M03 P30 S76.5
G1 Y2.123
M05
G1 X-0.03Y0.03
M03 P30 S76.5
G1 Y-2.153
M05
G1 X-0.03
M03 P30 S76.5
G1 Y2.181
M05
G1 X-0.03Y0.025
M03 P30 S76.5
G1 Y-2.206
M05
G1 X-0.03
M03 P30 S76.5
G1 Y2.23
M05
G1 X-0.03Y0.022
M03 P30 S76.5
G1 Y-2.252
M05
G1 X-0.03
M03 P30 S76.5
G1 Y0.466
M05
G1 Y0.983
M03 P30 S76.5
G1 Y0.824
M05
G1 X-0.03Y0.02
M03 P30 S76.5
G1 Y-0.716
M05
G1 Y-1.111
M03 P30 S76.5
G1 Y-0.466
M05
G1 X-0.03
M03 P30 S76.5
G1 Y0.466
M05
G1 Y1.178
M03 P30 S76.5
G1 Y0.666
M05
G1 X-0.03Y0.018
M03 P30 S76.5
G1 Y-0.622
M05
G1 Y-1.24
M03 P30 S76.5
G1 Y-0.466
M05
G1 X-0.03
M03 P30 S76.5
G1 Y0.466
M05
G1 Y1.287
M03 P30 S76.5
G1 Y0.59
M05
G1 X-0.03Y0.014
M03 P30 S76.5
G1 Y-0.568
M05
G1 Y-1.323
M03 P30 S76.5
G1 Y-0.466
M05
G1 X-0.03
M03 P30 S76.5
G1 Y0.466
M05
G1 Y1.355
M03 P30 S76.5
G1 Y0.551
M05
G1 X-0.03Y0.011
M03 P30 S76.5
G1 Y-0.533
M05
G1 Y-1.384
M03 P30 S76.5
G1 Y-0.466
M05
G1 X-0.03
M03 P30 S76.5
G1 Y0.466
M05
G1 Y1.407
M03 P30 S76.5
G1 Y0.521
M05
G1 X-0.03Y0.011
M03 P30 S76.5
G1 Y-0.51
M05
G1 Y-1.429
M03 P30 S76.5
G1 Y-0.466
M05
G1 X-0.03
M03 P30 S76.5
G1 Y0.466
M05
G1 Y1.447
M03 P30 S76.5
G1 Y0.5
M05
G1 X-0.03Y0.009
M03 P30 S76.5
G1 Y-0.493
M05
G1 Y-1.463
M03 P30 S76.5
G1 Y-0.466
M05
G1 X-0.03
M03 P30 S76.5
G1 Y0.466
M05
G1 Y1.476
M03 P30 S76.5
G1 Y0.488
M05
G1 X-0.03Y0.006
M03 P30 S76.5
G1 Y-0.482
M05
G1 Y-1.488
M03 P30 S76.5
G1 Y-0.466
M05
G1 X-0.03
M03 P30 S76.5
G1 Y0.466
M05
G1 Y1.496
M03 P30 S76.5
G1 Y0.48
M05
G1 X-0.03Y0.006
M03 P30 S76.5
G1 Y-0.477
M05
G1 Y-1.505
M03 P30 S76.5
G1 Y-0.466
M05
G1 X-0.03
M03 P30 S76.5
G1 Y0.466
M05
G1 Y1.513
M03 P30 S76.5
G1 Y0.472
M05
G1 X-0.03
M03 P30 S76.5
G1 Y-0.465
M05
G1 Y-1.52
M03 P30 S76.5
G1 Y-0.466
M05
G1 X-0.03
M03 P30 S76.5
G1 Y0.466
M05
G1 Y1.522
M03 P30 S76.5
G1 Y0.471
M05
G1 X-0.03
M03 P30 S76.5
G1 Y-0.468
M05
G1 Y-1.525
M03 P30 S76.5
G1 Y-0.466
M05
G1 X-0.03
M03 P30 S76.5
G1 Y0.466
M05
G1 Y1.528
M03 P30 S76.5
G1 Y0.468
M05
G1 X-0.03
M03 P30 S76.5
G1 Y-0.466
M05
G1 Y-1.53
M03 P30 S76.5
G1 Y-0.466
M05
G1 X-0.03
M03 P30 S76.5
G1 Y0.466
M05
G1 Y1.528
M03 P30 S76.5
G1 Y0.467
M05
G1 X-0.03
M03 P30 S76.5
G1 Y-0.47
M05
G1 Y-1.525
M03 P30 S76.5
G1 Y-0.466
M05
G1 X-0.03
M03 P30 S76.5
G1 Y0.466
M05
G1 Y1.522
M03 P30 S76.5
G1 Y0.469
M05
G1 X-0.03
M03 P30 S76.5
G1 Y-0.471
M05
G1 Y-1.52
M03 P30 S76.5
G1 Y-0.466
M05
G1 X-0.03
M03 P30 S76.5
G1 Y0.466
M05
G1 Y1.515
M03 P30 S76.5
G1 Y0.471
M05
G1 X-0.03
M03 P30 S76.5
G1 Y-0.479
M05
G1 Y-1.507
M03 P30 S76.5
G1 Y-0.466
M05
G1 X-0.03
M03 P30 S76.5
G1 Y0.466
M05
G1 Y1.499
M03 P30 S76.5
G1 Y0.477
M05
G1 X-0.03Y-0.007
M03 P30 S76.5
G1 Y-0.481
M05
G1 Y-1.488
M03 P30 S76.5
G1 Y-0.466
M05
G1 X-0.03
M03 P30 S76.5
G1 Y0.466
M05
G1 Y1.477
M03 P30 S76.5
G1 Y0.486
M05
G1 X-0.03Y-0.007
M03 P30 S76.5
G1 Y-0.494
M05
G1 Y-1.462
M03 P30 S76.5
G1 Y-0.466
M05
G1 X-0.03
M03 P30 S76.5
G1 Y0.466
M05
G1 Y1.446
M03 P30 S76.5
G1 Y0.504
M05
G1 X-0.03Y-0.012
M03 P30 S76.5
G1 Y-0.512
M05
G1 Y-1.426
M03 P30 S76.5
G1 Y-0.466
M05
G1 X-0.03
M03 P30 S76.5
G1 Y0.466
M05
G1 Y1.403
M03 P30 S76.5
G1 Y0.524
M05
G1 X-0.03Y-0.011
M03 P30 S76.5
G1 Y-0.538
M05
G1 Y-1.378
M03 P30 S76.5
G1 Y-0.466
M05
G1 X-0.03
M03 P30 S76.5
G1 Y0.466
M05
G1 Y1.347
M03 P30 S76.5
G1 Y0.557
M05
G1 X-0.03Y-0.011
M03 P30 S76.5
G1 Y-0.581
M05
G1 Y-1.312
M03 P30 S76.5
G1 Y-0.466
M05
G1 X-0.03
M03 P30 S76.5
G1 Y0.466
M05
G1 Y1.27
M03 P30 S76.5
G1 Y0.607
M05
G1 X-0.03Y-0.018
M03 P30 S76.5
G1 Y-0.64
M05
G1 Y-1.219
M03 P30 S76.5
G1 Y-0.466
M05
G1 X-0.03
M03 P30 S76.5
G1 Y0.466
M05
G1 Y1.152
M03 P30 S76.5
G1 Y0.69
M05
G1 X-0.03Y-0.017
M03 P30 S76.5
G1 Y-0.779
M05
G1 Y-1.046
M03 P30 S76.5
G1 Y-0.466
M05
G1 X-0.03
M03 P30 S76.5
G1 Y2.274
M05
G1 X-0.03Y-0.022
M03 P30 S76.5
G1 Y-2.252
M05
G1 X-0.03
M03 P30 S76.5
G1 Y2.23
M05
G1 X-0.03Y-0.026
M03 P30 S76.5
G1 Y-2.204
M05
G1 X-0.03
M03 P30 S76.5
G1 Y2.179
M05
G1 X-0.03Y-0.03
M03 P30 S76.5
G1 Y-2.149
M05
G1 X-0.03
M03 P30 S76.5
G1 Y2.119
M05
G1 X-0.03Y-0.035
M03 P30 S76.5
G1 Y-2.082
M05
G1 X-0.03
M03 P30 S76.5
G1 Y2.045
M05
G1 X-0.03Y-0.042
M03 P30 S76.5
G1 Y-1.995
M05
G1 X-0.03Y0.01
M03 P30 S76.5
G1 Y1.939
M05
G1 X-0.03Y-0.052
M03 P30 S76.5
G1 Y-1.876
M05
G1 X-0.03Y0.015
M03 P30 S76.5
G1 Y1.801
M05
G1 X-0.03Y-0.071
M03 P30 S76.5
G1 Y-1.706
M05
G1 X-0.03Y0.039
M03 P30 S76.5
G1 Y1.573
M05
G1 X-0.03Y-0.138
M03 P30 S76.5
G1 Y-1.347
M05
G0 X0.138 Y2.876 F0
M03 P30 S76.5
G1 X3.508 F2300
M05
G1 X0.043Y0.03
M03 P30 S76.5
G1 X-3.602
M05
G1 X-0.034Y0.03
M03 P30 S76.5
G1 X3.663
M05
G1 X0.018Y0.03
M03 P30 S76.5
G1 X-3.701
M05
G1 X-0.017Y0.03
M03 P30 S76.5
G1 X3.731
M05
G1 X0.008Y0.03
M03 P30 S76.5
G1 X-3.749
M05
G1 X-0.009Y0.03
M03 P30 S76.5
G1 X3.763
M05
G1 Y0.03
M03 P30 S76.5
G1 X-3.767
M05
G1 Y0.03
M03 P30 S76.5
G1 X3.77
M05
G1 Y0.03
M03 P30 S76.5
G1 X-3.775
M05
G1 Y0.03
M03 P30 S76.5
G1 X3.763
M05
G1 X-0.013Y0.03
M03 P30 S76.5
G1 X-3.75
M05
G1 Y0.03
M03 P30 S76.5
G1 X3.73
M05
G1 X-0.035Y0.03
M03 P30 S76.5
G1 X-3.695
M05
G1 Y0.03
M03 P30 S76.5
G1 X3.634
M05
G1 X-1.434Y0.03
M03 P30 S76.5
G1 X-0.467
M05
G1 X-1.268
M03 P30 S76.5
G1 X-0.466
M05
G1 Y0.03
M03 P30 S76.5
G1 X0.466
M05
G1 X1.268
M03 P30 S76.5
G1 X0.467
M05
G1 Y0.03
M03 P30 S76.5
G1 X-0.467
M05
G1 X-1.268
M03 P30 S76.5
G1 X-0.466
M05
G1 Y0.03
M03 P30 S76.5
G1 X0.466
M05
G1 X1.268
M03 P30 S76.5
G1 X0.467
M05
G1 Y0.03
M03 P30 S76.5
G1 X-0.467
M05
G1 X-1.268
M03 P30 S76.5
G1 X-0.466
M05
G1 Y0.03
M03 P30 S76.5
G1 X0.466
M05
G1 X1.268
M03 P30 S76.5
G1 X0.467
M05
G1 Y0.03
M03 P30 S76.5
G1 X-0.467
M05
G1 X-1.268
M03 P30 S76.5
G1 X-0.466
M05
G1 Y0.03
M03 P30 S76.5
G1 X0.466
M05
G1 X1.268
M03 P30 S76.5
G1 X0.467
M05
G1 Y0.03
M03 P30 S76.5
G1 X-0.467
M05
G1 X-1.268
M03 P30 S76.5
G1 X-0.466
M05
G1 Y0.03
M03 P30 S76.5
G1 X0.466
M05
G1 X1.268
M03 P30 S76.5
G1 X0.467
M05
G1 Y0.03
M03 P30 S76.5
G1 X-0.467
M05
G1 X-1.268
M03 P30 S76.5
G1 X-0.466
M05
G1 Y0.03
M03 P30 S76.5
G1 X0.466
M05
G1 X1.268
M03 P30 S76.5
G1 X0.467
M05
G1 Y0.03
M03 P30 S76.5
G1 X-0.467
M05
G1 X-1.268
M03 P30 S76.5
G1 X-0.466
M05
G1 Y0.03
M03 P30 S76.5
G1 X0.466
M05
G1 X1.268
M03 P30 S76.5
G1 X0.467
M05
G1 Y0.03
M03 P30 S76.5
G1 X-0.467
M05
G1 X-1.268
M03 P30 S76.5
G1 X-0.466
M05
G1 Y0.03
M03 P30 S76.5
G1 X0.466
M05
G1 X1.268
M03 P30 S76.5
G1 X0.467
M05
G1 Y0.03
M03 P30 S76.5
G1 X-0.467
M05
G1 X-1.268
M03 P30 S76.5
G1 X-0.466
M05
G1 Y0.03
M03 P30 S76.5
G1 X0.466
M05
G1 X1.268
M03 P30 S76.5
G1 X0.489
M05
G1 X0.04Y0.03
M03 P30 S76.5
G1 X-0.529
M05
G1 X-1.268
M03 P30 S76.5
G1 X-0.466
M05
G1 Y0.03
M03 P30 S76.5
G1 X0.466
M05
G1 X1.268
M03 P30 S76.5
G1 X0.57
M05
G1 X0.04Y0.03
M03 P30 S76.5
G1 X-0.61
M05
G1 X-1.268
M03 P30 S76.5
G1 X-0.466
M05
G1 Y0.03
M03 P30 S76.5
G1 X0.466
M05
G1 X1.268
M03 P30 S76.5
G1 X0.651
M05
G1 X0.041Y0.03
M03 P30 S76.5
G1 X-0.692
M05
G1 X-1.268
M03 P30 S76.5
G1 X-0.466
M05
G1 Y0.03
M03 P30 S76.5
G1 X0.466
M05
G1 X1.268
M03 P30 S76.5
G1 X0.732
M05
G1 X0.041Y0.03
M03 P30 S76.5
G1 X-0.773
M05
G1 X-1.268
M03 P30 S76.5
G1 X-0.466
M05
G1 Y0.03
M03 P30 S76.5
G1 X0.466
M05
G1 X1.268
M03 P30 S76.5
G1 X0.813
M05
G1 X0.041Y0.03
M03 P30 S76.5
G1 X-0.854
M05
G1 X-1.268
M03 P30 S76.5
G1 X-0.466
M05
G1 Y0.03
M03 P30 S76.5
G1 X0.466
M05
G1 X1.268
M03 P30 S76.5
G1 X0.894
M05
G1 X0.041Y0.03
M03 P30 S76.5
G1 X-0.935
M05
G1 X-1.268
M03 P30 S76.5
G1 X-0.465
M05
G1 Y0.03
M03 P30 S76.5
G1 X0.467
M05
G1 X1.265
M03 P30 S76.5
G1 X0.976
M05
G1 X0.041Y0.03
M03 P30 S76.5
G1 X-1.017
M05
G1 X-1.264
M03 P30 S76.5
G1 X-0.465
M05
G1 Y0.03
M03 P30 S76.5
G1 X0.466
M05
G1 X1.26
M03 P30 S76.5
G1 X1.061
M05
G1 X0.04Y0.03
M03 P30 S76.5
G1 X-1.103
M05
G1 X-1.256
M03 P30 S76.5
G1 X-0.464
M05
G1 Y0.03
M03 P30 S76.5
G1 X0.465
M05
G1 X1.252
M03 P30 S76.5
G1 X1.147
M05
G1 X0.04Y0.03
M03 P30 S76.5
G1 X-1.193
M05
G1 X-1.241
M03 P30 S76.5
G1 X-0.463
M05
G1 Y0.03
M03 P30 S76.5
G1 X0.469
M05
G1 X1.229
M03 P30 S76.5
G1 X1.24
M05
G1 X0.04Y0.03
M03 P30 S76.5
G1 X-0.797
M05
G1 X-0.014
M03 P30 S76.5
G1 X-0.475
M05
G1 X-1.216
M03 P30 S76.5
G1 X-0.467
M05
G1 X0.006Y0.03
M03 P30 S76.5
G1 X0.472
M05
G1 X1.193
M03 P30 S76.5
G1 X0.48
M05
G1 X0.062
M03 P30 S76.5
G1 X0.797
M05
G1 X0.04Y0.03
M03 P30 S76.5
G1 X-0.795
M05
G1 X-0.111
M03 P30 S76.5
G1 X-0.486
M05
G1 X-1.168
M03 P30 S76.5
G1 X-0.479
M05
G1 X0.007Y0.03
M03 P30 S76.5
G1 X0.487
M05
G1 X1.14
M03 P30 S76.5
G1 X0.492
M05
G1 X0.159
M03 P30 S76.5
G1 X0.795
M05
G1 X0.041Y0.03
M03 P30 S76.5
G1 X-0.795
M05
G1 X-0.209
M03 P30 S76.5
G1 X-0.501
M05
G1 X-1.106
M03 P30 S76.5
G1 X-0.494
M05
G1 X0.008Y0.03
M03 P30 S76.5
G1 X0.502
M05
G1 X1.073
M03 P30 S76.5
G1 X0.509
M05
G1 X0.259
M03 P30 S76.5
G1 X0.794
M05
G1 X0.041Y0.03
M03 P30 S76.5
G1 X-0.794
M05
G1 X-0.309
M03 P30 S76.5
G1 X-0.521
M05
G1 X-1.029
M03 P30 S76.5
G1 X-0.516
M05
G1 X0.011Y0.03
M03 P30 S76.5
G1 X0.528
M05
G1 X0.982
M03 P30 S76.5
G1 X0.534
M05
G1 X0.362
M03 P30 S76.5
G1 X0.792
M05
G1 X0.041Y0.03
M03 P30 S76.5
G1 X-0.792
M05
G1 X-0.415
M03 P30 S76.5
G1 X-0.547
M05
G1 X-0.931
M03 P30 S76.5
G1 X-0.542
M05
G1 X0.011Y0.03
M03 P30 S76.5
G1 X0.562
M05
G1 X0.869
M03 P30 S76.5
G1 X0.567
M05
G1 X0.467
M03 P30 S76.5
G1 X0.791
M05
G1 X0.041Y0.03
M03 P30 S76.5
G1 X-0.791
M05
G1 X-0.523
M03 P30 S76.5
G1 X-0.586
M05
G1 X-0.801
M03 P30 S76.5
G1 X-0.583
M05
G1 X0.016Y0.03
M03 P30 S76.5
G1 X0.607
M05
G1 X0.719
M03 P30 S76.5
G1 X0.613
M05
G1 X0.58
M03 P30 S76.5
G1 X0.79
M05
G1 X0.04Y0.03
M03 P30 S76.5
G1 X-0.789
M05
G1 X-0.635
M03 P30 S76.5
G1 X-0.648
M05
G1 X-0.62
M03 P30 S76.5
G1 X-0.642
M05
G1 X0.016Y0.03
M03 P30 S76.5
G1 X0.687
M05
G1 X0.5
M03 P30 S76.5
G1 X0.688
M05
G1 X0.695
M03 P30 S76.5
G1 X0.789
M05
G1 X0.04Y0.03
M03 P30 S76.5
G1 X-0.788
M05
G1 X-0.754
M03 P30 S76.5
G1 X-0.76
M05
G1 X-0.321
M03 P30 S76.5
G1 X-0.757
M05
G1 X0.02Y0.03
M03 P30 S76.5
G1 X1.798
M05
G1 X0.816
M03 P30 S76.5
G1 X0.787
M05
G1 X0.039Y0.03
M03 P30 S76.5
G1 X-0.785
M05
G1 X-0.879
M03 P30 S76.5
G1 X-1.757
M05
G1 X0.024Y0.03
M03 P30 S76.5
G1 X1.711
M05
G1 X0.942
M03 P30 S76.5
G1 X0.781
M05
G1 X0.028Y0.03
M03 P30 S76.5
G1 X-0.768
M05
G1 X-1.009
M03 P30 S76.5
G1 X-1.66
M05
G1 X0.025Y0.03
M03 P30 S76.5
G1 X1.608
M05
G1 X1.077
M03 P30 S76.5
G1 X0.751
M05
G1 X0.014Y0.03
M03 P30 S76.5
G1 X-0.723
M05
G1 X-1.147
M03 P30 S76.5
G1 X-1.55
M05
G1 X0.03Y0.03
M03 P30 S76.5
G1 X1.487
M05
G1 X1.221
M03 P30 S76.5
G1 X0.69
M05
G1 Y0.03
M03 P30 S76.5
G1 X-0.649
M05
G1 X-1.296
M03 P30 S76.5
G1 X-1.42
M05
G1 X0.038Y0.03
M03 P30 S76.5
G1 X1.342
M05
G1 X1.377
M03 P30 S76.5
G1 X0.613
M05
G1 Y0.03
M03 P30 S76.5
G1 X-0.571
M05
G1 X-1.459
M03 P30 S76.5
G1 X-1.264
M05
G1 X2.764Y0.03
M03 P30 S76.5
G1 X0.521
M05
G1 X-0.008Y0.03
M03 P30 S76.5
G1 X-0.472
M05
G1 X0.041Y0.03
M03 P30 S76.5
G1 X0.416
M05
G1 X-0.02Y0.03
M03 P30 S76.5
G1 X-0.354
M05
G1 X0.039Y0.03
M03 P30 S76.5
G1 X0.287
M05
G1 X-0.044Y0.03
M03 P30 S76.5
G1 X-0.196
M05
G1 X-2.926Y-0.15
M03 P30 S76.5
G1 X1.168
M05
G1 X-0.052Y0.03
M03 P30 S76.5
G1 X-1.066
M05
G1 X0.063Y0.03
M03 P30 S76.5
G1 X0.942
M05
G1 X-0.078Y0.03
M03 P30 S76.5
G1 X-0.788
M05
G1 X0.099Y0.03
M03 P30 S76.5
G1 X0.591
M05
G1 X-0.173Y0.03
M03 P30 S76.5
G1 X-0.249
M05
G1 X2.796Y-2.302
M03 P30 S76.5
G1 Y0.175
M05
G1 X-0.031Y0.053
M03 P30 S76.5
G1 Y-0.29
M05
G1 X-0.029Y-0.035
M03 P30 S76.5
G1 Y0.353
M05
G1 X-0.03Y0.02
M03 P30 S76.5
G1 Y-0.396
M05
G1 X-0.031Y-0.016
M03 P30 S76.5
G1 Y0.424
M05
G1 X-0.029Y0.009
M03 P30 S76.5
G1 Y-0.442
M05
G1 X-0.03
M03 P30 S76.5
G1 Y0.45
M05
G1 X-0.03Y2.02
M03 P30 S76.5
G1 Y-0.509
M05
G1 Y-1.509
M03 P30 S76.5
G1 Y-0.458
M05
G1 X-0.03
M03 P30 S76.5
G1 Y0.46
M05
G1 Y1.485
M03 P30 S76.5
G1 Y0.532
M05
G1 X-0.03
M03 P30 S76.5
G1 Y-0.554
M05
G1 Y-1.461
M03 P30 S76.5
G1 Y-0.464
M05
G1 X-0.03
M03 P30 S76.5
G1 Y0.466
M05
G1 Y1.437
M03 P30 S76.5
G1 Y0.565
M05
G1 X-0.03Y-0.015
M03 P30 S76.5
G1 Y-0.572
M05
G1 Y-1.415
M03 P30 S76.5
G1 Y-0.466
M05
G1 X-0.031
M03 P30 S76.5
G1 Y0.466
M05
G1 Y1.392
M03 P30 S76.5
G1 Y0.575
M05
G1 X-0.029Y-0.02
M03 P30 S76.5
G1 Y-0.577
M05
G1 Y-1.37
M03 P30 S76.5
G1 Y-0.466
M05
G1 X-0.03
M03 P30 S76.5
G1 Y0.466
M05
G1 Y1.348
M03 P30 S76.5
G1 Y0.576
M05
G1 X-0.031Y-0.022
M03 P30 S76.5
G1 Y-0.576
M05
G1 Y-1.326
M03 P30 S76.5
G1 Y-0.466
M05
G1 X-0.029
M03 P30 S76.5
G1 Y0.466
M05
G1 Y1.304
M03 P30 S76.5
G1 Y0.576
M05
G1 X-0.03Y-0.022
M03 P30 S76.5
G1 Y-0.577
M05
G1 Y-1.281
M03 P30 S76.5
G1 Y-0.466
M05
G1 X-0.031
M03 P30 S76.5
G1 Y0.466
M05
G1 Y1.259
M03 P30 S76.5
G1 Y0.578
M05
G1 X-0.029Y-0.022
M03 P30 S76.5
G1 Y-0.578
M05
G1 Y-1.237
M03 P30 S76.5
G1 Y-0.466
M05
G1 X-0.03
M03 P30 S76.5
G1 Y0.466
M05
G1 Y1.215
M03 P30 S76.5
G1 Y0.578
M05
G1 X-0.03Y-0.022
M03 P30 S76.5
G1 Y-0.578
M05
G1 Y-1.193
M03 P30 S76.5
G1 Y-0.466
M05
G1 X-0.03
M03 P30 S76.5
G1 Y0.466
M05
G1 Y1.17
M03 P30 S76.5
G1 Y0.579
M05
G1 X-0.03Y-0.022
M03 P30 S76.5
G1 Y-0.579
M05
G1 Y-1.148
M03 P30 S76.5
G1 Y-0.466
M05
G1 X-0.03
M03 P30 S76.5
G1 Y0.466
M05
G1 Y1.126
M03 P30 S76.5
G1 Y0.58
M05
G1 X-0.03Y-0.022
M03 P30 S76.5
G1 Y-0.58
M05
G1 Y-1.104
M03 P30 S76.5
G1 Y-0.466
M05
G1 X-0.031
M03 P30 S76.5
G1 Y0.466
M05
G1 Y1.082
M03 P30 S76.5
G1 Y0.58
M05
G1 X-0.029Y-0.022
M03 P30 S76.5
G1 Y-0.581
M05
G1 Y-1.059
M03 P30 S76.5
G1 Y-0.466
M05
G1 X-0.03
M03 P30 S76.5
G1 Y0.466
M05
G1 Y1.037
M03 P30 S76.5
G1 Y0.581
M05
G1 X-0.031Y-0.022
M03 P30 S76.5
G1 Y-0.581
M05
G1 Y-1.015
M03 P30 S76.5
G1 Y-0.466
M05
G1 X-0.029
M03 P30 S76.5
G1 Y0.466
M05
G1 Y0.993
M03 P30 S76.5
G1 Y0.582
M05
G1 X-0.03Y-0.022
M03 P30 S76.5
G1 Y-0.582
M05
G1 Y-0.971
M03 P30 S76.5
G1 Y-0.466
M05
G1 X-0.03
M03 P30 S76.5
G1 Y0.466
M05
G1 Y0.949
M03 P30 S76.5
G1 Y0.582
M05
G1 X-0.03Y-0.022
M03 P30 S76.5
G1 Y-0.583
M05
G1 Y-0.926
M03 P30 S76.5
G1 Y-0.466
M05
G1 X-0.03
M03 P30 S76.5
G1 Y0.466
M05
G1 Y0.904
M03 P30 S76.5
G1 Y0.583
M05
G1 X-0.03Y-0.022
M03 P30 S76.5
G1 Y-0.583
M05
G1 Y-0.882
M03 P30 S76.5
G1 Y-0.466
M05
G1 X-0.03
M03 P30 S76.5
G1 Y0.466
M05
G1 Y0.86
M03 P30 S76.5
G1 Y0.584
M05
G1 X-0.031Y-0.022
M03 P30 S76.5
G1 Y-0.584
M05
G1 Y-0.838
M03 P30 S76.5
G1 Y-0.466
M05
G1 X-0.029
M03 P30 S76.5
G1 Y0.466
M05
G1 Y0.815
M03 P30 S76.5
G1 Y0.585
M05
G1 X-0.03Y-0.022
M03 P30 S76.5
G1 Y-0.585
M05
G1 Y-0.793
M03 P30 S76.5
G1 Y-0.466
M05
G1 X-0.031
M03 P30 S76.5
G1 Y0.466
M05
G1 Y0.771
M03 P30 S76.5
G1 Y0.585
M05
G1 X-0.029Y-0.022
M03 P30 S76.5
G1 Y-0.585
M05
G1 Y-0.749
M03 P30 S76.5
G1 Y-0.466
M05
G1 X-0.03
M03 P30 S76.5
G1 Y0.466
M05
G1 Y0.727
M03 P30 S76.5
G1 Y0.586
M05
G1 X-0.03Y-0.022
M03 P30 S76.5
G1 Y-0.587
M05
G1 Y-0.704
M03 P30 S76.5
G1 Y-0.466
M05
G1 X-0.03
M03 P30 S76.5
G1 Y0.466
M05
G1 Y0.682
M03 P30 S76.5
G1 Y0.587
M05
G1 X-0.03Y-0.022
M03 P30 S76.5
G1 Y-0.587
M05
G1 Y-0.66
M03 P30 S76.5
G1 Y-0.466
M05
G1 X-0.03
M03 P30 S76.5
G1 Y0.466
M05
G1 Y0.638
M03 P30 S76.5
G1 Y0.587
M05
G1 X-0.03Y-0.021
M03 P30 S76.5
G1 Y-0.588
M05
G1 Y-0.616
M03 P30 S76.5
G1 Y-0.466
M05
G1 X-0.03
M03 P30 S76.5
G1 Y0.466
M05
G1 Y0.593
M03 P30 S76.5
G1 Y0.589
M05
G1 X-0.03Y-0.022
M03 P30 S76.5
G1 Y-0.589
M05
G1 Y-0.571
M03 P30 S76.5
G1 Y-0.466
M05
G1 X-0.03
M03 P30 S76.5
G1 Y0.466
M05
G1 Y0.549
M03 P30 S76.5
G1 Y0.589
M05
G1 X-0.03Y-0.022
M03 P30 S76.5
G1 Y-0.589
M05
G1 Y-0.527
M03 P30 S76.5
G1 Y-0.466
M05
G1 X-0.03
M03 P30 S76.5
G1 Y0.466
M05
G1 Y0.505
M03 P30 S76.5
G1 Y0.589
M05
G1 X-0.03Y0.031
M03 P30 S76.5
G1 Y-1.591
M05
G1 X-0.03
M03 P30 S76.5
G1 Y1.704
M05
G1 X-0.03Y0.085
M03 P30 S76.5
G1 Y-1.789
M05
G1 X-0.03
M03 P30 S76.5
G1 Y1.858
M05
G1 X-0.03Y0.06
M03 P30 S76.5
G1 Y-1.918
M05
G1 X-0.03
M03 P30 S76.5
G1 Y1.967
M05
G1 X-0.03Y0.046
M03 P30 S76.5
G1 Y-2.013
M05
G1 X-0.03
M03 P30 S76.5
G1 Y2.053
M05
G1 X-0.03Y0.037
M03 P30 S76.5
G1 Y-2.09
M05
G1 X-0.03
M03 P30 S76.5
G1 Y2.124
M05
G1 X-0.03Y0.031
M03 P30 S76.5
G1 Y-2.155
M05
G1 X-0.03
M03 P30 S76.5
G1 Y2.182
M05
G1 X-0.03Y0.028
M03 P30 S76.5
G1 Y-2.21
M05
G1 X-0.03
M03 P30 S76.5
G1 Y2.233
M05
G1 X-0.03Y0.023
M03 P30 S76.5
G1 Y-2.256
M05
G1 X-0.03
M03 P30 S76.5
G1 Y0.466
M05
G1 Y1.008
M03 P30 S76.5
G1 Y0.803
M05
G1 X-0.03Y0.019
M03 P30 S76.5
G1 Y-0.708
M05
G1 Y-1.122
M03 P30 S76.5
G1 Y-0.466
M05
G1 X-0.03
M03 P30 S76.5
G1 Y0.466
M05
G1 Y1.188
M03 P30 S76.5
G1 Y0.661
M05
G1 X-0.03Y0.017
M03 P30 S76.5
G1 Y-0.627
M05
G1 Y-1.239
M03 P30 S76.5
G1 Y-0.466
M05
G1 X-0.03
M03 P30 S76.5
G1 Y0.466
M05
G1 Y1.281
M03 P30 S76.5
G1 Y0.599
M05
G1 X-0.03Y0.015
M03 P30 S76.5
G1 Y-0.576
M05
G1 Y-1.319
M03 P30 S76.5
G1 Y-0.466
M05
G1 X-0.03
M03 P30 S76.5
G1 Y0.466
M05
G1 Y1.349
M03 P30 S76.5
G1 Y0.559
M05
G1 X-0.03Y0.011
M03 P30 S76.5
G1 Y-0.542
M05
G1 Y-1.377
M03 P30 S76.5
G1 Y-0.466
M05
G1 X-0.03
M03 P30 S76.5
G1 Y0.466
M05
G1 Y1.4
M03 P30 S76.5
G1 Y0.531
M05
G1 X-0.03Y0.01
M03 P30 S76.5
G1 Y-0.519
M05
G1 Y-1.422
M03 P30 S76.5
G1 Y-0.466
M05
G1 X-0.03
M03 P30 S76.5
G1 Y0.466
M05
G1 Y1.441
M03 P30 S76.5
G1 Y0.508
M05
G1 X-0.03Y0.009
M03 P30 S76.5
G1 Y-0.501
M05
G1 Y-1.457
M03 P30 S76.5
G1 Y-0.466
M05
G1 X-0.03
M03 P30 S76.5
G1 Y0.466
M05
G1 Y1.472
M03 P30 S76.5
G1 Y0.493
M05
G1 X-0.03Y0.006
M03 P30 S76.5
G1 Y-0.487
M05
G1 Y-1.484
M03 P30 S76.5
G1 Y-0.466
M05
G1 X-0.03
M03 P30 S76.5
G1 Y0.466
M05
G1 Y1.495
M03 P30 S76.5
G1 Y0.482
M05
G1 X-0.03Y0.006
M03 P30 S76.5
G1 Y-0.478
M05
G1 Y-1.505
M03 P30 S76.5
G1 Y-0.466
M05
G1 X-0.03
M03 P30 S76.5
G1 Y0.466
M05
G1 Y1.512
M03 P30 S76.5
G1 Y0.474
M05
G1 X-0.03
M03 P30 S76.5
G1 Y-0.468
M05
G1 Y-1.518
M03 P30 S76.5
G1 Y-0.466
M05
G1 X-0.03
M03 P30 S76.5
G1 Y0.466
M05
G1 Y1.524
M03 P30 S76.5
G1 Y0.469
M05
G1 X-0.03
M03 P30 S76.5
G1 Y-0.467
M05
G1 Y-1.526
M03 P30 S76.5
G1 Y-0.466
M05
G1 X-0.03
M03 P30 S76.5
G1 Y0.466
M05
G1 Y1.528
M03 P30 S76.5
G1 Y0.467
M05
G1 X-0.03
M03 P30 S76.5
G1 Y-0.465
M05
G1 Y-1.53
M03 P30 S76.5
G1 Y-0.466
M05
G1 X-0.03
M03 P30 S76.5
G1 Y0.466
M05
G1 Y1.528
M03 P30 S76.5
G1 Y0.467
M05
G1 X-0.03
M03 P30 S76.5
G1 Y-0.469
M05
G1 Y-1.526
M03 P30 S76.5
G1 Y-0.466
M05
G1 X-0.03
M03 P30 S76.5
G1 Y0.466
M05
G1 Y1.523
M03 P30 S76.5
G1 Y0.469
M05
G1 X-0.03
M03 P30 S76.5
G1 Y-0.475
M05
G1 Y-1.517
M03 P30 S76.5
G1 Y-0.466
M05
G1 X-0.03
M03 P30 S76.5
G1 Y0.466
M05
G1 Y1.51
M03 P30 S76.5
G1 Y0.476
M05
G1 X-0.03
M03 P30 S76.5
G1 Y-0.483
M05
G1 Y-1.503
M03 P30 S76.5
G1 Y-0.466
M05
G1 X-0.03
M03 P30 S76.5
G1 Y0.466
M05
G1 Y1.492
M03 P30 S76.5
G1 Y0.485
M05
G1 X-0.03Y-0.005
M03 P30 S76.5
G1 Y-0.491
M05
G1 Y-1.481
M03 P30 S76.5
G1 Y-0.466
M05
G1 X-0.03
M03 P30 S76.5
G1 Y0.466
M05
G1 Y1.468
M03 P30 S76.5
G1 Y0.497
M05
G1 X-0.03Y-0.007
M03 P30 S76.5
G1 Y-0.506
M05
G1 Y-1.452
M03 P30 S76.5
G1 Y-0.466
M05
G1 X-0.03
M03 P30 S76.5
G1 Y0.466
M05
G1 Y1.435
M03 P30 S76.5
G1 Y0.516
M05
G1 X-0.03Y-0.01
M03 P30 S76.5
G1 Y-0.526
M05
G1 Y-1.415
M03 P30 S76.5
G1 Y-0.466
M05
G1 X-0.03
M03 P30 S76.5
G1 Y0.466
M05
G1 Y1.393
M03 P30 S76.5
G1 Y0.537
M05
G1 X-0.03Y-0.01
M03 P30 S76.5
G1 Y-0.551
M05
G1 Y-1.369
M03 P30 S76.5
G1 Y-0.466
M05
G1 X-0.03
M03 P30 S76.5
G1 Y0.466
M05
G1 Y1.339
M03 P30 S76.5
G1 Y0.569
M05
G1 X-0.03Y-0.014
M03 P30 S76.5
G1 Y-0.586
M05
G1 Y-1.308
M03 P30 S76.5
G1 Y-0.466
M05
G1 X-0.03
M03 P30 S76.5
G1 Y0.466
M05
G1 Y1.268
M03 P30 S76.5
G1 Y0.612
M05
G1 X-0.03Y-0.015
M03 P30 S76.5
G1 Y-0.641
M05
G1 Y-1.224
M03 P30 S76.5
G1 Y-0.466
M05
G1 X-0.03
M03 P30 S76.5
G1 Y0.466
M05
G1 Y1.169
M03 P30 S76.5
G1 Y0.678
M05
G1 X-0.03Y-0.019
M03 P30 S76.5
G1 Y-0.732
M05
G1 Y-1.096
M03 P30 S76.5
G1 Y-0.466
M05
G1 X-0.03
M03 P30 S76.5
G1 Y2.275
M05
G1 X-0.03Y-0.023
M03 P30 S76.5
G1 Y-2.252
M05
G1 X-0.03
M03 P30 S76.5
G1 Y2.228
M05
G1 X-0.03Y-0.024
M03 P30 S76.5
G1 Y-2.204
M05
G1 X-0.03
M03 P30 S76.5
G1 Y2.175
M05
G1 X-0.03Y-0.03
M03 P30 S76.5
G1 Y-2.145
M05
G1 X-0.03
M03 P30 S76.5
G1 Y2.113
M05
G1 X-0.03Y-0.037
M03 P30 S76.5
G1 Y-2.076
M05
G1 X-0.03
M03 P30 S76.5
G1 Y2.039
M05
G1 X-0.03Y-0.045
M03 P30 S76.5
G1 Y-1.985
M05
G1 X-0.03Y0.011
M03 P30 S76.5
G1 Y1.928
M05
G1 X-0.03Y-0.058
M03 P30 S76.5
G1 Y-1.858
M05
G1 X-0.03Y0.02
M03 P30 S76.5
G1 Y1.776
M05
G1 X-0.03Y-0.077
M03 P30 S76.5
G1 Y-1.675
M05
G1 X-0.03Y0.043
M03 P30 S76.5
G1 Y1.531
M05
G1 X-0.03Y-0.166
M03 P30 S76.5
G1 Y-1.291
M05
G1 X3.719Y1.939
M03 P30 S76.5
G1 Y0.216
M05
G1 X-0.029Y0.049
M03 P30 S76.5
G1 Y-0.304
M05
G1 X-0.03Y-0.032
M03 P30 S76.5
G1 Y0.367
M05
G1 X-0.031Y0.021
M03 P30 S76.5
G1 Y-0.412
M05
G1 X-0.029Y-0.023
M03 P30 S76.5
G1 Y0.45
M05
G1 X-0.03Y0.01
M03 P30 S76.5
G1 Y-0.483
M05
G0 X-3.433 Y1.073 F0
M03 P30 S76.5
G1 X3.484 F2300
M05
G1 X0.063Y0.03
M03 P30 S76.5
G1 X-3.615
M05
G1 X-0.029Y0.03
M03 P30 S76.5
G1 X3.671
M05
G1 X0.021Y0.03
M03 P30 S76.5
G1 X-3.711
M05
G1 X-0.014Y0.03
M03 P30 S76.5
G1 X3.736
M05
G1 X0.01Y0.03
M03 P30 S76.5
G1 X-3.755
M05
G1 X-0.006Y0.03
M03 P30 S76.5
G1 X3.765
M05
G1 Y0.03
M03 P30 S76.5
G1 X-3.768
M05
G1 Y0.03
M03 P30 S76.5
G1 X3.773
M05
G1 Y0.03
M03 P30 S76.5
G1 X-3.775
M05
G1 Y0.03
M03 P30 S76.5
G1 X3.775
M05
G1 Y0.03
M03 P30 S76.5
G1 X-3.775
M05
G1 Y0.03
M03 P30 S76.5
G1 X3.775
M05
G1 Y0.03
M03 P30 S76.5
G1 X-3.775
M05
G1 Y0.03
M03 P30 S76.5
G1 X3.775
M05
G1 Y0.03
M03 P30 S76.5
G1 X-0.465
M05
G1 X-1.426
M03 P30 S76.5
G1 X-0.466
M05
G1 X-0.953
M03 P30 S76.5
G1 X-0.465
M05
G1 Y0.03
M03 P30 S76.5
G1 X0.465
M05
G1 X0.953
M03 P30 S76.5
G1 X0.466
M05
G1 X1.426
M03 P30 S76.5
G1 X0.465
M05
G1 Y0.03
M03 P30 S76.5
G1 X-0.465
M05
G1 X-1.426
M03 P30 S76.5
G1 X-0.466
M05
G1 X-0.953
M03 P30 S76.5
G1 X-0.465
M05
G1 Y0.03
M03 P30 S76.5
G1 X0.465
M05
G1 X0.953
M03 P30 S76.5
G1 X0.466
M05
G1 X1.426
M03 P30 S76.5
G1 X0.465
M05
G1 Y0.03
M03 P30 S76.5
G1 X-0.465
M05
G1 X-1.426
M03 P30 S76.5
G1 X-0.466
M05
G1 X-0.953
M03 P30 S76.5
G1 X-0.465
M05
G1 Y0.03
M03 P30 S76.5
G1 X0.465
M05
G1 X0.953
M03 P30 S76.5
G1 X0.466
M05
G1 X1.426
M03 P30 S76.5
G1 X0.465
M05
G1 Y0.03
M03 P30 S76.5
G1 X-0.465
M05
G1 X-1.426
M03 P30 S76.5
G1 X-0.466
M05
G1 X-0.953
M03 P30 S76.5
G1 X-0.465
M05
G1 Y0.03
M03 P30 S76.5
G1 X0.465
M05
G1 X0.953
M03 P30 S76.5
G1 X0.466
M05
G1 X1.426
M03 P30 S76.5
G1 X0.465
M05
G1 Y0.03
M03 P30 S76.5
G1 X-0.465
M05
G1 X-1.426
M03 P30 S76.5
G1 X-0.466
M05
G1 X-0.953
M03 P30 S76.5
G1 X-0.465
M05
G1 Y0.03
M03 P30 S76.5
G1 X0.465
M05
G1 X0.953
M03 P30 S76.5
G1 X0.466
M05
G1 X1.426
M03 P30 S76.5
G1 X0.465
M05
G1 Y0.03
M03 P30 S76.5
G1 X-0.465
M05
G1 X-1.426
M03 P30 S76.5
G1 X-0.466
M05
G1 X-0.953
M03 P30 S76.5
G1 X-0.465
M05
G1 Y0.03
M03 P30 S76.5
G1 X0.465
M05
G1 X0.953
M03 P30 S76.5
G1 X0.466
M05
G1 X1.426
M03 P30 S76.5
G1 X0.466
M05
G1 Y0.03
M03 P30 S76.5
G1 X-0.466
M05
G1 X-1.426
M03 P30 S76.5
G1 X-0.466
M05
G1 X-0.953
M03 P30 S76.5
G1 X-0.466
M05
G1 Y0.03
M03 P30 S76.5
G1 X0.466
M05
G1 X0.953
M03 P30 S76.5
G1 X0.466
M05
G1 X1.426
M03 P30 S76.5
G1 X0.466
M05
G1 Y0.03
M03 P30 S76.5
G1 X-0.466
M05
G1 X-1.426
M03 P30 S76.5
G1 X-0.466
M05
G1 X-0.953
M03 P30 S76.5
G1 X-0.466
M05
G1 Y0.03
M03 P30 S76.5
G1 X0.466
M05
G1 X0.953
M03 P30 S76.5
G1 X0.466
M05
G1 X1.426
M03 P30 S76.5
G1 X0.466
M05
G1 Y0.03
M03 P30 S76.5
G1 X-0.466
M05
G1 X-1.426
M03 P30 S76.5
G1 X-0.466
M05
G1 X-0.953
M03 P30 S76.5
G1 X-0.466
M05
G1 Y0.03
M03 P30 S76.5
G1 X0.466
M05
G1 X0.953
M03 P30 S76.5
G1 X0.466
M05
G1 X1.426
M03 P30 S76.5
G1 X0.466
M05
G1 Y0.03
M03 P30 S76.5
G1 X-0.466
M05
G1 X-1.426
M03 P30 S76.5
G1 X-0.466
M05
G1 X-0.953
M03 P30 S76.5
G1 X-0.466
M05
G1 Y0.03
M03 P30 S76.5
G1 X0.466
M05
G1 X0.953
M03 P30 S76.5
G1 X0.466
M05
G1 X1.426
M03 P30 S76.5
G1 X0.466
M05
G1 Y0.03
M03 P30 S76.5
G1 X-0.466
M05
G1 X-1.426
M03 P30 S76.5
G1 X-0.466
M05
G1 X-0.953
M03 P30 S76.5
G1 X-0.466
M05
G1 Y0.03
M03 P30 S76.5
G1 X0.466
M05
G1 X0.953
M03 P30 S76.5
G1 X0.466
M05
G1 X1.426
M03 P30 S76.5
G1 X0.466
M05
G1 Y0.03
M03 P30 S76.5
G1 X-0.466
M05
G1 X-1.426
M03 P30 S76.5
G1 X-0.466
M05
G1 X-0.953
M03 P30 S76.5
G1 X-0.466
M05
G1 Y0.03
M03 P30 S76.5
G1 X0.466
M05
G1 X0.953
M03 P30 S76.5
G1 X0.466
M05
G1 X1.426
M03 P30 S76.5
G1 X0.466
M05
G1 Y0.03
M03 P30 S76.5
G1 X-0.466
M05
G1 X-1.426
M03 P30 S76.5
G1 X-0.466
M05
G1 X-0.953
M03 P30 S76.5
G1 X-0.466
M05
G1 Y0.03
M03 P30 S76.5
G1 X0.466
M05
G1 X0.953
M03 P30 S76.5
G1 X0.466
M05
G1 X1.426
M03 P30 S76.5
G1 X0.466
M05
G1 Y0.03
M03 P30 S76.5
G1 X-0.466
M05
G1 X-1.426
M03 P30 S76.5
G1 X-0.466
M05
G1 X-0.953
M03 P30 S76.5
G1 X-0.466
M05
G1 Y0.03
M03 P30 S76.5
G1 X0.466
M05
G1 X0.953
M03 P30 S76.5
G1 X0.466
M05
G1 X1.426
M03 P30 S76.5
G1 X0.466
M05
G1 Y0.03
M03 P30 S76.5
G1 X-0.466
M05
G1 X-1.426
M03 P30 S76.5
G1 X-0.466
M05
G1 X-0.953
M03 P30 S76.5
G1 X-0.466
M05
G1 Y0.03
M03 P30 S76.5
G1 X0.466
M05
G1 X0.953
M03 P30 S76.5
G1 X0.466
M05
G1 X1.426
M03 P30 S76.5
G1 X0.466
M05
G1 Y0.03
M03 P30 S76.5
G1 X-0.466
M05
G1 X-1.426
M03 P30 S76.5
G1 X-0.466
M05
G1 X-0.953
M03 P30 S76.5
G1 X-0.466
M05
G1 Y0.03
M03 P30 S76.5
G1 X0.466
M05
G1 X0.953
M03 P30 S76.5
G1 X0.466
M05
G1 X1.426
M03 P30 S76.5
G1 X0.466
M05
G1 Y0.03
M03 P30 S76.5
G1 X-0.466
M05
G1 X-1.426
M03 P30 S76.5
G1 X-0.466
M05
G1 X-0.953
M03 P30 S76.5
G1 X-0.466
M05
G1 Y0.03
M03 P30 S76.5
G1 X0.466
M05
G1 X0.953
M03 P30 S76.5
G1 X0.466
M05
G1 X1.426
M03 P30 S76.5
G1 X0.466
M05
G1 Y0.03
M03 P30 S76.5
G1 X-0.466
M05
G1 X-1.426
M03 P30 S76.5
G1 X-0.466
M05
G1 X-0.953
M03 P30 S76.5
G1 X-0.466
M05
G1 Y0.03
M03 P30 S76.5
G1 X0.466
M05
G1 X0.953
M03 P30 S76.5
G1 X0.466
M05
G1 X1.426
M03 P30 S76.5
G1 X0.466
M05
G1 Y0.03
M03 P30 S76.5
G1 X-0.466
M05
G1 X-1.426
M03 P30 S76.5
G1 X-0.466
M05
G1 X-0.953
M03 P30 S76.5
G1 X-0.466
M05
G1 Y0.03
M03 P30 S76.5
G1 X0.466
M05
G1 X0.953
M03 P30 S76.5
G1 X0.466
M05
G1 X1.426
M03 P30 S76.5
G1 X0.466
M05
G1 Y0.03
M03 P30 S76.5
G1 X-0.466
M05
G1 X-1.426
M03 P30 S76.5
G1 X-0.466
M05
G1 X-0.953
M03 P30 S76.5
G1 X-0.466
M05
G1 Y0.03
M03 P30 S76.5
G1 X0.466
M05
G1 X0.953
M03 P30 S76.5
G1 X0.466
M05
G1 X1.426
M03 P30 S76.5
G1 X0.466
M05
G1 Y0.03
M03 P30 S76.5
G1 X-0.466
M05
G1 X-1.426
M03 P30 S76.5
G1 X-0.466
M05
G1 X-0.953
M03 P30 S76.5
G1 X-0.466
M05
G1 Y0.03
M03 P30 S76.5
G1 X0.466
M05
G1 X0.953
M03 P30 S76.5
G1 X0.466
M05
G1 X1.426
M03 P30 S76.5
G1 X0.466
M05
G1 Y0.03
M03 P30 S76.5
G1 X-0.466
M05
G1 X-1.426
M03 P30 S76.5
G1 X-0.466
M05
G1 X-0.953
M03 P30 S76.5
G1 X-0.466
M05
G1 Y0.03
M03 P30 S76.5
G1 X0.466
M05
G1 X0.953
M03 P30 S76.5
G1 X0.466
M05
G1 X1.426
M03 P30 S76.5
G1 X0.466
M05
G1 Y0.03
M03 P30 S76.5
G1 X-0.466
M05
G1 X-1.428
M03 P30 S76.5
G1 X-0.463
M05
G1 X-0.954
M03 P30 S76.5
G1 X-0.466
M05
G1 Y0.03
M03 P30 S76.5
G1 X0.466
M05
G1 X0.956
M03 P30 S76.5
G1 X0.459
M05
G1 X1.43
M03 P30 S76.5
G1 X0.466
M05
G1 Y0.03
M03 P30 S76.5
G1 X-0.466
M05
G1 X-1.432
M03 P30 S76.5
G1 X-0.454
M05
G1 X-0.959
M03 P30 S76.5
G1 X-0.466
M05
G1 Y0.03
M03 P30 S76.5
G1 X0.466
M05
G1 X0.961
M03 P30 S76.5
G1 X0.448
M05
G1 X1.436
M03 P30 S76.5
G1 X0.466
M05
G1 Y0.03
M03 P30 S76.5
G1 X-0.466
M05
G1 X-1.443
M03 P30 S76.5
G1 X-0.433
M05
G1 X-0.969
M03 P30 S76.5
G1 X-0.466
M05
G1 Y0.03
M03 P30 S76.5
G1 X0.466
M05
G1 X0.979
M03 P30 S76.5
G1 X0.412
M05
G1 X1.454
M03 P30 S76.5
G1 X0.466
M05
G1 Y0.03
M03 P30 S76.5
G1 X-0.466
M05
G1 X-1.466
M03 P30 S76.5
G1 X-0.385
M05
G1 X-0.994
M03 P30 S76.5
G1 X-0.466
M05
G1 Y0.03
M03 P30 S76.5
G1 X0.466
M05
G1 X1.017
M03 P30 S76.5
G1 X0.339
M05
G1 X1.489
M03 P30 S76.5
G1 X0.466
M05
G1 Y0.03
M03 P30 S76.5
G1 X-0.466
M05
G1 X-1.522
M03 P30 S76.5
G1 X-0.272
M05
G1 X-1.051
M03 P30 S76.5
G1 X-0.466
M05
G1 X3.311Y0.03
M03 P30 S76.5
G1 X0.466
M05
G1 Y0.03
M03 P30 S76.5
G1 X-0.466
M05
G1 Y0.03
M03 P30 S76.5
G1 X0.466
M05
G1 Y0.03
M03 P30 S76.5
G1 X-0.466
M05
G1 Y0.03
M03 P30 S76.5
G1 X0.466
M05
G1 Y0.03
M03 P30 S76.5
G1 X-0.466
M05
G1 Y0.03
M03 P30 S76.5
G1 X0.466
M05
G1 Y0.03
M03 P30 S76.5
G1 X-0.466
M05
G1 Y0.03
M03 P30 S76.5
G1 X0.463
M05
G1 Y0.03
M03 P30 S76.5
G1 X-0.463
M05
G1 Y0.03
M03 P30 S76.5
G1 X0.46
M05
G1 Y0.03
M03 P30 S76.5
G1 X-0.457
M05
G1 X0.008Y0.03
M03 P30 S76.5
G1 X0.438
M05
G1 X-0.01Y0.03
M03 P30 S76.5
G1 X-0.414
M05
G1 X0.016Y0.03
M03 P30 S76.5
G1 X0.387
M05
G1 X-0.019Y0.03
M03 P30 S76.5
G1 X-0.348
M05
G1 X0.032Y0.03
M03 P30 S76.5
G1 X0.289
M05
G1 X-0.045Y0.03
M03 P30 S76.5
G1 X-0.184
M05
G1 X-3.464Y-0.51
M03 P30 S76.5
G1 X0.466
M05
G1 X1.126
M03 P30 S76.5
G1 X0.127
M05
G1 X-1.253Y0.03
M03 P30 S76.5
G1 X-0.466
M05
G1 Y0.03
M03 P30 S76.5
G1 X0.466
M05
G1 Y0.03
M03 P30 S76.5
G1 X-0.466
M05
G1 Y0.03
M03 P30 S76.5
G1 X0.466
M05
G1 Y0.03
M03 P30 S76.5
G1 X-0.466
M05
G1 Y0.03
M03 P30 S76.5
G1 X0.466
M05
G1 Y0.03
M03 P30 S76.5
G1 X-0.466
M05
G1 Y0.03
M03 P30 S76.5
G1 X0.463
M05
G1 Y0.03
M03 P30 S76.5
G1 X-0.459
M05
G1 Y0.03
M03 P30 S76.5
G1 X0.455
M05
G1 X-0.006Y0.03
M03 P30 S76.5
G1 X-0.442
M05
G1 X0.008Y0.03
M03 P30 S76.5
G1 X0.426
M05
G1 X-0.014Y0.03
M03 P30 S76.5
G1 X-0.4
M05
G1 X0.015Y0.03
M03 P30 S76.5
G1 X0.368
M05
G1 X-0.024Y0.03
M03 P30 S76.5
G1 X-0.318
M05
G1 X0.042Y0.03
M03 P30 S76.5
G1 X0.233
M05
G1 X3.417Y-2.38
M03 P30 S76.5
G1 Y2.245
M05
G1 X-0.031Y0.084
M03 P30 S76.5
G1 Y-2.397
M05
G1 X-0.029Y-0.038
M03 P30 S76.5
G1 Y2.478
M05
G1 X-0.031Y0.023
M03 P30 S76.5
G1 Y-2.521
M05
G1 X-0.03Y-0.012
M03 P30 S76.5
G1 Y2.549
M05
G1 X-0.029Y0.011
M03 P30 S76.5
G1 Y-2.568
M05
G1 X-0.031Y-0.006
M03 P30 S76.5
G1 Y2.578
M05
G1 X-0.029
M03 P30 S76.5
G1 Y-2.581
M05
G1 X-0.03
M03 P30 S76.5
G1 Y2.579
M05
G1 X-0.031Y-0.005
M03 P30 S76.5
G1 Y-2.576
M05
G1 X-0.029
M03 P30 S76.5
G1 Y2.567
M05
G1 X-0.03Y-0.014
M03 P30 S76.5
G1 Y-2.553
M05
G1 X-0.031
M03 P30 S76.5
G1 Y2.537
M05
G1 X-0.029Y-0.028
M03 P30 S76.5
G1 Y-2.509
M05
G1 X-0.03
M03 P30 S76.5
G1 Y2.462
M05
G1 X-0.031Y-0.081
M03 P30 S76.5
G1 Y-2.381
M05
G1 X-0.029
M03 P30 S76.5
G1 Y0.467
M05
G1 X-0.031
M03 P30 S76.5
G1 Y-0.467
M05
G1 X-0.03
M03 P30 S76.5
G1 Y0.467
M05
G1 X-0.029
M03 P30 S76.5
G1 Y-0.467
M05
G1 X-0.031
M03 P30 S76.5
G1 Y0.467
M05
G1 X-0.029
M03 P30 S76.5
G1 Y-0.467
M05
G1 X-0.03
M03 P30 S76.5
G1 Y0.467
M05
G1 X-0.031
M03 P30 S76.5
G1 Y-0.467
M05
G1 X-0.029
M03 P30 S76.5
G1 Y0.467
M05
G1 X-0.03
M03 P30 S76.5
G1 Y-0.467
M05
G1 X-0.031
M03 P30 S76.5
G1 Y0.467
M05
G1 X-0.029
M03 P30 S76.5
G1 Y-0.467
M05
G1 X-0.031
M03 P30 S76.5
G1 Y0.467
M05
G1 X-0.03
M03 P30 S76.5
G1 Y-0.467
M05
G1 X-0.029
M03 P30 S76.5
G1 Y0.467
M05
G1 X-0.031
M03 P30 S76.5
G1 Y-0.467
M05
G1 X-0.029
M03 P30 S76.5
G1 Y0.467
M05
G1 X-0.03
M03 P30 S76.5
G1 Y-0.467
M05
G1 X-0.031
M03 P30 S76.5
G1 Y0.467
M05
G1 X-0.029
M03 P30 S76.5
G1 Y-0.467
M05
G1 X-0.03
M03 P30 S76.5
G1 Y0.467
M05
G1 X-0.031
M03 P30 S76.5
G1 Y-0.467
M05
G1 X-0.029
M03 P30 S76.5
G1 Y0.467
M05
G1 X-0.03
M03 P30 S76.5
G1 Y-0.467
M05
G1 X-0.031
M03 P30 S76.5
G1 Y0.467
M05
G1 X-0.029
M03 P30 S76.5
G1 Y-0.467
M05
G1 X-0.031
M03 P30 S76.5
G1 Y0.467
M05
G1 X-0.029
M03 P30 S76.5
G1 Y-0.467
M05
G1 X-0.03
M03 P30 S76.5
G1 Y0.467
M05
G1 X-0.031
M03 P30 S76.5
G1 Y-0.467
M05
G1 X-0.03
M03 P30 S76.5
G1 Y0.467
M05
G1 X-0.029
M03 P30 S76.5
G1 Y-0.467
M05
G1 X-0.03
M03 P30 S76.5
G1 Y0.467
M05
G1 X-0.031
M03 P30 S76.5
G1 Y-0.467
M05
G1 X-0.029
M03 P30 S76.5
G1 Y0.467
M05
G1 X-0.03
M03 P30 S76.5
G1 Y-0.467
M05
G1 X-0.03
M03 P30 S76.5
G1 Y0.467
M05
G1 X-0.031
M03 P30 S76.5
G1 Y-0.467
M05
G1 X-0.029
M03 P30 S76.5
G1 Y0.467
M05
G1 X-0.03
M03 P30 S76.5
G1 Y-0.467
M05
G1 X-0.031
M03 P30 S76.5
G1 Y0.467
M05
G1 X-0.029
M03 P30 S76.5
G1 Y-0.467
M05
G1 X-0.03
M03 P30 S76.5
G1 Y0.467
M05
G1 X-0.031
M03 P30 S76.5
G1 Y-0.467
M05
G1 X-0.03
M03 P30 S76.5
G1 Y0.467
M05
G1 X-0.029
M03 P30 S76.5
G1 Y-0.467
M05
G1 X-0.03
M03 P30 S76.5
G1 Y0.467
M05
G1 X-0.031Y1.416
M03 P30 S76.5
G1 Y-1.883
M05
G1 X-0.029
M03 P30 S76.5
G1 Y1.969
M05
G1 X-0.03Y0.039
M03 P30 S76.5
G1 Y-2.008
M05
G1 X-0.03
M03 P30 S76.5
G1 Y2.031
M05
G1 X-0.031Y0.016
M03 P30 S76.5
G1 Y-2.047
M05
G1 X-0.029
M03 P30 S76.5
G1 Y2.056
M05
G1 X-0.03
M03 P30 S76.5
G1 Y-2.055
M05
G1 X-0.031
M03 P30 S76.5
G1 Y2.061
M05
G1 X-0.03
M03 P30 S76.5
G1 Y-2.061
M05
G1 X-0.029
M03 P30 S76.5
G1 Y2.059
M05
G1 X-0.031Y-0.008
M03 P30 S76.5
G1 Y-2.051
M05
G1 X-0.03
M03 P30 S76.5
G1 Y2.042
M05
G1 X-0.029Y-0.018
M03 P30 S76.5
G1 Y-2.024
M05
G1 X-0.03
M03 P30 S76.5
G1 Y1.997
M05
G1 X-0.03Y-0.044
M03 P30 S76.5
G1 Y-1.953
M05
G1 X-0.031
M03 P30 S76.5
G1 Y1.832
M05
G1 X-0.029Y-1.366
M03 P30 S76.5
G1 Y-0.466
M05
G1 X-0.03
M03 P30 S76.5
G1 Y0.466
M05
G1 X-0.031
M03 P30 S76.5
G1 Y-0.466
M05
G1 X-0.029
M03 P30 S76.5
G1 Y0.466
M05
G1 X-0.03
M03 P30 S76.5
G1 Y-0.466
M05
G1 X-0.031
M03 P30 S76.5
G1 Y0.466
M05
G1 X-0.03
M03 P30 S76.5
G1 Y-0.466
M05
G1 X-0.029
M03 P30 S76.5
G1 Y0.466
M05
G1 X-0.03
M03 P30 S76.5
G1 Y-0.466
M05
G1 X-0.03
M03 P30 S76.5
G1 Y0.466
M05
G1 X-0.03
M03 P30 S76.5
G1 Y-0.466
M05
G1 X-0.03
M03 P30 S76.5
G1 Y0.466
M05
G1 X-0.03
M03 P30 S76.5
G1 Y-0.466
M05
G1 X-0.031
M03 P30 S76.5
G1 Y0.466
M05
G1 X-0.029
M03 P30 S76.5
G1 Y-0.466
M05
G1 X-0.03
M03 P30 S76.5
G1 Y0.466
M05
G1 X-0.031
M03 P30 S76.5
G1 Y-0.466
M05
G1 X-0.03
M03 P30 S76.5
G1 Y0.466
M05
G1 X-0.029
M03 P30 S76.5
G1 Y-0.466
M05
G1 X-0.03
M03 P30 S76.5
G1 Y0.466
M05
G1 X-0.031
M03 P30 S76.5
G1 Y-0.466
M05
G1 X-0.029
M03 P30 S76.5
G1 Y0.466
M05
G1 X-0.03
M03 P30 S76.5
G1 Y-0.466
M05
G1 X-0.03
M03 P30 S76.5
G1 Y0.466
M05
G1 X-0.031
M03 P30 S76.5
G1 Y-0.466
M05
G1 X-0.029
M03 P30 S76.5
G1 Y0.466
M05
G1 X-0.03
M03 P30 S76.5
G1 Y-0.466
M05
G1 X-0.031
M03 P30 S76.5
G1 Y0.466
M05
G1 X-0.029
M03 P30 S76.5
G1 Y-0.466
M05
G1 X-0.03
M03 P30 S76.5
G1 Y0.466
M05
G1 X-0.031
M03 P30 S76.5
G1 Y-0.466
M05
G1 X-0.03
M03 P30 S76.5
G1 Y2.292
M05
G1 X-0.029Y0.149
M03 P30 S76.5
G1 Y-2.441
M05
G1 X-0.03
M03 P30 S76.5
G1 Y2.49
M05
G1 X-0.03Y0.029
M03 P30 S76.5
G1 Y-2.519
M05
G1 X-0.031
M03 P30 S76.5
G1 Y2.539
M05
G1 X-0.029Y0.01
M03 P30 S76.5
G1 Y-2.549
M05
G1 X-0.03
M03 P30 S76.5
G1 Y2.557
M05
G1 X-0.031
M03 P30 S76.5
G1 Y-2.557
M05
G1 X-0.029
M03 P30 S76.5
G1 Y2.56
M05
G1 X-0.03
M03 P30 S76.5
G1 Y-2.554
M05
G1 X-0.031Y0.006
M03 P30 S76.5
G1 Y2.542
M05
G1 X-0.03Y-0.009
M03 P30 S76.5
G1 Y-2.523
M05
G1 X-0.029Y0.012
M03 P30 S76.5
G1 Y2.495
M05
G1 X-0.03Y-0.022
M03 P30 S76.5
G1 Y-2.453
M05
G1 X-0.031Y0.038
M03 P30 S76.5
G1 Y2.379
M05
G1 X-0.029Y-0.075
M03 P30 S76.5
G1 Y-2.234
M05
G0 X3.452 Y3.012 F0
M03 P30 S76.5
G1 X0.181 F2300
M05
G1 X0.045Y0.03
M03 P30 S76.5
G1 X-0.31
M05
G1 X-0.079Y0.03
M03 P30 S76.5
G1 X0.418
M05
G1 X0.021Y0.03
M03 P30 S76.5
G1 X-0.519
M05
G1 X-0.079Y0.03
M03 P30 S76.5
G1 X0.612
M05
G1 X0.01Y0.03
M03 P30 S76.5
G1 X-0.701
M05
G1 X-0.08Y0.03
M03 P30 S76.5
G1 X0.788
M05
G1 Y0.03
M03 P30 S76.5
G1 X-0.867
M05
G1 X-0.079Y0.03
M03 P30 S76.5
G1 X0.948
M05
G1 Y0.03
M03 P30 S76.5
G1 X-1.028
M05
G1 X-0.079Y0.03
M03 P30 S76.5
G1 X1.1
M05
G1 X-0.011Y0.03
M03 P30 S76.5
G1 X-1.168
M05
G1 X-0.08Y0.03
M03 P30 S76.5
G1 X1.231
M05
G1 X-0.027Y0.03
M03 P30 S76.5
G1 X-1.283
M05
G1 X-0.079Y0.03
M03 P30 S76.5
G1 X1.332
M05
G1 X-0.053Y0.03
M03 P30 S76.5
G1 X-1.359
M05
G1 X-0.079Y0.03
M03 P30 S76.5
G1 X1.367
M05
G1 X-0.078Y0.03
M03 P30 S76.5
G1 X-1.368
M05
G1 X-0.08Y0.03
M03 P30 S76.5
G1 X1.37
M05
G1 X-0.078Y0.03
M03 P30 S76.5
G1 X-1.371
M05
G1 X-0.079Y0.03
M03 P30 S76.5
G1 X1.372
M05
G1 X-0.078Y0.03
M03 P30 S76.5
G1 X-1.374
M05
G1 X-0.079Y0.03
M03 P30 S76.5
G1 X1.43
M05
G1 Y0.03
M03 P30 S76.5
G1 X-1.509
M05
G1 X-0.08Y0.03
M03 P30 S76.5
G1 X1.589
M05
G1 Y0.03
M03 P30 S76.5
G1 X-1.668
M05
G1 X-0.079Y0.03
M03 P30 S76.5
G1 X1.747
M05
G1 Y0.03
M03 P30 S76.5
G1 X-1.827
M05
G1 X-0.079Y0.03
M03 P30 S76.5
G1 X1.373
M05
G1 X0.067
M03 P30 S76.5
G1 X0.466
M05
G1 Y0.03
M03 P30 S76.5
G1 X-0.466
M05
G1 X-0.146
M03 P30 S76.5
G1 X-1.373
M05
G1 X-0.08Y0.03
M03 P30 S76.5
G1 X1.373
M05
G1 X0.226
M03 P30 S76.5
G1 X0.466
M05
G1 Y0.03
M03 P30 S76.5
G1 X-0.466
M05
G1 X-0.305
M03 P30 S76.5
G1 X-1.373
M05
G1 X-0.079Y0.03
M03 P30 S76.5
G1 X1.373
M05
G1 X0.384
M03 P30 S76.5
G1 X0.466
M05
G1 Y0.03
M03 P30 S76.5
G1 X-0.466
M05
G1 X-0.464
M03 P30 S76.5
G1 X-1.373
M05
G1 X-0.079Y0.03
M03 P30 S76.5
G1 X1.373
M05
G1 X0.543
M03 P30 S76.5
G1 X0.466
M05
G1 Y0.03
M03 P30 S76.5
G1 X-0.466
M05
G1 X-0.623
M03 P30 S76.5
G1 X-1.372
M05
G1 X-0.08Y0.03
M03 P30 S76.5
G1 X1.373
M05
G1 X0.702
M03 P30 S76.5
G1 X0.466
M05
G1 Y0.03
M03 P30 S76.5
G1 X-0.466
M05
G1 X-0.781
M03 P30 S76.5
G1 X-1.373
M05
G1 X-0.08Y0.03
M03 P30 S76.5
G1 X1.373
M05
G1 X0.861
M03 P30 S76.5
G1 X0.466
M05
G1 Y0.03
M03 P30 S76.5
G1 X-0.466
M05
G1 X-0.94
M03 P30 S76.5
G1 X-1.373
M05
G1 X-0.079Y0.03
M03 P30 S76.5
G1 X1.372
M05
G1 X1.02
M03 P30 S76.5
G1 X0.466
M05
G1 Y0.03
M03 P30 S76.5
G1 X-0.466
M05
G1 X-1.099
M03 P30 S76.5
G1 X-1.373
M05
G1 X-0.068Y0.03
M03 P30 S76.5
G1 X1.361
M05
G1 X1.179
M03 P30 S76.5
G1 X0.466
M05
G1 Y0.03
M03 P30 S76.5
G1 X-0.466
M05
G1 X-1.258
M03 P30 S76.5
G1 X-1.335
M05
G1 X-0.034Y0.03
M03 P30 S76.5
G1 X1.29
M05
G1 X1.337
M03 P30 S76.5
G1 X0.466
M05
G1 Y0.03
M03 P30 S76.5
G1 X-0.466
M05
G1 X-1.417
M03 P30 S76.5
G1 X-1.233
M05
G1 X-0.015Y0.03
M03 P30 S76.5
G1 X1.169
M05
G1 X1.496
M03 P30 S76.5
G1 X0.466
M05
G1 X-2.042Y0.03
M03 P30 S76.5
G1 X-1.099
M05
G1 Y0.03
M03 P30 S76.5
G1 X1.02
M05
G1 X-0.08Y0.03
M03 P30 S76.5
G1 X-0.944
M05
G1 Y0.03
M03 P30 S76.5
G1 X0.947
M05
G1 X0.08Y0.03
M03 P30 S76.5
G1 X-1.024
M05
G1 X0.006Y0.03
M03 P30 S76.5
G1 X1.097
M05
G1 X2.039Y0.03
M03 P30 S76.5
G1 X-0.466
M05
G1 X-1.494
M03 P30 S76.5
G1 X-1.165
M05
G1 X0.017Y0.03
M03 P30 S76.5
G1 X1.228
M05
G1 X1.414
M03 P30 S76.5
G1 X0.466
M05
G1 Y0.03
M03 P30 S76.5
G1 X-0.466
M05
G1 X-1.335
M03 P30 S76.5
G1 X-1.28
M05
G1 X0.045Y0.03
M03 P30 S76.5
G1 X1.315
M05
G1 X1.255
M03 P30 S76.5
G1 X0.466
M05
G1 Y0.03
M03 P30 S76.5
G1 X-0.466
M05
G1 X-1.176
M03 P30 S76.5
G1 X-1.342
M05
G1 X0.07Y0.03
M03 P30 S76.5
G1 X1.352
M05
G1 X1.096
M03 P30 S76.5
G1 X0.466
M05
G1 Y0.03
M03 P30 S76.5
G1 X-0.466
M05
G1 X-1.017
M03 P30 S76.5
G1 X-1.353
M05
G1 X0.078Y0.03
M03 P30 S76.5
G1 X1.354
M05
G1 X0.938
M03 P30 S76.5
G1 X0.466
M05
G1 Y0.03
M03 P30 S76.5
G1 X-0.466
M05
G1 X-0.858
M03 P30 S76.5
G1 X-1.355
M05
G1 X0.078Y0.03
M03 P30 S76.5
G1 X1.356
M05
G1 X0.779
M03 P30 S76.5
G1 X0.466
M05
G1 Y0.03
M03 P30 S76.5
G1 X-0.466
M05
G1 X-0.699
M03 P30 S76.5
G1 X-1.358
M05
G1 X0.078Y0.03
M03 P30 S76.5
G1 X1.359
M05
G1 X0.62
M03 P30 S76.5
G1 X0.466
M05
G1 Y0.03
M03 P30 S76.5
G1 X-0.466
M05
G1 X-0.54
M03 P30 S76.5
G1 X-1.36
M05
G1 X0.078Y0.03
M03 P30 S76.5
G1 X1.361
M05
G1 X0.461
M03 P30 S76.5
G1 X0.466
M05
G1 Y0.03
M03 P30 S76.5
G1 X-0.466
M05
G1 X-0.382
M03 P30 S76.5
G1 X-1.362
M05
G1 X0.079Y0.03
M03 P30 S76.5
G1 X1.363
M05
G1 X0.302
M03 P30 S76.5
G1 X0.466
M05
G1 Y0.03
M03 P30 S76.5
G1 X-0.466
M05
G1 X-0.223
M03 P30 S76.5
G1 X-1.364
M05
G1 X0.078Y0.03
M03 P30 S76.5
G1 X1.366
M05
G1 X0.143
M03 P30 S76.5
G1 X0.466
M05
G1 Y0.03
M03 P30 S76.5
G1 X-0.466
M05
G1 X-0.064
M03 P30 S76.5
G1 X-1.367
M05
G1 X0.079Y0.03
M03 P30 S76.5
G1 X1.818
M05
G1 Y0.03
M03 P30 S76.5
G1 X-1.74
M05
G1 X0.078Y0.03
M03 P30 S76.5
G1 X1.662
M05
G1 Y0.03
M03 P30 S76.5
G1 X-1.583
M05
G1 X0.078Y0.03
M03 P30 S76.5
G1 X1.505
M05
G1 Y0.03
M03 P30 S76.5
G1 X-1.427
M05
G1 X0.078Y0.03
M03 P30 S76.5
G1 X1.349
M05
G1 X0.077Y0.03
M03 P30 S76.5
G1 X-1.347
M05
G1 X0.078Y0.03
M03 P30 S76.5
G1 X1.35
M05
G1 X0.08Y0.03
M03 P30 S76.5
G1 X-1.352
M05
G1 X0.078Y0.03
M03 P30 S76.5
G1 X1.355
M05
G1 X0.081Y0.03
M03 P30 S76.5
G1 X-1.357
M05
G1 X0.078Y0.03
M03 P30 S76.5
G1 X1.35
M05
G1 X0.055Y0.03
M03 P30 S76.5
G1 X-1.327
M05
G1 X0.079Y0.03
M03 P30 S76.5
G1 X1.285
M05
G1 X0.029Y0.03
M03 P30 S76.5
G1 X-1.236
M05
G1 X0.078Y0.03
M03 P30 S76.5
G1 X1.176
M05
G1 X0.012Y0.03
M03 P30 S76.5
G1 X-1.11
M05
G1 X0.079Y0.03
M03 P30 S76.5
G1 X1.038
M05
G1 Y0.03
M03 P30 S76.5
G1 X-0.96
M05
G1 X0.078Y0.03
M03 P30 S76.5
G1 X0.882
M05
G1 Y0.03
M03 P30 S76.5
G1 X-0.803
M05
G1 X0.078Y0.03
M03 P30 S76.5
G1 X0.715
M05
G1 X-0.01Y0.03
M03 P30 S76.5
G1 X-0.627
M05
G1 X0.078Y0.03
M03 P30 S76.5
G1 X0.534
M05
G1 X-0.021Y0.03
M03 P30 S76.5
G1 X-0.434
M05
G1 X0.078Y0.03
M03 P30 S76.5
G1 X0.327
M05
G1 X-0.046Y0.03
M03 P30 S76.5
G1 X-0.197
M05
G1 X-0.767Y-1.56
M03 P30 S76.5
G1 X0.466
M05
G1 Y0.03
M03 P30 S76.5
G1 X-0.466
M05
G1 Y0.03
M03 P30 S76.5
G1 X0.466
M05
G1 Y0.03
M03 P30 S76.5
G1 X-0.466
M05
G1 Y0.03
M03 P30 S76.5
G1 X0.466
M05
G1 Y0.03
M03 P30 S76.5
G1 X-0.466
M05
G1 X1.084Y1.096
M03 P30 S76.5
G1 Y0.172
M05
G1 X-0.03Y0.061
M03 P30 S76.5
G1 Y-0.285
M05
G1 X-0.03Y-0.029
M03 P30 S76.5
G1 Y0.351
M05
G1 X-0.03Y0.026
M03 P30 S76.5
G1 Y-0.401
M05
G1 X-0.03Y-0.018
M03 P30 S76.5
G1 Y0.437
M05
G1 X-0.03Y0.011
M03 P30 S76.5
G1 Y-0.463
M05
G1 X-0.03Y-0.014
M03 P30 S76.5
G1 Y0.482
M05
G1 X-0.03
M03 P30 S76.5
G1 Y-0.493
M05
G1 X-0.03Y-0.011
M03 P30 S76.5
G1 Y0.503
M05
G1 X-0.03
M03 P30 S76.5
G1 Y-0.514
M05
G1 X-0.03Y-0.011
M03 P30 S76.5
G1 Y0.514
M05
G1 X-0.03Y-0.007
M03 P30 S76.5
G1 Y-0.519
M05
G1 X-0.03Y-0.011
M03 P30 S76.5
G1 Y0.519
M05
G1 X-0.03Y-0.012
M03 P30 S76.5
G1 Y-0.518
M05
G1 X-0.03Y-0.011
M03 P30 S76.5
G1 Y0.518
M05
G1 X-0.03Y-0.012
M03 P30 S76.5
G1 Y-0.517
M05
G1 X-0.03Y-0.011
M03 P30 S76.5
G1 Y0.517
M05
G1 X-0.03Y-0.012
M03 P30 S76.5
G1 Y-0.517
M05
G1 X-0.03Y-0.011
M03 P30 S76.5
G1 Y0.517
M05
G1 X-0.03Y-0.012
M03 P30 S76.5
G1 Y-0.516
M05
G1 X-0.03Y-0.011
M03 P30 S76.5
G1 Y0.516
M05
G1 X-0.03Y-0.012
M03 P30 S76.5
G1 Y-2.728
M05
G1 X-0.03Y0.011
M03 P30 S76.5
G1 Y2.706
M05
G1 X-0.03Y-0.012
M03 P30 S76.5
G1 Y-2.682
M05
G1 X-0.03Y0.011
M03 P30 S76.5
G1 Y2.66
M05
G1 X-0.03Y-0.012
M03 P30 S76.5
G1 Y-2.637
M05
G1 X-0.03Y0.012
M03 P30 S76.5
G1 Y2.614
M05
G1 X-0.03Y-0.012
M03 P30 S76.5
G1 Y-2.591
M05
G1 X-0.03Y0.011
M03 P30 S76.5
G1 Y2.569
M05
G1 X-0.03Y-0.012
M03 P30 S76.5
G1 Y-2.545
M05
G1 X-0.03Y0.011
M03 P30 S76.5
G1 Y2.523
M05
G1 X-0.03Y-0.012
M03 P30 S76.5
G1 Y-2.5
M05
G1 X-0.03Y0.012
M03 P30 S76.5
G1 Y2.477
M05
G1 X-0.03Y-0.012
M03 P30 S76.5
G1 Y-2.454
M05
G1 X-0.03Y0.012
M03 P30 S76.5
G1 Y2.431
M05
G1 X-0.03Y-0.012
M03 P30 S76.5
G1 Y-2.408
M05
G1 X-0.03Y0.011
M03 P30 S76.5
G1 Y2.386
M05
G1 X-0.03Y-0.012
M03 P30 S76.5
G1 Y-0.524
M05
G1 Y-1.319
M03 P30 S76.5
G1 Y-0.519
M05
G1 X-0.03Y0.011
M03 P30 S76.5
G1 Y0.519
M05
G1 Y1.297
M03 P30 S76.5
G1 Y0.524
M05
G1 X-0.03Y-0.012
M03 P30 S76.5
G1 Y-0.523
M05
G1 Y-1.274
M03 P30 S76.5
G1 Y-0.52
M05
G1 X-0.03Y0.012
M03 P30 S76.5
G1 Y0.519
M05
G1 Y1.251
M03 P30 S76.5
G1 Y0.524
M05
G1 X-0.03Y-0.012
M03 P30 S76.5
G1 Y-0.523
M05
G1 Y-1.229
M03 P30 S76.5
G1 Y-0.519
M05
G1 X-0.03Y0.011
M03 P30 S76.5
G1 Y0.52
M05
G1 Y1.206
M03 P30 S76.5
G1 Y0.523
M05
G1 X-0.03Y-0.012
M03 P30 S76.5
G1 Y-0.523
M05
G1 Y-1.183
M03 P30 S76.5
G1 Y-0.519
M05
G1 X-0.03Y0.011
M03 P30 S76.5
G1 Y0.519
M05
G1 Y1.161
M03 P30 S76.5
G1 Y0.523
M05
G1 X-0.03Y-0.012
M03 P30 S76.5
G1 Y-0.522
M05
G1 Y-1.138
M03 P30 S76.5
G1 Y-0.52
M05
G1 X-0.03Y0.012
M03 P30 S76.5
G1 Y0.519
M05
G1 Y1.115
M03 P30 S76.5
G1 Y0.523
M05
G1 X-0.03Y-0.012
M03 P30 S76.5
G1 Y-0.522
M05
G1 Y-1.093
M03 P30 S76.5
G1 Y-0.519
M05
G1 X-0.03Y0.011
M03 P30 S76.5
G1 Y0.52
M05
G1 Y1.07
M03 P30 S76.5
G1 Y0.522
M05
G1 X-0.03Y-0.012
M03 P30 S76.5
G1 Y-0.522
M05
G1 Y-1.047
M03 P30 S76.5
G1 Y-0.519
M05
G1 X-0.03Y0.011
M03 P30 S76.5
G1 Y0.519
M05
G1 Y1.025
M03 P30 S76.5
G1 Y0.522
M05
G1 X-0.03Y-0.012
M03 P30 S76.5
G1 Y-0.521
M05
G1 Y-1.002
M03 P30 S76.5
G1 Y-0.52
M05
G1 X-0.03Y0.012
M03 P30 S76.5
G1 Y0.519
M05
G1 Y0.979
M03 P30 S76.5
G1 Y0.522
M05
G1 X-0.03Y-0.012
M03 P30 S76.5
G1 Y-0.521
M05
G1 Y-0.957
M03 P30 S76.5
G1 Y-0.519
M05
G1 X-0.03Y0.011
M03 P30 S76.5
G1 Y0.52
M05
G1 Y0.934
M03 P30 S76.5
G1 Y0.521
M05
G1 X-0.03Y-0.012
M03 P30 S76.5
G1 Y-0.521
M05
G1 Y-0.911
M03 P30 S76.5
G1 Y-0.519
M05
G1 X-0.03Y0.011
M03 P30 S76.5
G1 Y0.519
M05
G1 Y0.889
M03 P30 S76.5
G1 Y0.521
M05
G1 X-0.03Y-0.012
M03 P30 S76.5
G1 Y-0.52
M05
G1 Y-0.866
M03 P30 S76.5
G1 Y-0.52
M05
G1 X-0.03Y0.012
M03 P30 S76.5
G1 Y0.519
M05
G1 Y0.843
M03 P30 S76.5
G1 Y0.521
M05
G1 X-0.03Y-0.012
M03 P30 S76.5
G1 Y-0.52
M05
G1 Y-0.821
M03 P30 S76.5
G1 Y-0.519
M05
G1 X-0.03Y0.011
M03 P30 S76.5
G1 Y0.52
M05
G1 Y0.798
M03 P30 S76.5
G1 Y0.52
M05
G1 X-0.03Y-0.012
M03 P30 S76.5
G1 Y-0.52
M05
G1 Y-0.775
M03 P30 S76.5
G1 Y-0.519
M05
G1 X-0.03Y0.011
M03 P30 S76.5
G1 Y0.519
M05
G1 Y0.753
M03 P30 S76.5
G1 Y0.52
M05
G1 X-0.03Y-0.012
M03 P30 S76.5
G1 Y-0.519
M05
G1 Y-0.73
M03 P30 S76.5
G1 Y-0.52
M05
G1 X-0.03Y0.012
M03 P30 S76.5
G1 Y0.519
M05
G1 Y0.707
M03 P30 S76.5
G1 Y0.52
M05
G1 X-0.03Y-0.012
M03 P30 S76.5
G1 Y-0.519
M05
G1 Y-0.685
M03 P30 S76.5
G1 Y-0.519
M05
G1 X-0.03Y0.012
M03 P30 S76.5
G1 Y0.519
M05
G1 Y0.662
M03 P30 S76.5
G1 Y0.519
M05
G1 X-0.03Y-0.012
M03 P30 S76.5
G1 Y-0.519
M05
G1 Y-0.639
M03 P30 S76.5
G1 Y-0.519
M05
G1 X-0.03Y0.011
M03 P30 S76.5
G1 Y0.519
M05
G1 Y0.617
M03 P30 S76.5
G1 Y0.519
M05
G1 X-0.03Y-0.012
M03 P30 S76.5
G1 Y-0.518
M05
G1 Y-0.594
M03 P30 S76.5
G1 Y-0.519
M05
G1 X-0.03Y0.011
M03 P30 S76.5
G1 Y0.519
M05
G1 Y0.571
M03 P30 S76.5
G1 Y0.519
M05
G1 X-0.03Y-0.012
M03 P30 S76.5
G1 Y-0.518
M05
G1 Y-0.549
M03 P30 S76.5
G1 Y-0.519
M05
G1 X-0.03Y0.012
M03 P30 S76.5
G1 Y0.519
M05
G1 Y0.526
M03 P30 S76.5
G1 Y0.518
M05
G1 X-0.03Y-0.012
M03 P30 S76.5
G1 Y-0.518
M05
G1 Y-0.503
M03 P30 S76.5
G1 Y-0.519
M05
G1 X-0.03Y0.011
M03 P30 S76.5
G1 Y0.519
M05
G1 Y0.481
M03 P30 S76.5
G1 Y0.518
M05
G1 X-0.03Y-0.012
M03 P30 S76.5
G1 Y-0.517
M05
G1 Y-0.458
M03 P30 S76.5
G1 Y-0.519
M05
G1 X-0.03Y0.011
M03 P30 S76.5
G1 Y0.519
M05
G1 Y0.435
M03 P30 S76.5
G1 Y0.518
M05
G1 X-0.03Y-0.012
M03 P30 S76.5
G1 Y-0.517
M05
G1 Y-0.413
M03 P30 S76.5
G1 Y-0.519
M05
G1 X-0.03Y0.012
M03 P30 S76.5
G1 Y0.519
M05
G1 Y0.39
M03 P30 S76.5
G1 Y0.517
M05
G1 X-0.03Y-0.012
M03 P30 S76.5
G1 Y-0.517
M05
G1 Y-0.367
M03 P30 S76.5
G1 Y-0.519
M05
G1 X-0.03Y0.011
M03 P30 S76.5
G1 Y0.519
M05
G1 Y0.345
M03 P30 S76.5
G1 Y0.517
M05
G1 X-0.03Y-0.012
M03 P30 S76.5
G1 Y-0.516
M05
G1 Y-0.322
M03 P30 S76.5
G1 Y-0.519
M05
G1 X-0.03Y0.011
M03 P30 S76.5
G1 Y0.519
M05
G1 Y0.299
M03 P30 S76.5
G1 Y0.517
M05
G1 X-0.03Y-0.012
M03 P30 S76.5
G1 Y-0.516
M05
G1 Y-0.277
M03 P30 S76.5
G1 Y-0.519
M05
G1 X-0.03Y0.012
M03 P30 S76.5
G1 Y0.519
M05
G1 Y0.254
M03 P30 S76.5
G1 Y0.516
M05
G1 X-0.03Y-0.012
M03 P30 S76.5
G1 Y-0.516
M05
G1 Y-0.231
M03 P30 S76.5
G1 Y-0.519
M05
G1 X-0.03Y0.011
M03 P30 S76.5
G1 Y0.519
M05
G1 Y0.209
M03 P30 S76.5
G1 Y0.516
M05
G1 X-0.03Y-0.012
M03 P30 S76.5
G1 Y-0.515
M05
G1 Y-0.186
M03 P30 S76.5
G1 Y-0.519
M05
G1 X-0.03Y0.011
M03 P30 S76.5
G1 Y0.519
M05
G1 Y0.163
M03 P30 S76.5
G1 Y0.516
M05
G1 X-0.03Y-0.012
M03 P30 S76.5
G1 Y-0.515
M05
G1 Y-0.141
M03 P30 S76.5
G1 Y-0.519
M05
G1 X-0.03Y0.012
M03 P30 S76.5
G1 Y0.519
M05
G1 Y0.118
M03 P30 S76.5
G1 Y0.515
M05
G1 X-0.03Y-0.012
M03 P30 S76.5
G1 Y-0.515
M05
G1 Y-0.095
M03 P30 S76.5
G1 Y-0.519
M05
G1 X-0.03Y0.011
M03 P30 S76.5
G1 Y0.519
M05
G1 Y0.073
M03 P30 S76.5
G1 Y0.515
M05
G1 X-0.03Y-0.012
M03 P30 S76.5
G1 Y-0.514
M05
G1 Y-0.05
M03 P30 S76.5
G1 Y-0.519
M05
G1 X-0.03Y0.011
M03 P30 S76.5
G1 Y0.519
M05
G1 Y0.027
M03 P30 S76.5
G1 Y0.515
M05
G1 X-0.03Y-0.012
M03 P30 S76.5
G1 Y-0.514
G1 Y-0.523
M05
G1 X-0.03Y0.011
M03 P30 S76.5
G1 Y1.015
M05
G1 X-0.03Y-0.012
M03 P30 S76.5
G1 Y-0.992
M05
G1 X-0.03Y0.012
M03 P30 S76.5
G1 Y0.969
M05
G1 X-0.03Y-0.012
M03 P30 S76.5
G1 Y-0.946
M05
G1 X-0.03Y0.011
M03 P30 S76.5
G1 Y0.924
M05
G1 X-0.03Y-0.012
M03 P30 S76.5
G1 Y-0.9
M05
G1 X-0.03Y0.011
M03 P30 S76.5
G1 Y0.878
M05
G1 X-0.03Y-0.012
M03 P30 S76.5
G1 Y-0.855
M05
G1 X-0.03Y0.012
M03 P30 S76.5
G1 Y0.832
M05
G1 X-0.03Y-0.012
M03 P30 S76.5
G1 Y-0.809
M05
G1 X-0.03Y0.011
M03 P30 S76.5
G1 Y0.787
M05
G1 X-0.03Y-0.012
M03 P30 S76.5
G1 Y-0.763
M05
G1 X-0.03Y0.011
M03 P30 S76.5
G1 Y0.741
M05
G1 X-0.03Y-0.012
M03 P30 S76.5
G1 Y-0.718
M05
G1 X-0.03Y0.012
M03 P30 S76.5
G1 Y0.695
M05
G1 X-0.03Y-0.012
M03 P30 S76.5
G1 Y-0.672
M05
G1 X-0.03Y0.011
M03 P30 S76.5
G1 Y0.65
M05
G1 X-0.03Y-0.012
M03 P30 S76.5
G1 Y-0.626
M05
G1 X-0.03Y0.011
M03 P30 S76.5
G1 Y0.604
M05
G1 X-0.03Y-0.012
M03 P30 S76.5
G1 Y-0.581
M05
G1 X-0.03Y0.012
M03 P30 S76.5
G1 Y0.558
M05
G1 X-0.03Y-0.012
M03 P30 S76.5
G1 Y-0.535
M05
G1 X-0.03Y0.011
M03 P30 S76.5
G1 Y0.513
M05
G1 X-0.03Y-0.013
M03 P30 S76.5
G1 Y-0.488
M05
G1 X-0.03Y0.013
M03 P30 S76.5
G1 Y0.462
M05
G1 X-0.03Y-0.016
M03 P30 S76.5
G1 Y-0.432
M05
G1 X-0.03Y0.016
M03 P30 S76.5
G1 Y0.397
M05
G1 X-0.03Y-0.02
M03 P30 S76.5
G1 Y-0.356
M05
G1 X-0.03Y0.031
M03 P30 S76.5
G1 Y0.295
M05
G1 X-0.03Y-0.053
M03 P30 S76.5
G1 Y-0.19
M05
G1 X3.75Y-1.245
M03 P30 S76.5
G1 Y0.174
M05
G1 X-0.03Y0.058
M03 P30 S76.5
G1 Y-0.292
M05
G1 X-0.03Y-0.036
M03 P30 S76.5
G1 Y0.358
M05
G1 X-0.03Y0.026
M03 P30 S76.5
G1 Y-0.409
M05
G1 X-0.03Y-0.018
M03 P30 S76.5
G1 Y0.444
M05
G1 X-0.03Y0.016
M03 P30 S76.5
G1 Y-0.47
M05
G1 X-0.03Y-0.005
M03 P30 S76.5
G1 Y0.486
M05
G1 X-0.03Y0.012
M03 P30 S76.5
G1 Y-0.501
M05
G1 X-0.03
M03 P30 S76.5
G1 Y0.513
M05
G1 X-0.03Y0.011
M03 P30 S76.5
G1 Y-0.514
M05
G1 X-0.03Y0.01
M03 P30 S76.5
G1 Y0.516
M05
G1 X-0.03Y0.011
M03 P30 S76.5
G1 Y-0.516
M05
G1 X-0.03Y0.01
M03 P30 S76.5
G1 Y0.518
M05
G1 X-0.03Y0.011
M03 P30 S76.5
G1 Y-0.518
M05
G1 X-0.03Y0.012
M03 P30 S76.5
G1 Y0.518
M05
G1 X-0.03Y0.012
M03 P30 S76.5
G1 Y-0.519
M05
G1 X-0.03Y0.011
M03 P30 S76.5
G1 Y0.519
M05
G1 X-0.03Y0.012
M03 P30 S76.5
G1 Y-0.519
M05
G1 X-0.03Y0.011
M03 P30 S76.5
G1 Y0.519
M05
G1 X-0.03Y0.012
M03 P30 S76.5
G1 Y-0.52
M05
G1 X-0.03Y0.012
M03 P30 S76.5
G1 Y0.519
M05
G0 X-2.98 Y2.929 F0
M03 P30 S76.5
G1 X3.413 F2300
M05
G1 X0.083Y0.03
M03 P30 S76.5
G1 X-3.57
M05
G1 X-0.038Y0.03
M03 P30 S76.5
G1 X3.648
M05
G1 X0.02Y0.03
M03 P30 S76.5
G1 X-3.691
M05
G1 X-0.019Y0.03
M03 P30 S76.5
G1 X3.722
M05
G1 X0.012Y0.03
M03 P30 S76.5
G1 X-3.745
M05
G1 X-0.009Y0.03
M03 P30 S76.5
G1 X3.759
M05
G1 Y0.03
M03 P30 S76.5
G1 X-3.763
M05
G1 Y0.03
M03 P30 S76.5
G1 X3.77
M05
G1 Y0.03
M03 P30 S76.5
G1 X-3.775
M05
G1 Y0.03
M03 P30 S76.5
G1 X3.776
M05
G1 Y0.03
M03 P30 S76.5
G1 X-3.777
M05
G1 Y0.03
M03 P30 S76.5
G1 X3.777
M05
G1 Y0.03
M03 P30 S76.5
G1 X-3.777
M05
G1 Y0.03
M03 P30 S76.5
G1 X3.777
M05
G1 Y0.03
M03 P30 S76.5
G1 X-3.777
M05
G1 X3.311Y0.03
M03 P30 S76.5
G1 X0.466
M05
G1 Y0.03
M03 P30 S76.5
G1 X-0.466
M05
G1 Y0.03
M03 P30 S76.5
G1 X0.466
M05
G1 Y0.03
M03 P30 S76.5
G1 X-0.466
M05
G1 Y0.03
M03 P30 S76.5
G1 X0.466
M05
G1 Y0.03
M03 P30 S76.5
G1 X-0.466
M05
G1 Y0.03
M03 P30 S76.5
G1 X0.466
M05
G1 Y0.03
M03 P30 S76.5
G1 X-0.466
M05
G1 Y0.03
M03 P30 S76.5
G1 X0.466
M05
G1 Y0.03
M03 P30 S76.5
G1 X-0.466
M05
G1 Y0.03
M03 P30 S76.5
G1 X0.466
M05
G1 Y0.03
M03 P30 S76.5
G1 X-0.466
M05
G1 Y0.03
M03 P30 S76.5
G1 X0.466
M05
G1 Y0.03
M03 P30 S76.5
G1 X-0.466
M05
G1 Y0.03
M03 P30 S76.5
G1 X0.466
M05
G1 Y0.03
M03 P30 S76.5
G1 X-0.466
M05
G1 Y0.03
M03 P30 S76.5
G1 X0.466
M05
G1 Y0.03
M03 P30 S76.5
G1 X-0.466
M05
G1 Y0.03
M03 P30 S76.5
G1 X0.466
M05
G1 Y0.03
M03 P30 S76.5
G1 X-0.466
M05
G1 Y0.03
M03 P30 S76.5
G1 X0.466
M05
G1 Y0.03
M03 P30 S76.5
G1 X-0.467
M05
G1 Y0.03
M03 P30 S76.5
G1 X0.466
M05
G1 Y0.03
M03 P30 S76.5
G1 X-0.469
M05
G1 Y0.03
M03 P30 S76.5
G1 X0.466
M05
G1 Y0.03
M03 P30 S76.5
G1 X-0.469
M05
G1 Y0.03
M03 P30 S76.5
G1 X0.464
M05
G1 Y0.03
M03 P30 S76.5
G1 X-0.472
M05
G1 X-0.005Y0.03
M03 P30 S76.5
G1 X0.469
M05
G1 Y0.03
M03 P30 S76.5
G1 X-0.476
M05
G1 X-0.007Y0.03
M03 P30 S76.5
G1 X0.473
M05
G1 X-0.006Y0.03
M03 P30 S76.5
G1 X-0.478
M05
G1 X-0.01Y0.03
M03 P30 S76.5
G1 X0.481
M05
G1 X-0.007Y0.03
M03 P30 S76.5
G1 X-0.488
M05
G1 X-0.015Y0.03
M03 P30 S76.5
G1 X0.493
M05
G1 X-0.009Y0.03
M03 P30 S76.5
G1 X-0.501
M05
G1 X-0.02Y0.03
M03 P30 S76.5
G1 X0.511
M05
G1 X-0.012Y0.03
M03 P30 S76.5
G1 X-0.522
M05
G1 X-0.024Y0.03
M03 P30 S76.5
G1 X0.534
M05
G1 X-0.012Y0.03
M03 P30 S76.5
G1 X-0.549
M05
G1 X-0.029Y0.03
M03 P30 S76.5
G1 X0.563
M05
G1 X-0.015Y0.03
M03 P30 S76.5
G1 X-0.576
M05
G1 X-0.034Y0.03
M03 P30 S76.5
G1 X0.594
M05
G1 X-0.018Y0.03
M03 P30 S76.5
G1 X-0.61
M05
G1 X-0.039Y0.03
M03 P30 S76.5
G1 X0.631
M05
G1 X-0.02Y0.03
M03 P30 S76.5
G1 X-0.651
M05
G1 X-0.045Y0.03
M03 P30 S76.5
G1 X0.674
M05
G1 X-0.022Y0.03
M03 P30 S76.5
G1 X-0.701
M05
G1 X-0.054Y0.03
M03 P30 S76.5
G1 X0.73
M05
G1 X-0.026Y0.03
M03 P30 S76.5
G1 X-0.762
M05
G1 X-2.365Y0.03
M03 P30 S76.5
G1 X0.789
M05
G1 X1.506
M03 P30 S76.5
G1 X0.804
M05
G1 X-0.029Y0.03
M03 P30 S76.5
G1 X-0.853
M05
G1 X-1.358
M03 P30 S76.5
G1 X-0.831
M05
G1 X0.031Y0.03
M03 P30 S76.5
G1 X0.88
M05
G1 X1.184
M03 P30 S76.5
G1 X0.916
M05
G1 X-0.034Y0.03
M03 P30 S76.5
G1 X-1.002
M05
G1 X-0.95
M03 P30 S76.5
G1 X-0.96
M05
G1 X0.033Y0.03
M03 P30 S76.5
G1 X2.844
M05
G1 X-0.041Y0.03
M03 P30 S76.5
G1 X-2.769
M05
G1 X0.034Y0.03
M03 P30 S76.5
G1 X2.694
M05
G1 X-0.041Y0.03
M03 P30 S76.5
G1 X-2.613
M05
G1 X0.041Y0.03
M03 P30 S76.5
G1 X2.528
M05
G1 X-0.051Y0.03
M03 P30 S76.5
G1 X-2.432
M05
G1 X0.048Y0.03
M03 P30 S76.5
G1 X2.334
M05
G1 X-0.052Y0.03
M03 P30 S76.5
G1 X-2.227
M05
G1 X0.055Y0.03
M03 P30 S76.5
G1 X2.114
M05
G1 X-0.059Y0.03
M03 P30 S76.5
G1 X-1.999
M05
G1 X0.074Y0.03
M03 P30 S76.5
G1 X1.855
M05
G1 X-0.072Y0.03
M03 P30 S76.5
G1 X-1.707
M05
G1 X0.09Y0.03
M03 P30 S76.5
G1 X1.528
M05
G1 X-0.103Y0.03
M03 P30 S76.5
G1 X-1.315
M05
G1 X0.153Y0.03
M03 P30 S76.5
G1 X1.023
M05
G1 X-0.238Y0.03
M03 P30 S76.5
G1 X-0.536
M05
G1 X-1.627Y-2.07
M03 P30 S76.5
G1 X0.466
M05
G1 Y0.03
M03 P30 S76.5
G1 X-0.466
M05
G1 Y0.03
M03 P30 S76.5
G1 X0.467
M05
G1 Y0.03
M03 P30 S76.5
G1 X-0.467
M05
G1 Y0.03
M03 P30 S76.5
G1 X0.467
M05
G1 Y0.03
M03 P30 S76.5
G1 X-0.467
M05
G1 Y0.03
M03 P30 S76.5
G1 X0.467
M05
G1 Y0.03
M03 P30 S76.5
G1 X-0.467
M05
G1 Y0.03
M03 P30 S76.5
G1 X0.467
M05
G1 Y0.03
M03 P30 S76.5
G1 X-0.467
M05
G1 Y0.03
M03 P30 S76.5
G1 X0.467
M05
G1 Y0.03
M03 P30 S76.5
G1 X-0.467
M05
G1 Y0.03
M03 P30 S76.5
G1 X0.467
M05
G1 Y0.03
M03 P30 S76.5
G1 X-0.467
M05
G1 Y0.03
M03 P30 S76.5
G1 X0.467
M05
G1 Y0.03
M03 P30 S76.5
G1 X-0.467
M05
G1 Y0.03
M03 P30 S76.5
G1 X0.467
M05
G1 Y0.03
M03 P30 S76.5
G1 X-0.467
M05
G1 Y0.03
M03 P30 S76.5
G1 X0.467
M05
G1 Y0.03
M03 P30 S76.5
G1 X-0.467
M05
G1 Y0.03
M03 P30 S76.5
G1 X0.467
M05
G1 Y0.03
M03 P30 S76.5
G1 X-0.466
M05
G1 Y0.03
M03 P30 S76.5
G1 X0.466
M05
G1 Y0.03
M03 P30 S76.5
G1 X-0.464
M05
G1 Y0.03
M03 P30 S76.5
G1 X0.466
M05
G1 Y0.03
M03 P30 S76.5
G1 X-0.462
M05
G1 Y0.03
M03 P30 S76.5
G1 X0.467
M05
G1 Y0.03
M03 P30 S76.5
G1 X-0.459
M05
G1 Y0.03
M03 P30 S76.5
G1 X0.469
M05
G1 X0.007Y0.03
M03 P30 S76.5
G1 X-0.468
M05
G1 X0.007Y0.03
M03 P30 S76.5
G1 X0.47
M05
G1 X0.013Y0.03
M03 P30 S76.5
G1 X-0.476
M05
G1 X0.007Y0.03
M03 P30 S76.5
G1 X0.482
M05
G1 X0.014Y0.03
M03 P30 S76.5
G1 X-0.489
M05
G1 X0.01Y0.03
M03 P30 S76.5
G1 X0.496
M05
G1 X0.018Y0.03
M03 P30 S76.5
G1 X-0.504
M05
G1 X0.01Y0.03
M03 P30 S76.5
G1 X0.512
M05
G1 X0.023Y0.03
M03 P30 S76.5
G1 X-0.525
M05
G1 X0.014Y0.03
M03 P30 S76.5
G1 X0.535
M05
G1 X0.025Y0.03
M03 P30 S76.5
G1 X-0.546
M05
G1 X0.013Y0.03
M03 P30 S76.5
G1 X0.562
M05
G1 X0.028Y0.03
M03 P30 S76.5
G1 X-0.576
M05
G1 X0.018Y0.03
M03 P30 S76.5
G1 X0.591
M05
G1 X0.034Y0.03
M03 P30 S76.5
G1 X-0.607
M05
G1 X0.018Y0.03
M03 P30 S76.5
G1 X0.626
M05
G1 X0.041Y0.03
M03 P30 S76.5
G1 X-0.647
M05
G1 X0.022Y0.03
M03 P30 S76.5
G1 X0.668
M05
G1 X0.047Y0.03
M03 P30 S76.5
G1 X-0.692
M05
G1 X0.022Y0.03
M03 P30 S76.5
G1 X0.722
M05
G1 X0.056Y0.03
M03 P30 S76.5
G1 X-0.752
M05
G1 X3.45Y-1.803
M03 P30 S76.5
G1 Y1.147
M05
G1 X-0.03Y0.16
M03 P30 S76.5
G1 Y-1.374
M05
G1 X-0.03Y-0.035
M03 P30 S76.5
G1 Y1.508
M05
G1 X-0.03Y0.076
M03 P30 S76.5
G1 Y-1.602
M05
G1 X-0.03Y-0.015
M03 P30 S76.5
G1 Y1.681
M05
G1 X-0.03Y0.056
M03 P30 S76.5
G1 Y-1.745
M05
G1 X-0.03Y-0.007
M03 P30 S76.5
G1 Y1.802
M05
G1 X-0.029Y0.044
M03 P30 S76.5
G1 Y-1.849
M05
G1 X-0.031
M03 P30 S76.5
G1 Y1.89
M05
G1 X-0.03Y0.036
M03 P30 S76.5
G1 Y-1.928
M05
G1 X-0.029
M03 P30 S76.5
G1 Y1.963
M05
G1 X-0.031Y0.032
M03 P30 S76.5
G1 Y-1.996
M05
G1 X-0.03
M03 P30 S76.5
G1 Y2.026
M05
G1 X-0.03Y0.029
M03 P30 S76.5
G1 Y-2.055
M05
G1 X-0.03
M03 P30 S76.5
G1 Y2.081
M05
G1 X-0.03Y0.026
M03 P30 S76.5
G1 Y-2.107
M05
G1 X-0.03
M03 P30 S76.5
G1 Y0.466
M05
G1 Y0.894
M03 P30 S76.5
G1 Y0.769
M05
G1 X-0.03Y0.022
M03 P30 S76.5
G1 Y-0.696
M05
G1 Y-0.989
M03 P30 S76.5
G1 Y-0.466
M05
G1 X-0.03
M03 P30 S76.5
G1 Y0.466
M05
G1 Y1.051
M03 P30 S76.5
G1 Y0.656
M05
G1 X-0.03Y0.022
M03 P30 S76.5
G1 Y-0.632
M05
G1 Y-1.097
M03 P30 S76.5
G1 Y-0.466
M05
G1 X-0.03
M03 P30 S76.5
G1 Y0.466
M05
G1 Y1.137
M03 P30 S76.5
G1 Y0.614
M05
G1 X-0.029Y0.018
M03 P30 S76.5
G1 Y-0.595
M05
G1 Y-1.174
M03 P30 S76.5
G1 Y-0.466
M05
G1 X-0.031
M03 P30 S76.5
G1 Y0.466
M05
G1 Y1.206
M03 P30 S76.5
G1 Y0.581
M05
G1 X-0.03Y0.018
M03 P30 S76.5
G1 Y-0.568
M05
G1 Y-1.237
M03 P30 S76.5
G1 Y-0.466
M05
G1 X-0.03
M03 P30 S76.5
G1 Y0.466
M05
G1 Y1.266
M03 P30 S76.5
G1 Y0.556
M05
G1 X-0.03Y0.018
M03 P30 S76.5
G1 Y-0.547
M05
G1 Y-1.293
M03 P30 S76.5
G1 Y-0.466
M05
G1 X-0.03
M03 P30 S76.5
G1 Y0.466
M05
G1 Y1.319
M03 P30 S76.5
G1 Y0.538
M05
G1 X-0.03Y0.015
M03 P30 S76.5
G1 Y-0.53
M05
G1 Y-1.342
M03 P30 S76.5
G1 Y-0.466
M05
G1 X-0.03
M03 P30 S76.5
G1 Y0.466
M05
G1 Y1.364
M03 P30 S76.5
G1 Y0.524
M05
G1 X-0.03Y0.015
M03 P30 S76.5
G1 Y-0.517
M05
G1 Y-1.386
M03 P30 S76.5
G1 Y-0.466
M05
G1 X-0.03
M03 P30 S76.5
G1 Y0.466
M05
G1 Y1.405
M03 P30 S76.5
G1 Y0.513
M05
G1 X-0.03Y0.013
M03 P30 S76.5
G1 Y-0.508
M05
G1 Y-1.423
M03 P30 S76.5
G1 Y-0.466
M05
G1 X-0.029
M03 P30 S76.5
G1 Y0.466
M05
G1 Y1.442
M03 P30 S76.5
G1 Y0.501
M05
G1 X-0.031Y0.013
M03 P30 S76.5
G1 Y-0.498
M05
G1 Y-1.458
M03 P30 S76.5
G1 Y-0.466
M05
G1 X-0.03
M03 P30 S76.5
G1 Y0.466
M05
G1 Y1.474
M03 P30 S76.5
G1 Y0.494
M05
G1 X-0.029Y0.011
M03 P30 S76.5
G1 Y-0.49
M05
G1 Y-1.489
M03 P30 S76.5
G1 Y-0.466
M05
G1 X-0.031
M03 P30 S76.5
G1 Y0.466
M05
G1 Y1.503
M03 P30 S76.5
G1 Y0.486
M05
G1 X-0.03Y0.01
M03 P30 S76.5
G1 Y-0.483
M05
G1 Y-1.516
M03 P30 S76.5
G1 Y-0.466
M05
G1 X-0.03
M03 P30 S76.5
G1 Y0.466
M05
G1 Y1.528
M03 P30 S76.5
G1 Y0.482
M05
G1 X-0.03Y0.01
M03 P30 S76.5
G1 Y-0.48
M05
G1 X-0.03Y0.011
M03 P30 S76.5
G1 Y0.476
M05
G1 X-0.03Y0.008
M03 P30 S76.5
G1 Y-0.474
M05
G1 X-0.03Y0.011
M03 P30 S76.5
G1 Y0.47
M05
G1 X-0.03Y0.007
M03 P30 S76.5
G1 Y-0.469
M05
G1 X-0.03Y0.008
M03 P30 S76.5
G1 Y0.468
M05
G1 X-0.03
M03 P30 S76.5
G1 Y-0.46
M05
G1 X-0.03Y0.008
M03 P30 S76.5
G1 Y0.462
M05
G1 X-0.03
M03 P30 S76.5
G1 Y-0.455
M05
G1 X-0.03Y0.007
M03 P30 S76.5
G1 Y0.458
M05
G1 X-0.03
M03 P30 S76.5
G1 Y-0.452
M05
G1 X-0.03
M03 P30 S76.5
G1 Y0.459
M05
G1 X-0.03
M03 P30 S76.5
G1 Y-0.453
M05
G1 X-0.03
M03 P30 S76.5
G1 Y0.459
M05
G1 X-0.03
M03 P30 S76.5
G1 Y-0.455
M05
G1 X-0.03
M03 P30 S76.5
G1 Y0.46
M05
G1 X-0.03
M03 P30 S76.5
G1 Y-0.459
M05
G1 X-0.03
M03 P30 S76.5
G1 Y0.461
M05
G1 X-0.03
M03 P30 S76.5
G1 Y-0.461
M05
G1 X-0.03
M03 P30 S76.5
G1 Y0.462
M05
G1 X-0.03
M03 P30 S76.5
G1 Y-0.461
M05
G1 X-0.03
M03 P30 S76.5
G1 Y0.463
M05
G1 X-0.03
M03 P30 S76.5
G1 Y-0.464
M05
G1 X-0.03
M03 P30 S76.5
G1 Y0.466
M05
G1 X-0.03
M03 P30 S76.5
G1 Y-0.466
M05
G1 X-0.03
M03 P30 S76.5
G1 Y0.466
M05
G1 X-0.03
M03 P30 S76.5
G1 Y-0.467
M05
G1 X-0.03
M03 P30 S76.5
G1 Y0.466
M05
G1 X-0.03
M03 P30 S76.5
G1 Y-0.466
M05
G1 X-0.03
M03 P30 S76.5
G1 Y0.464
M05
G1 X-0.03
M03 P30 S76.5
G1 Y-0.465
M05
G1 X-0.03
M03 P30 S76.5
G1 Y0.463
M05
G1 X-0.03
M03 P30 S76.5
G1 Y-0.463
M05
G1 X-0.03
M03 P30 S76.5
G1 Y0.458
M05
G1 X-0.03
M03 P30 S76.5
G1 Y-0.459
M05
G1 X-0.03
M03 P30 S76.5
G1 Y0.453
M05
G1 X-0.03
M03 P30 S76.5
G1 Y-0.456
M05
G1 X-0.03
M03 P30 S76.5
G1 Y0.451
M05
G1 X-0.03
M03 P30 S76.5
G1 Y-0.457
M05
G1 X-0.03Y-0.005
M03 P30 S76.5
G1 Y0.453
M05
G1 X-0.03Y-0.005
M03 P30 S76.5
G1 Y-0.453
M05
G1 X-0.03Y-0.006
M03 P30 S76.5
G1 Y0.454
M05
G1 X-0.03Y-0.006
M03 P30 S76.5
G1 Y-0.457
M05
G1 X-0.03Y-0.008
M03 P30 S76.5
G1 Y0.46
M05
G1 X-0.03
M03 P30 S76.5
G1 Y-0.469
M05
G1 X-0.03Y-0.011
M03 P30 S76.5
G1 Y0.468
M05
G1 X-0.03Y-0.008
M03 P30 S76.5
G1 Y-0.472
M05
G1 X-0.03Y-0.011
M03 P30 S76.5
G1 Y0.475
M05
G1 X-0.03Y-0.009
M03 P30 S76.5
G1 Y-0.479
M05
G1 X-0.03Y-2
M03 P30 S76.5
G1 Y0.466
M05
G1 Y1.52
M03 P30 S76.5
G1 Y0.485
M05
G1 X-0.03Y-0.008
M03 P30 S76.5
G1 Y-0.49
M05
G1 Y-1.507
M03 P30 S76.5
G1 Y-0.466
M05
G1 X-0.03
M03 P30 S76.5
G1 Y0.466
M05
G1 Y1.492
M03 P30 S76.5
G1 Y0.496
M05
G1 X-0.03Y-0.012
M03 P30 S76.5
G1 Y-0.5
M05
G1 Y-1.476
M03 P30 S76.5
G1 Y-0.466
M05
G1 X-0.03
M03 P30 S76.5
G1 Y0.466
M05
G1 Y1.46
M03 P30 S76.5
G1 Y0.505
M05
G1 X-0.03Y-0.012
M03 P30 S76.5
G1 Y-0.51
M05
G1 Y-1.443
M03 P30 S76.5
G1 Y-0.466
M05
G1 X-0.03
M03 P30 S76.5
G1 Y0.466
M05
G1 Y1.424
M03 P30 S76.5
G1 Y0.517
M05
G1 X-0.03Y-0.012
M03 P30 S76.5
G1 Y-0.524
M05
G1 Y-1.405
M03 P30 S76.5
G1 Y-0.466
M05
G1 X-0.03
M03 P30 S76.5
G1 Y0.466
M05
G1 Y1.385
M03 P30 S76.5
G1 Y0.532
M05
G1 X-0.03Y-0.016
M03 P30 S76.5
G1 Y-0.538
M05
G1 Y-1.363
M03 P30 S76.5
G1 Y-0.466
M05
G1 X-0.03
M03 P30 S76.5
G1 Y0.466
M05
G1 Y1.341
M03 P30 S76.5
G1 Y0.544
M05
G1 X-0.03Y-0.016
M03 P30 S76.5
G1 Y-0.553
M05
G1 Y-1.316
M03 P30 S76.5
G1 Y-0.466
M05
G1 X-0.03
M03 P30 S76.5
G1 Y0.466
M05
G1 Y1.29
M03 P30 S76.5
G1 Y0.563
M05
G1 X-0.03Y-0.017
M03 P30 S76.5
G1 Y-0.572
M05
G1 Y-1.264
M03 P30 S76.5
G1 Y-0.465
M05
G1 X-0.03
M03 P30 S76.5
G1 Y0.465
M05
G1 Y1.233
M03 P30 S76.5
G1 Y0.587
M05
G1 X-0.03Y-0.019
M03 P30 S76.5
G1 Y-0.599
M05
G1 Y-1.202
M03 P30 S76.5
G1 Y-0.465
M05
G1 X-0.03
M03 P30 S76.5
G1 Y0.465
M05
G1 Y1.168
M03 P30 S76.5
G1 Y0.613
M05
G1 X-0.03Y-0.02
M03 P30 S76.5
G1 Y-0.632
M05
G1 Y-1.129
M03 P30 S76.5
G1 Y-0.465
M05
G1 X-0.03
M03 P30 S76.5
G1 Y0.465
M05
G1 Y1.088
M03 P30 S76.5
G1 Y0.651
M05
G1 X-0.03Y-0.022
M03 P30 S76.5
G1 Y-0.681
M05
G1 Y-1.036
M03 P30 S76.5
G1 Y-0.465
M05
G1 X-0.03
M03 P30 S76.5
G1 Y0.465
M05
G1 Y0.978
M03 P30 S76.5
G1 Y0.715
M05
G1 X-0.03Y-0.027
M03 P30 S76.5
G1 Y-0.764
M05
G1 Y-0.902
M03 P30 S76.5
G1 Y-0.465
M05
G1 X-0.03
M03 P30 S76.5
G1 Y2.104
M05
G1 X-0.03Y-0.026
M03 P30 S76.5
G1 Y-2.078
M05
G1 X-0.03
M03 P30 S76.5
G1 Y2.051
M05
G1 X-0.03Y-0.028
M03 P30 S76.5
G1 Y-2.023
M05
G1 X-0.03
M03 P30 S76.5
G1 Y1.99
M05
G1 X-0.03Y-0.032
M03 P30 S76.5
G1 Y-1.958
M05
G1 X-0.03
M03 P30 S76.5
G1 Y1.923
M05
G1 X-0.03Y-0.04
M03 P30 S76.5
G1 Y-1.883
M05
G1 X-0.03
M03 P30 S76.5
G1 Y1.843
M05
G1 X-0.03Y-0.046
M03 P30 S76.5
G1 Y-1.791
M05
G1 X-0.03Y0.007
M03 P30 S76.5
G1 Y1.734
M05
G1 X-0.03Y-0.056
M03 P30 S76.5
G1 Y-1.665
M05
G1 X-0.03Y0.017
M03 P30 S76.5
G1 Y1.582
M05
G1 X-0.03Y-0.08
M03 P30 S76.5
G1 Y-1.479
M05
G1 X-0.03Y0.04
M03 P30 S76.5
G1 Y1.341
M05
G1 X-0.03Y-0.159
M03 P30 S76.5
G1 Y-1.114
M05
G1 X2.58Y-0.175
M03 P30 S76.5
G1 Y0.466
M05
G1 X-0.03
M03 P30 S76.5
G1 Y-0.466
M05
G1 X-0.03
M03 P30 S76.5
G1 Y0.466
M05
G1 X-0.03
M03 P30 S76.5
G1 Y-0.466
M05
G1 X-0.03
M03 P30 S76.5
G1 Y0.466
M05
G1 X-0.03
M03 P30 S76.5
G1 Y-0.466
M05
G1 X-0.03
M03 P30 S76.5
G1 Y0.466
M05
G1 X-0.03
M03 P30 S76.5
G1 Y-0.466
M05
G1 X-0.03
M03 P30 S76.5
G1 Y0.466
M05
G1 X-0.03
M03 P30 S76.5
G1 Y-0.466
M05
G1 X-0.03
M03 P30 S76.5
G1 Y0.466
M05
G1 X-0.03
M03 P30 S76.5
G1 Y-0.466
M05
G1 X-0.03
M03 P30 S76.5
G1 Y0.466
M05
G1 X-0.03
M03 P30 S76.5
G1 Y-0.466
M05
G1 X-0.03
M03 P30 S76.5
G1 Y0.466
M05
G1 X-0.03
M03 P30 S76.5
G1 Y-0.466
M05
G1 X-0.03
M03 P30 S76.5
G1 Y0.466
M05
G1 X-0.03
M03 P30 S76.5
G1 Y-0.466
M05
G1 X-0.03
M03 P30 S76.5
G1 Y0.466
M05
G1 X-0.03
M03 P30 S76.5
G1 Y-0.466
M05
G1 X-0.03
M03 P30 S76.5
G1 Y0.466
M05
G1 X-0.03
M03 P30 S76.5
G1 Y-0.466
M05
G1 X-0.03
M03 P30 S76.5
G1 Y0.466
M05
G1 X-0.03
M03 P30 S76.5
G1 Y-0.466
M05
G1 X-0.03
M03 P30 S76.5
G1 Y0.466
M05
G1 X-0.03
M03 P30 S76.5
G1 Y-0.466
M05
G1 X-0.03
M03 P30 S76.5
G1 Y0.466
M05
G1 X-0.03
M03 P30 S76.5
G1 Y-0.466
M05
G1 X-0.03
M03 P30 S76.5
G1 Y0.466
M05
G1 X-0.03
M03 P30 S76.5
G1 Y-0.466
M05
G1 X-0.03
M03 P30 S76.5
G1 Y0.466
M05
G1 X-0.03
M03 P30 S76.5
G1 Y-0.466
M05
G1 X-0.03
M03 P30 S76.5
G1 Y0.466
M05
G1 X-0.03
M03 P30 S76.5
G1 Y-0.466
M05
G1 X-0.03
M03 P30 S76.5
G1 Y0.466
M05
G1 X-0.03
M03 P30 S76.5
G1 Y-0.466
M05
G1 X-0.03
M03 P30 S76.5
G1 Y0.466
M05
G1 X-0.03
M03 P30 S76.5
G1 Y-0.466
M05
G1 X-0.03
M03 P30 S76.5
G1 Y0.466
M05
G1 X-0.03
M03 P30 S76.5
G1 Y-0.466
M05
G1 X-0.03
M03 P30 S76.5
G1 Y0.466
M05
G1 X-0.03
M03 P30 S76.5
G1 Y-0.466
M05
G1 X-0.03
M03 P30 S76.5
G1 Y0.466
M05
G1 X-0.03
M03 P30 S76.5
G1 Y-0.466
M05
G1 X-0.03
M03 P30 S76.5
G1 Y0.466
M05
G1 X-0.03
M03 P30 S76.5
G1 Y-0.466
M05
G1 X-0.03
M03 P30 S76.5
G1 Y0.466
M05
G1 X-0.03
M03 P30 S76.5
G1 Y-0.466
M05
G1 X-0.03
M03 P30 S76.5
G1 Y0.466
M05
G0 X35.509 Y-0.156 F0
M03 P30 S76.5
G1 X0.26 F2300
M05
G1 X0.454Y0.03
M03 P30 S76.5
G1 X-1.144
M05
G1 X-0.202Y0.03
M03 P30 S76.5
G1 X1.563
M05
G1 X0.167Y0.03
M03 P30 S76.5
G1 X-1.866
M05
G1 X-0.127Y0.03
M03 P30 S76.5
G1 X2.114
M05
G1 X0.114Y0.03
M03 P30 S76.5
G1 X-2.325
M05
G1 X-0.098Y0.03
M03 P30 S76.5
G1 X2.509
M05
G1 X0.086Y0.03
M03 P30 S76.5
G1 X-2.675
M05
G1 X-0.073Y0.03
M03 P30 S76.5
G1 X2.826
M05
G1 X0.071Y0.03
M03 P30 S76.5
G1 X-2.962
M05
G1 X-0.06Y0.03
M03 P30 S76.5
G1 X3.083
M05
G1 X0.059Y0.03
M03 P30 S76.5
G1 X-3.198
M05
G1 X-0.051Y0.03
M03 P30 S76.5
G1 X3.3
M05
G1 X0.05Y0.03
M03 P30 S76.5
G1 X-3.398
M05
G1 X-0.046Y0.03
M03 P30 S76.5
G1 X3.489
M05
G1 X0.046Y0.03
M03 P30 S76.5
G1 X-3.575
M05
G1 X-0.041Y0.03
M03 P30 S76.5
G1 X3.651
M05
G1 X0.033Y0.03
M03 P30 S76.5
G1 X-3.721
M05
G1 X-0.036Y0.03
M03 P30 S76.5
G1 X3.79
M05
G1 X0.033Y0.03
M03 P30 S76.5
G1 X-3.856
M05
G1 X-0.028Y0.03
M03 P30 S76.5
G1 X1.507
M05
G1 X0.852
M03 P30 S76.5
G1 X1.551
M05
G1 X0.026Y0.03
M03 P30 S76.5
G1 X-1.344
M05
G1 X-1.3
M03 P30 S76.5
G1 X-1.319
M05
G1 X2.774Y0.03
M03 P30 S76.5
G1 X1.215
M05
G1 X0.026Y0.03
M03 P30 S76.5
G1 X-1.117
M05
G1 X0.092Y0.03
M03 P30 S76.5
G1 X1.048
M05
G1 X0.021Y0.03
M03 P30 S76.5
G1 X-0.981
M05
G1 X0.072Y0.03
M03 P30 S76.5
G1 X0.93
M05
G1 X0.021Y0.03
M03 P30 S76.5
G1 X-0.889
M05
G1 X0.053Y0.03
M03 P30 S76.5
G1 X0.857
M05
G1 X0.017Y0.03
M03 P30 S76.5
G1 X-0.826
M05
G1 X0.048Y0.03
M03 P30 S76.5
G1 X0.795
M05
G1 X0.016Y0.03
M03 P30 S76.5
G1 X-0.766
M05
G1 X0.037Y0.03
M03 P30 S76.5
G1 X0.746
M05
G1 X0.017Y0.03
M03 P30 S76.5
G1 X-0.726
M05
G1 X0.03Y0.03
M03 P30 S76.5
G1 X0.71
M05
G1 X0.013Y0.03
M03 P30 S76.5
G1 X-0.693
M05
G1 X0.027Y0.03
M03 P30 S76.5
G1 X0.679
M05
G1 X0.013Y0.03
M03 P30 S76.5
G1 X-0.668
M05
G1 X0.025Y0.03
M03 P30 S76.5
G1 X0.657
M05
G1 X0.011Y0.03
M03 P30 S76.5
G1 X-0.648
M05
G1 X0.019Y0.03
M03 P30 S76.5
G1 X0.638
M05
G1 X0.01Y0.03
M03 P30 S76.5
G1 X-0.628
M05
G1 X0.015Y0.03
M03 P30 S76.5
G1 X0.623
M05
G1 X0.009Y0.03
M03 P30 S76.5
G1 X-0.616
M05
G1 X0.015Y0.03
M03 P30 S76.5
G1 X0.61
M05
G1 X0.006Y0.03
M03 P30 S76.5
G1 X-0.604
M05
G1 X0.011Y0.03
M03 P30 S76.5
G1 X0.599
M05
G1 X0.006Y0.03
M03 P30 S76.5
G1 X-0.594
M05
G1 X0.01Y0.03
M03 P30 S76.5
G1 X0.59
M05
G1 X0.006Y0.03
M03 P30 S76.5
G1 X-0.59
M05
G1 X0.007Y0.03
M03 P30 S76.5
G1 X0.587
M05
G1 Y0.03
M03 P30 S76.5
G1 X-0.58
M05
G1 Y0.03
M03 P30 S76.5
G1 X0.585
M05
G1 Y0.03
M03 P30 S76.5
G1 X-0.579
M05
G1 Y0.03
M03 P30 S76.5
G1 X0.584
M05
G1 Y0.03
M03 P30 S76.5
G1 X-0.581
M05
G1 Y0.03
M03 P30 S76.5
G1 X0.582
M05
G1 Y0.03
M03 P30 S76.5
G1 X-0.587
M05
G1 Y0.03
M03 P30 S76.5
G1 X0.583
M05
G1 Y0.03
M03 P30 S76.5
G1 X-0.592
M05
G1 X-0.007Y0.03
M03 P30 S76.5
G1 X0.594
M05
G1 Y0.03
M03 P30 S76.5
G1 X-0.601
M05
G1 X-0.01Y0.03
M03 P30 S76.5
G1 X0.602
M05
G1 X-0.005Y0.03
M03 P30 S76.5
G1 X-0.606
M05
G1 X-0.011Y0.03
M03 P30 S76.5
G1 X0.612
M05
G1 X-0.007Y0.03
M03 P30 S76.5
G1 X-0.618
M05
G1 X-0.014Y0.03
M03 P30 S76.5
G1 X0.624
M05
G1 X-0.008Y0.03
M03 P30 S76.5
G1 X-0.63
M05
G1 X-0.017Y0.03
M03 P30 S76.5
G1 X0.639
M05
G1 X-0.009Y0.03
M03 P30 S76.5
G1 X-0.646
M05
G1 X-0.019Y0.03
M03 P30 S76.5
G1 X0.654
M05
G1 X-0.011Y0.03
M03 P30 S76.5
G1 X-0.664
M05
G1 X-0.021Y0.03
M03 P30 S76.5
G1 X0.674
M05
G1 X-0.011Y0.03
M03 P30 S76.5
G1 X-0.687
M05
G1 X-0.024Y0.03
M03 P30 S76.5
G1 X0.697
M05
G1 X-0.013Y0.03
M03 P30 S76.5
G1 X-0.713
M05
G1 X-0.029Y0.03
M03 P30 S76.5
G1 X0.728
M05
G1 X-0.014Y0.03
M03 P30 S76.5
G1 X-0.749
M05
G1 X-0.039Y0.03
M03 P30 S76.5
G1 X0.771
M05
G1 X-0.017Y0.03
M03 P30 S76.5
G1 X-0.796
M05
G1 X-0.044Y0.03
M03 P30 S76.5
G1 X0.823
M05
G1 X-0.018Y0.03
M03 P30 S76.5
G1 X-0.856
M05
G1 X-0.055Y0.03
M03 P30 S76.5
G1 X0.891
M05
G1 X-0.021Y0.03
M03 P30 S76.5
G1 X-0.934
M05
G1 X-0.076Y0.03
M03 P30 S76.5
G1 X0.989
M05
G1 X-0.022Y0.03
M03 P30 S76.5
G1 X-1.048
M05
G1 X-0.094Y0.03
M03 P30 S76.5
G1 X1.117
M05
G1 X-0.026Y0.03
M03 P30 S76.5
G1 X-1.208
M05
G1 X-2.799Y0.03
M03 P30 S76.5
G1 X1.321
M05
G1 X1.324
M03 P30 S76.5
G1 X1.336
M05
G1 X-0.031Y0.03
M03 P30 S76.5
G1 X-1.534
M05
G1 X-0.88
M03 P30 S76.5
G1 X-1.509
M05
G1 X0.032Y0.03
M03 P30 S76.5
G1 X3.858
M05
G1 X-0.033Y0.03
M03 P30 S76.5
G1 X-3.792
M05
G1 X0.034Y0.03
M03 P30 S76.5
G1 X3.722
M05
G1 X-0.037Y0.03
M03 P30 S76.5
G1 X-3.648
M05
G1 X0.041Y0.03
M03 P30 S76.5
G1 X3.57
M05
G1 X-0.044Y0.03
M03 P30 S76.5
G1 X-3.486
M05
G1 X0.046Y0.03
M03 P30 S76.5
G1 X3.396
M05
G1 X-0.048Y0.03
M03 P30 S76.5
G1 X-3.301
M05
G1 X0.05Y0.03
M03 P30 S76.5
G1 X3.199
M05
G1 X-0.055Y0.03
M03 P30 S76.5
G1 X-3.086
M05
G1 X0.058Y0.03
M03 P30 S76.5
G1 X2.967
M05
G1 X-0.065Y0.03
M03 P30 S76.5
G1 X-2.835
M05
G1 X0.07Y0.03
M03 P30 S76.5
G1 X2.693
M05
G1 X-0.082Y0.03
M03 P30 S76.5
G1 X-2.529
M05
G1 X0.09Y0.03
M03 P30 S76.5
G1 X2.35
M05
G1 X-0.101Y0.03
M03 P30 S76.5
G1 X-2.145
M05
G1 X0.133Y0.03
M03 P30 S76.5
G1 X1.892
M05
G1 X-0.146Y0.03
M03 P30 S76.5
G1 X-1.605
M05
G1 X0.21Y0.03
M03 P30 S76.5
G1 X1.183
M05
G1 X-0.45Y0.03
M03 P30 S76.5
G1 X-0.268
M05
G1 X-1.89Y-2.61
M03 P30 S76.5
G1 X1.193
M05
G1 X-0.11Y0.03
M03 P30 S76.5
G1 X-1.108
M05
G1 X-0.022Y0.03
M03 P30 S76.5
G1 X1.029
M05
G1 X-0.078Y0.03
M03 P30 S76.5
G1 X-0.974
M05
G1 X-0.023Y0.03
M03 P30 S76.5
G1 X0.92
M05
G1 X-0.063Y0.03
M03 P30 S76.5
G1 X-0.876
M05
G1 X-0.019Y0.03
M03 P30 S76.5
G1 X0.839
M05
G1 X-0.05Y0.03
M03 P30 S76.5
G1 X-0.807
M05
G1 X-0.019Y0.03
M03 P30 S76.5
G1 X0.782
M05
G1 X-0.041Y0.03
M03 P30 S76.5
G1 X-0.758
M05
G1 X-0.015Y0.03
M03 P30 S76.5
G1 X0.737
M05
G1 X-0.035Y0.03
M03 P30 S76.5
G1 X-0.717
M05
G1 X-0.015Y0.03
M03 P30 S76.5
G1 X0.701
M05
G1 X-0.028Y0.03
M03 P30 S76.5
G1 X-0.688
M05
G1 X-0.012Y0.03
M03 P30 S76.5
G1 X0.675
M05
G1 X-0.023Y0.03
M03 P30 S76.5
G1 X-0.664
M05
G1 X-0.012Y0.03
M03 P30 S76.5
G1 X0.654
M05
G1 X-0.019Y0.03
M03 P30 S76.5
G1 X-0.646
M05
G1 X-0.012Y0.03
M03 P30 S76.5
G1 X0.64
M05
G1 X-0.017Y0.03
M03 P30 S76.5
G1 X-0.632
M05
G1 X-0.008Y0.03
M03 P30 S76.5
G1 X0.624
M05
G1 X-0.015Y0.03
M03 P30 S76.5
G1 X-0.618
M05
G1 X-0.009Y0.03
M03 P30 S76.5
G1 X0.614
M05
G1 X-0.012Y0.03
M03 P30 S76.5
G1 X-0.61
M05
G1 X-0.005Y0.03
M03 P30 S76.5
G1 X0.603
M05
G1 X-0.009Y0.03
M03 P30 S76.5
G1 X-0.6
M05
G1 X-0.005Y0.03
M03 P30 S76.5
G1 X0.595
M05
G1 X-0.008Y0.03
M03 P30 S76.5
G1 X-0.593
M05
G1 Y0.03
M03 P30 S76.5
G1 X0.587
M05
G1 X-0.006Y0.03
M03 P30 S76.5
G1 X-0.587
M05
G1 Y0.03
M03 P30 S76.5
G1 X0.582
M05
G1 Y0.03
M03 P30 S76.5
G1 X-0.586
M05
G1 Y0.03
M03 P30 S76.5
G1 X0.582
M05
G1 Y0.03
M03 P30 S76.5
G1 X-0.584
M05
G1 Y0.03
M03 P30 S76.5
G1 X0.585
M05
G1 Y0.03
M03 P30 S76.5
G1 X-0.582
M05
G1 Y0.03
M03 P30 S76.5
G1 X0.589
M05
G1 X0.006Y0.03
M03 P30 S76.5
G1 X-0.592
M05
G1 Y0.03
M03 P30 S76.5
G1 X0.597
M05
G1 X0.009Y0.03
M03 P30 S76.5
G1 X-0.597
M05
G1 Y0.03
M03 P30 S76.5
G1 X0.606
M05
G1 X0.011Y0.03
M03 P30 S76.5
G1 X-0.608
M05
G1 X0.007Y0.03
M03 P30 S76.5
G1 X0.612
M05
G1 X0.013Y0.03
M03 P30 S76.5
G1 X-0.617
M05
