;Header Start
;header_type: laser
;file_total_lines:114177
;max_x(mm): 51.91
;max_y(mm): 79.24
;max_z(mm): 0
;min_x(mm): 3.3
;min_y(mm): 4.11
;min_z(mm): 0
;Header End
; LightBurn 1.2.04
; SnapMaker device profile, user origin
; Bounds: X3.3 Y4.11 to X51.91 Y79.24

;USER START SCRIPT
M106 P0 S255
G28
G53
G0 Z45 F6000
G54
G92 Z0
G53
G0 X100 Y75 F6000
G54
G92 X0 Y0
M3 S0


;USER START SCRIPT

G21
G90
G0 X0 Y0 F0
G91
; Scan @ 2299.998 mm/min, 30% power
M106 P0 S255
M05
G0 X27.923 Y9.656 F0
; Layer C16
M03 P30 S76.5
G1 X0.034 F2300
M05
G1 X0.137Y0.03
M03 P30 S76.5
G1 X-0.307
M05
G1 X-0.045Y0.03
M03 P30 S76.5
G1 X0.396
M05
G1 X0.045Y0.03
M03 P30 S76.5
G1 X-0.485
M05
G1 X-0.035Y0.03
M03 P30 S76.5
G1 X0.554
M05
G1 X0.021Y0.03
M03 P30 S76.5
G1 X-0.596
M05
G1 X-0.02Y0.03
M03 P30 S76.5
G1 X0.636
M05
G1 X0.02Y0.03
M03 P30 S76.5
G1 X-0.676
M05
G1 X-0.015Y0.03
M03 P30 S76.5
G1 X0.706
M05
G1 X0.006Y0.03
M03 P30 S76.5
G1 X-0.718
M05
G1 X-0.006Y0.03
M03 P30 S76.5
G1 X0.73
M05
G1 X0.006Y0.03
M03 P30 S76.5
G1 X-0.742
M05
G1 X-0.006Y0.03
M03 P30 S76.5
G1 X0.755
M05
G1 Y0.03
M03 P30 S76.5
G1 X-0.759
M05
G1 Y0.03
M03 P30 S76.5
G1 X0.762
M05
G1 Y0.03
M03 P30 S76.5
G1 X-0.762
M05
G1 Y0.03
M03 P30 S76.5
G1 X0.762
M05
G1 Y0.03
M03 P30 S76.5
G1 X-0.762
M05
G1 Y0.03
M03 P30 S76.5
G1 X0.762
M05
G1 Y0.03
M03 P30 S76.5
G1 X-0.762
M05
G1 Y0.03
M03 P30 S76.5
G1 X0.762
M05
G1 Y0.03
M03 P30 S76.5
G1 X-0.762
M05
G1 Y0.03
M03 P30 S76.5
G1 X0.762
M05
G1 Y0.03
M03 P30 S76.5
G1 X-0.762
M05
G1 Y0.03
M03 P30 S76.5
G1 X0.762
M05
G1 Y0.03
M03 P30 S76.5
G1 X-0.762
M05
G1 Y0.03
M03 P30 S76.5
G1 X0.762
M05
G1 Y0.03
M03 P30 S76.5
G1 X-0.762
M05
G1 Y0.03
M03 P30 S76.5
G1 X0.762
M05
G1 Y0.03
M03 P30 S76.5
G1 X-0.762
M05
G1 Y0.03
M03 P30 S76.5
G1 X0.762
M05
G1 Y0.03
M03 P30 S76.5
G1 X-0.762
M05
G1 Y0.03
M03 P30 S76.5
G1 X0.762
M05
G1 Y0.03
M03 P30 S76.5
G1 X-0.762
M05
G1 Y0.03
M03 P30 S76.5
G1 X0.762
M05
G1 Y0.03
M03 P30 S76.5
G1 X-0.762
M05
G1 Y0.03
M03 P30 S76.5
G1 X0.762
M05
G1 Y0.03
M03 P30 S76.5
G1 X-0.762
M05
G1 Y0.03
M03 P30 S76.5
G1 X0.762
M05
G1 Y0.03
M03 P30 S76.5
G1 X-0.762
M05
G1 Y0.03
M03 P30 S76.5
G1 X0.762
M05
G1 Y0.03
M03 P30 S76.5
G1 X-0.762
M05
G1 Y0.03
M03 P30 S76.5
G1 X0.762
M05
G1 Y0.03
M03 P30 S76.5
G1 X-0.762
M05
G1 Y0.03
M03 P30 S76.5
G1 X0.762
M05
G1 Y0.03
M03 P30 S76.5
G1 X-0.762
M05
G1 Y0.03
M03 P30 S76.5
G1 X0.762
M05
G1 Y0.03
M03 P30 S76.5
G1 X-0.762
M05
G1 Y0.03
M03 P30 S76.5
G1 X0.762
M05
G1 Y0.03
M03 P30 S76.5
G1 X-0.762
M05
G1 Y0.03
M03 P30 S76.5
G1 X0.762
M05
G1 Y0.03
M03 P30 S76.5
G1 X-0.762
M05
G1 Y0.03
M03 P30 S76.5
G1 X0.762
M05
G1 Y0.03
M03 P30 S76.5
G1 X-0.762
M05
G1 Y0.03
M03 P30 S76.5
G1 X0.762
M05
G1 Y0.03
M03 P30 S76.5
G1 X-0.762
M05
G1 Y0.03
M03 P30 S76.5
G1 X0.762
M05
G1 Y0.03
M03 P30 S76.5
G1 X-0.762
M05
G1 Y0.03
M03 P30 S76.5
G1 X0.762
M05
G1 Y0.03
M03 P30 S76.5
G1 X-0.762
M05
G1 Y0.03
M03 P30 S76.5
G1 X0.762
M05
G1 Y0.03
M03 P30 S76.5
G1 X-0.762
M05
G1 Y0.03
M03 P30 S76.5
G1 X0.762
M05
G1 Y0.03
M03 P30 S76.5
G1 X-0.762
M05
G1 Y0.03
M03 P30 S76.5
G1 X0.762
M05
G1 Y0.03
M03 P30 S76.5
G1 X-0.762
M05
G1 Y0.03
M03 P30 S76.5
G1 X0.762
M05
G1 Y0.03
M03 P30 S76.5
G1 X-0.762
M05
G1 Y0.03
M03 P30 S76.5
G1 X0.762
M05
G1 Y0.03
M03 P30 S76.5
G1 X-0.762
M05
G1 Y0.03
M03 P30 S76.5
G1 X0.762
M05
G1 Y0.03
M03 P30 S76.5
G1 X-0.762
M05
G1 Y0.03
M03 P30 S76.5
G1 X0.762
M05
G1 Y0.03
M03 P30 S76.5
G1 X-0.762
M05
G1 Y0.03
M03 P30 S76.5
G1 X0.762
M05
G1 Y0.03
M03 P30 S76.5
G1 X-0.762
M05
G1 Y0.03
M03 P30 S76.5
G1 X0.762
M05
G1 Y0.03
M03 P30 S76.5
G1 X-0.762
M05
G1 Y0.03
M03 P30 S76.5
G1 X0.762
M05
G1 Y0.03
M03 P30 S76.5
G1 X-0.762
M05
G1 Y0.03
M03 P30 S76.5
G1 X0.762
M05
G1 Y0.03
M03 P30 S76.5
G1 X-0.762
M05
G1 Y0.03
M03 P30 S76.5
G1 X0.762
M05
G1 Y0.03
M03 P30 S76.5
G1 X-0.762
M05
G1 Y0.03
M03 P30 S76.5
G1 X0.762
M05
G1 Y0.03
M03 P30 S76.5
G1 X-0.762
M05
G1 Y0.03
M03 P30 S76.5
G1 X0.762
M05
G1 Y0.03
M03 P30 S76.5
G1 X-0.762
M05
G1 Y0.03
M03 P30 S76.5
G1 X0.762
M05
G1 Y0.03
M03 P30 S76.5
G1 X-0.762
M05
G1 Y0.03
M03 P30 S76.5
G1 X0.762
M05
G1 Y0.03
M03 P30 S76.5
G1 X-0.762
M05
G1 Y0.03
M03 P30 S76.5
G1 X0.762
M05
G1 Y0.03
M03 P30 S76.5
G1 X-0.762
M05
G1 Y0.03
M03 P30 S76.5
G1 X0.762
M05
G1 Y0.03
M03 P30 S76.5
G1 X-0.762
M05
G1 Y0.03
M03 P30 S76.5
G1 X0.762
M05
G1 Y0.03
M03 P30 S76.5
G1 X-0.762
M05
G1 Y0.03
M03 P30 S76.5
G1 X0.762
M05
G1 Y0.03
M03 P30 S76.5
G1 X-0.762
M05
G1 Y0.03
M03 P30 S76.5
G1 X0.762
M05
G1 Y0.03
M03 P30 S76.5
G1 X-0.762
M05
G1 Y0.03
M03 P30 S76.5
G1 X0.762
M05
G1 Y0.03
M03 P30 S76.5
G1 X-0.762
M05
G1 Y0.03
M03 P30 S76.5
G1 X0.762
M05
G1 Y0.03
M03 P30 S76.5
G1 X-0.762
M05
G1 Y0.03
M03 P30 S76.5
G1 X0.762
M05
G1 Y0.03
M03 P30 S76.5
G1 X-0.762
M05
G1 Y0.03
M03 P30 S76.5
G1 X0.762
M05
G1 Y0.03
M03 P30 S76.5
G1 X-0.762
M05
G1 Y0.03
M03 P30 S76.5
G1 X0.762
M05
G1 Y0.03
M03 P30 S76.5
G1 X-0.762
M05
G1 Y0.03
M03 P30 S76.5
G1 X0.762
M05
G1 Y0.03
M03 P30 S76.5
G1 X-0.762
M05
G1 Y0.03
M03 P30 S76.5
G1 X0.762
M05
G1 Y0.03
M03 P30 S76.5
G1 X-0.762
M05
G1 Y0.03
M03 P30 S76.5
G1 X0.762
M05
G1 Y0.03
M03 P30 S76.5
G1 X-0.762
M05
G1 Y0.03
M03 P30 S76.5
G1 X0.762
M05
G1 Y0.03
M03 P30 S76.5
G1 X-0.758
M05
G1 X0.006Y0.03
M03 P30 S76.5
G1 X0.742
M05
G1 X-0.006Y0.03
M03 P30 S76.5
G1 X-0.73
M05
G1 X0.006Y0.03
M03 P30 S76.5
G1 X0.718
M05
G1 X-0.006Y0.03
M03 P30 S76.5
G1 X-0.706
M05
G1 X0.015Y0.03
M03 P30 S76.5
G1 X0.676
M05
G1 X-0.02Y0.03
M03 P30 S76.5
G1 X-0.636
M05
G1 X0.02Y0.03
M03 P30 S76.5
G1 X0.596
M05
G1 X-0.021Y0.03
M03 P30 S76.5
G1 X-0.554
M05
G1 X0.035Y0.03
M03 P30 S76.5
G1 X0.485
M05
G1 X-0.045Y0.03
M03 P30 S76.5
G1 X-0.396
M05
G1 X0.045Y0.03
M03 P30 S76.5
G1 X0.307
M05
G1 X-0.137Y0.03
M03 P30 S76.5
G1 X-0.034
M05
G1 X0.392Y-3.582
M03 P30 S76.5
G1 Y3.235
M05
G1 X-0.03Y0.127
M03 P30 S76.5
G1 Y-3.489
M05
G1 X-0.03Y-0.045
M03 P30 S76.5
G1 Y3.579
M05
G1 X-0.03Y0.044
M03 P30 S76.5
G1 Y-3.667
M05
G1 X-0.03Y-0.033
M03 P30 S76.5
G1 Y3.733
M05
G1 X-0.03Y0.02
M03 P30 S76.5
G1 Y-3.773
M05
G1 X-0.03Y-0.021
M03 P30 S76.5
G1 Y3.814
M05
G1 X-0.03Y0.021
M03 P30 S76.5
G1 Y-3.855
M05
G1 X-0.03Y-0.014
M03 P30 S76.5
G1 Y3.883
M05
G1 X-0.03Y0.006
M03 P30 S76.5
G1 Y-3.895
M05
G1 X-0.03Y-0.006
M03 P30 S76.5
G1 Y3.907
M05
G1 X-0.03Y0.006
M03 P30 S76.5
G1 Y-3.919
M05
G1 X-0.03Y-0.006
M03 P30 S76.5
G1 Y3.931
M05
G1 X-0.03
M03 P30 S76.5
G1 Y-3.931
M05
G1 X-0.03Y0.006
M03 P30 S76.5
G1 Y3.919
M05
G1 X-0.03Y-0.006
M03 P30 S76.5
G1 Y-3.907
M05
G1 X-0.03Y0.006
M03 P30 S76.5
G1 Y3.895
M05
G1 X-0.03Y-0.006
M03 P30 S76.5
G1 Y-3.883
M05
G1 X-0.03Y0.014
M03 P30 S76.5
G1 Y3.855
M05
G1 X-0.03Y-0.021
M03 P30 S76.5
G1 Y-3.814
M05
G1 X-0.03Y0.021
M03 P30 S76.5
G1 Y3.773
M05
G1 X-0.03Y-0.02
M03 P30 S76.5
G1 Y-3.733
M05
G1 X-0.03Y0.033
M03 P30 S76.5
G1 Y3.667
M05
G1 X-0.03Y-0.044
M03 P30 S76.5
G1 Y-3.579
M05
G1 X-0.03Y0.045
M03 P30 S76.5
G1 Y3.489
M05
G1 X-0.03Y-0.127
M03 P30 S76.5
G1 Y-3.235
M05
G0 X-1.015 Y4.805 F0
M03 P30 S76.5
G1 X0.244 F2300
M05
G1 X0.149Y0.03
M03 P30 S76.5
G1 X-0.551
M05
G1 X-0.093Y0.03
M03 P30 S76.5
G1 X0.74
M05
G1 X0.077Y0.03
M03 P30 S76.5
G1 X-0.893
M05
G1 X-0.068Y0.03
M03 P30 S76.5
G1 X1.027
M05
G1 X0.055Y0.03
M03 P30 S76.5
G1 X-1.139
M05
G1 X-0.054Y0.03
M03 P30 S76.5
G1 X1.245
M05
G1 X0.044Y0.03
M03 P30 S76.5
G1 X-1.336
M05
G1 X-0.043Y0.03
M03 P30 S76.5
G1 X1.422
M05
G1 X0.036Y0.03
M03 P30 S76.5
G1 X-1.501
M05
G1 X-0.036Y0.03
M03 P30 S76.5
G1 X1.572
M05
G1 X0.03Y0.03
M03 P30 S76.5
G1 X-1.637
M05
G1 X-0.034Y0.03
M03 P30 S76.5
G1 X1.697
M05
G1 X0.026Y0.03
M03 P30 S76.5
G1 X-1.751
M05
G1 X-0.027Y0.03
M03 P30 S76.5
G1 X1.804
M05
G1 X0.025Y0.03
M03 P30 S76.5
G1 X-1.857
M05
G1 X-0.022Y0.03
M03 P30 S76.5
G1 X0.801
M05
G1 X0.309
M03 P30 S76.5
G1 X0.794
M05
G1 X0.021Y0.03
M03 P30 S76.5
G1 X-0.73
M05
G1 X-0.481
M03 P30 S76.5
G1 X-0.733
M05
G1 X-0.019Y0.03
M03 P30 S76.5
G1 X0.691
M05
G1 X0.606
M03 P30 S76.5
G1 X0.686
M05
G1 X0.02Y0.03
M03 P30 S76.5
G1 X-0.653
M05
G1 X-0.71
M03 P30 S76.5
G1 X-0.659
M05
G1 X-0.019Y0.03
M03 P30 S76.5
G1 X0.633
M05
G1 X0.799
M03 P30 S76.5
G1 X0.626
M05
G1 X0.017Y0.03
M03 P30 S76.5
G1 X-0.604
M05
G1 X-0.875
M03 P30 S76.5
G1 X-0.614
M05
G1 X-0.014Y0.03
M03 P30 S76.5
G1 X0.593
M05
G1 X0.946
M03 P30 S76.5
G1 X0.585
M05
G1 X0.015Y0.03
M03 P30 S76.5
G1 X-0.569
M05
G1 X-1.007
M03 P30 S76.5
G1 X-0.577
M05
G1 X-0.014Y0.03
M03 P30 S76.5
G1 X0.563
M05
G1 X1.061
M03 P30 S76.5
G1 X0.558
M05
G1 X0.014Y0.03
M03 P30 S76.5
G1 X-0.55
M05
G1 X-1.107
M03 P30 S76.5
G1 X-0.553
M05
G1 X-0.014Y0.03
M03 P30 S76.5
G1 X0.544
M05
G1 X1.152
M03 P30 S76.5
G1 X0.541
M05
G1 X0.012Y0.03
M03 P30 S76.5
G1 X-0.531
M05
G1 X-1.193
M03 P30 S76.5
G1 X-0.538
M05
G1 X-0.01Y0.03
M03 P30 S76.5
G1 X0.529
M05
G1 X1.232
M03 P30 S76.5
G1 X0.524
M05
G1 X0.01Y0.03
M03 P30 S76.5
G1 X-0.518
M05
G1 X-1.266
M03 P30 S76.5
G1 X-0.522
M05
G1 X-0.01Y0.03
M03 P30 S76.5
G1 X0.513
M05
G1 X1.3
M03 P30 S76.5
G1 X0.513
M05
G1 X0.01Y0.03
M03 P30 S76.5
G1 X-0.508
M05
G1 X-1.33
M03 P30 S76.5
G1 X-0.509
M05
G1 X-0.01Y0.03
M03 P30 S76.5
G1 X0.506
M05
G1 X1.359
M03 P30 S76.5
G1 X0.501
M05
G1 X0.01Y0.03
M03 P30 S76.5
G1 X-0.498
M05
G1 X-1.386
M03 P30 S76.5
G1 X-0.503
M05
G1 X-0.007Y0.03
M03 P30 S76.5
G1 X0.497
M05
G1 X1.41
M03 P30 S76.5
G1 X0.497
M05
G1 X0.009Y0.03
M03 P30 S76.5
G1 X-0.495
M05
G1 X-1.434
M03 P30 S76.5
G1 X-0.492
M05
G1 X-0.007Y0.03
M03 P30 S76.5
G1 X0.489
M05
G1 X1.455
M03 P30 S76.5
G1 X0.491
M05
G1 X0.007Y0.03
M03 P30 S76.5
G1 X-0.487
M05
G1 X-1.475
M03 P30 S76.5
G1 X-0.487
M05
G1 X-0.008Y0.03
M03 P30 S76.5
G1 X0.485
M05
G1 X1.495
M03 P30 S76.5
G1 X0.483
M05
G1 X0.007Y0.03
M03 P30 S76.5
G1 X-0.482
M05
G1 X-1.513
M03 P30 S76.5
G1 X-0.482
M05
G1 X-0.006Y0.03
M03 P30 S76.5
G1 X0.48
M05
G1 X1.529
M03 P30 S76.5
G1 X0.481
M05
G1 X0.006Y0.03
M03 P30 S76.5
G1 X-0.48
M05
G1 X0.008Y0.03
M03 P30 S76.5
G1 X0.479
M05
G1 Y0.03
M03 P30 S76.5
G1 X-0.472
M05
G1 X0.006Y0.03
M03 P30 S76.5
G1 X0.474
M05
G1 Y0.03
M03 P30 S76.5
G1 X-0.469
M05
G1 X0.005Y0.03
M03 P30 S76.5
G1 X0.473
M05
G1 Y0.03
M03 P30 S76.5
G1 X-0.468
M05
G1 X0.006Y0.03
M03 P30 S76.5
G1 X0.47
M05
G1 Y0.03
M03 P30 S76.5
G1 X-0.467
M05
G1 Y0.03
M03 P30 S76.5
G1 X0.474
M05
G1 Y0.03
M03 P30 S76.5
G1 X-0.468
M05
G1 Y0.03
M03 P30 S76.5
G1 X0.472
M05
G1 Y0.03
M03 P30 S76.5
G1 X-0.465
M05
G1 Y0.03
M03 P30 S76.5
G1 X0.47
M05
G1 Y0.03
M03 P30 S76.5
G1 X-0.467
M05
G1 Y0.03
M03 P30 S76.5
G1 X0.471
M05
G1 Y0.03
M03 P30 S76.5
G1 X-0.469
M05
G1 Y0.03
M03 P30 S76.5
G1 X0.471
M05
G1 Y0.03
M03 P30 S76.5
G1 X-0.469
M05
G1 Y0.03
M03 P30 S76.5
G1 X0.47
M05
G1 Y0.03
M03 P30 S76.5
G1 X-0.467
M05
G1 Y0.03
M03 P30 S76.5
G1 X0.468
M05
G1 Y0.03
M03 P30 S76.5
G1 X-0.466
M05
G1 Y0.03
M03 P30 S76.5
G1 X0.467
M05
G1 Y0.03
M03 P30 S76.5
G1 X-0.467
M05
G1 Y0.03
M03 P30 S76.5
G1 X0.465
M05
G1 Y0.03
M03 P30 S76.5
G1 X-0.466
M05
G1 Y0.03
M03 P30 S76.5
G1 X0.465
M05
G1 Y0.03
M03 P30 S76.5
G1 X-0.466
M05
G1 Y0.03
M03 P30 S76.5
G1 X0.465
M05
G1 Y0.03
M03 P30 S76.5
G1 X-0.468
M05
G1 Y0.03
M03 P30 S76.5
G1 X0.464
M05
G1 Y0.03
M03 P30 S76.5
G1 X-0.468
M05
G1 Y0.03
M03 P30 S76.5
G1 X0.464
M05
G1 Y0.03
M03 P30 S76.5
G1 X-0.468
M05
G1 Y0.03
M03 P30 S76.5
G1 X0.463
M05
G1 Y0.03
M03 P30 S76.5
G1 X-0.471
M05
G1 Y0.03
M03 P30 S76.5
G1 X0.467
M05
G1 Y0.03
M03 P30 S76.5
G1 X-0.475
M05
G1 Y0.03
M03 P30 S76.5
G1 X0.466
M05
G1 Y0.03
M03 P30 S76.5
G1 X-0.475
M05
G1 X-0.006Y0.03
M03 P30 S76.5
G1 X0.473
M05
G1 Y0.03
M03 P30 S76.5
G1 X-0.479
M05
G1 X-0.007Y0.03
M03 P30 S76.5
G1 X0.477
M05
G1 Y0.03
M03 P30 S76.5
G1 X-0.483
M05
G1 X-0.006Y0.03
M03 P30 S76.5
G1 X0.479
M05
G1 X-0.007Y0.03
M03 P30 S76.5
G1 X-0.481
M05
G1 X-1.532
M03 P30 S76.5
G1 X-0.48
M05
G1 X0.007Y0.03
M03 P30 S76.5
G1 X0.482
M05
G1 X1.514
M03 P30 S76.5
G1 X0.483
M05
G1 X-0.007Y0.03
M03 P30 S76.5
G1 X-0.486
M05
G1 X-1.496
M03 P30 S76.5
G1 X-0.484
M05
G1 X0.007Y0.03
M03 P30 S76.5
G1 X0.485
M05
G1 X1.479
M03 P30 S76.5
G1 X0.489
M05
G1 X-0.007Y0.03
M03 P30 S76.5
G1 X-0.491
M05
G1 X-1.46
M03 P30 S76.5
G1 X-0.488
M05
G1 X0.008Y0.03
M03 P30 S76.5
G1 X0.492
M05
G1 X1.436
M03 P30 S76.5
G1 X0.496
M05
G1 X-0.007Y0.03
M03 P30 S76.5
G1 X-0.502
M05
G1 X-1.412
M03 P30 S76.5
G1 X-0.494
M05
G1 X0.009Y0.03
M03 P30 S76.5
G1 X0.497
M05
G1 X1.387
M03 P30 S76.5
G1 X0.505
M05
G1 X-0.009Y0.03
M03 P30 S76.5
G1 X-0.509
M05
G1 X-1.362
M03 P30 S76.5
G1 X-0.499
M05
G1 X0.009Y0.03
M03 P30 S76.5
G1 X0.504
M05
G1 X1.335
M03 P30 S76.5
G1 X0.513
M05
G1 X-0.011Y0.03
M03 P30 S76.5
G1 X-0.517
M05
G1 X-1.303
M03 P30 S76.5
G1 X-0.512
M05
G1 X0.01Y0.03
M03 P30 S76.5
G1 X0.518
M05
G1 X1.27
M03 P30 S76.5
G1 X0.523
M05
G1 X-0.011Y0.03
M03 P30 S76.5
G1 X-0.53
M05
G1 X-1.236
M03 P30 S76.5
G1 X-0.521
M05
G1 X0.013Y0.03
M03 P30 S76.5
G1 X0.525
M05
G1 X1.199
M03 P30 S76.5
G1 X0.539
M05
G1 X-0.014Y0.03
M03 P30 S76.5
G1 X-0.545
M05
G1 X-1.155
M03 P30 S76.5
G1 X-0.536
M05
G1 X0.013Y0.03
M03 P30 S76.5
G1 X0.547
M05
G1 X1.106
M03 P30 S76.5
G1 X0.557
M05
G1 X-0.014Y0.03
M03 P30 S76.5
G1 X-0.57
M05
G1 X-1.056
M03 P30 S76.5
G1 X-0.557
M05
G1 X0.013Y0.03
M03 P30 S76.5
G1 X0.568
M05
G1 X1.005
M03 P30 S76.5
G1 X0.582
M05
G1 X-0.015Y0.03
M03 P30 S76.5
G1 X-0.593
M05
G1 X-0.944
M03 P30 S76.5
G1 X-0.587
M05
G1 X0.016Y0.03
M03 P30 S76.5
G1 X0.607
M05
G1 X0.873
M03 P30 S76.5
G1 X0.612
M05
G1 X-0.017Y0.03
M03 P30 S76.5
G1 X-0.634
M05
G1 X-0.799
M03 P30 S76.5
G1 X-0.625
M05
G1 X0.019Y0.03
M03 P30 S76.5
G1 X0.652
M05
G1 X0.712
M03 P30 S76.5
G1 X0.656
M05
G1 X-0.019Y0.03
M03 P30 S76.5
G1 X-0.694
M05
G1 X-0.6
M03 P30 S76.5
G1 X-0.689
M05
G1 X0.021Y0.03
M03 P30 S76.5
G1 X0.733
M05
G1 X0.476
M03 P30 S76.5
G1 X0.733
M05
G1 X-0.022Y0.03
M03 P30 S76.5
G1 X-0.799
M05
G1 X-0.301
M03 P30 S76.5
G1 X-0.796
M05
G1 X0.023Y0.03
M03 P30 S76.5
G1 X1.85
M05
G1 X-0.023Y0.03
M03 P30 S76.5
G1 X-1.804
M05
G1 X0.024Y0.03
M03 P30 S76.5
G1 X1.753
M05
G1 X-0.027Y0.03
M03 P30 S76.5
G1 X-1.7
M05
G1 X0.033Y0.03
M03 P30 S76.5
G1 X1.637
M05
G1 X-0.032Y0.03
M03 P30 S76.5
G1 X-1.572
M05
G1 X0.037Y0.03
M03 P30 S76.5
G1 X1.502
M05
G1 X-0.04Y0.03
M03 P30 S76.5
G1 X-1.422
M05
G1 X0.041Y0.03
M03 P30 S76.5
G1 X1.34
M05
G1 X-0.047Y0.03
M03 P30 S76.5
G1 X-1.244
M05
G1 X0.05Y0.03
M03 P30 S76.5
G1 X1.145
M05
G1 X-0.057Y0.03
M03 P30 S76.5
G1 X-1.028
M05
G1 X0.064Y0.03
M03 P30 S76.5
G1 X0.899
M05
G1 X-0.075Y0.03
M03 P30 S76.5
G1 X-0.748
M05
G1 X0.097Y0.03
M03 P30 S76.5
G1 X0.556
M05
G1 X-0.151Y0.03
M03 P30 S76.5
G1 X-0.261
M05
G1 X-1.121Y-2.58
M03 P30 S76.5
G1 X0.478
M05
G1 X-0.007Y0.03
M03 P30 S76.5
G1 X-0.477
M05
G1 Y0.03
M03 P30 S76.5
G1 X0.47
M05
G1 X-0.007Y0.03
M03 P30 S76.5
G1 X-0.473
M05
G1 Y0.03
M03 P30 S76.5
G1 X0.467
M05
G1 Y0.03
M03 P30 S76.5
G1 X-0.477
M05
G1 Y0.03
M03 P30 S76.5
G1 X0.468
M05
G1 Y0.03
M03 P30 S76.5
G1 X-0.474
M05
G1 Y0.03
M03 P30 S76.5
G1 X0.464
M05
G1 Y0.03
M03 P30 S76.5
G1 X-0.471
M05
G1 Y0.03
M03 P30 S76.5
G1 X0.464
M05
G1 Y0.03
M03 P30 S76.5
G1 X-0.471
M05
G1 Y0.03
M03 P30 S76.5
G1 X0.465
M05
G1 Y0.03
M03 P30 S76.5
G1 X-0.469
M05
G1 Y0.03
M03 P30 S76.5
G1 X0.464
M05
G1 Y0.03
M03 P30 S76.5
G1 X-0.468
M05
G1 Y0.03
M03 P30 S76.5
G1 X0.466
M05
G1 Y0.03
M03 P30 S76.5
G1 X-0.469
M05
G1 Y0.03
M03 P30 S76.5
G1 X0.467
M05
G1 Y0.03
M03 P30 S76.5
G1 X-0.469
M05
G1 Y0.03
M03 P30 S76.5
G1 X0.467
M05
G1 Y0.03
M03 P30 S76.5
G1 X-0.469
M05
G1 Y0.03
M03 P30 S76.5
G1 X0.467
M05
G1 Y0.03
M03 P30 S76.5
G1 X-0.468
M05
G1 Y0.03
M03 P30 S76.5
G1 X0.466
M05
G1 Y0.03
M03 P30 S76.5
G1 X-0.466
M05
G1 Y0.03
M03 P30 S76.5
G1 X0.467
M05
G1 Y0.03
M03 P30 S76.5
G1 X-0.465
M05
G1 Y0.03
M03 P30 S76.5
G1 X0.467
M05
G1 Y0.03
M03 P30 S76.5
G1 X-0.466
M05
G1 Y0.03
M03 P30 S76.5
G1 X0.469
M05
G1 Y0.03
M03 P30 S76.5
G1 X-0.467
M05
G1 Y0.03
M03 P30 S76.5
G1 X0.471
M05
G1 Y0.03
M03 P30 S76.5
G1 X-0.466
M05
G1 Y0.03
M03 P30 S76.5
G1 X0.47
M05
G1 Y0.03
M03 P30 S76.5
G1 X-0.465
M05
G1 Y0.03
M03 P30 S76.5
G1 X0.473
M05
G1 Y0.03
M03 P30 S76.5
G1 X-0.468
M05
G1 Y0.03
M03 P30 S76.5
G1 X0.475
M05
G1 Y0.03
M03 P30 S76.5
G1 X-0.467
M05
G1 Y0.03
M03 P30 S76.5
G1 X0.476
M05
G1 X0.006Y0.03
M03 P30 S76.5
G1 X-0.474
M05
G1 Y0.03
M03 P30 S76.5
G1 X0.48
M05
G1 X0.006Y0.03
M03 P30 S76.5
G1 X-0.477
M05
G1 Y0.03
M03 P30 S76.5
G1 X0.483
M05
G1 X0.007Y0.03
M03 P30 S76.5
G1 X-0.478
M05
G1 X2.558Y-0.906
M03 P30 S76.5
G1 Y0.449
M05
G1 X-0.03Y0.315
M03 P30 S76.5
G1 Y-1.073
M05
G1 X-0.03Y-0.174
M03 P30 S76.5
G1 Y1.425
M05
G1 X-0.03Y0.133
M03 P30 S76.5
G1 Y-1.692
M05
G1 X-0.03Y-0.095
M03 P30 S76.5
G1 Y1.893
M05
G1 X-0.03Y0.087
M03 P30 S76.5
G1 Y-2.073
M05
G1 X-0.03Y-0.077
M03 P30 S76.5
G1 Y2.226
M05
G1 X-0.03Y0.067
M03 P30 S76.5
G1 Y-2.36
M05
G1 X-0.03Y-0.061
M03 P30 S76.5
G1 Y2.48
M05
G1 X-0.03Y0.057
M03 P30 S76.5
G1 Y-2.591
M05
G1 X-0.03Y-0.051
M03 P30 S76.5
G1 Y2.689
M05
G1 X-0.03Y0.047
M03 P30 S76.5
G1 Y-2.78
M05
G1 X-0.03Y-0.043
M03 P30 S76.5
G1 Y2.864
M05
G1 X-0.03Y0.04
M03 P30 S76.5
G1 Y-2.939
M05
G1 X-0.03Y-0.035
M03 P30 S76.5
G1 Y3.009
M05
G1 X-0.03Y0.033
M03 P30 S76.5
G1 Y-3.077
M05
G1 X-0.03Y-0.035
M03 P30 S76.5
G1 Y1.202
M05
G1 Y0.754
M03 P30 S76.5
G1 Y1.187
M05
G1 X-0.03Y0.028
M03 P30 S76.5
G1 Y-1.023
M05
G1 Y-1.153
M03 P30 S76.5
G1 Y-1.025
M05
G1 X-0.03Y-0.026
M03 P30 S76.5
G1 Y0.921
M05
G1 Y1.414
M03 P30 S76.5
G1 Y0.92
M05
G1 X-0.03Y0.024
M03 P30 S76.5
G1 Y-0.847
M05
G1 X-0.03Y0.079
M03 P30 S76.5
G1 Y0.79
M05
G1 X-0.03Y0.022
M03 P30 S76.5
G1 Y-0.744
M05
G1 X-0.03Y0.062
M03 P30 S76.5
G1 Y0.701
M05
G1 X-0.03Y0.019
M03 P30 S76.5
G1 Y-0.667
M05
G1 X-0.03Y0.044
M03 P30 S76.5
G1 Y0.642
M05
G1 X-0.03Y0.016
M03 P30 S76.5
G1 Y-0.618
M05
G1 X-0.03Y0.033
M03 P30 S76.5
G1 Y0.601
M05
G1 X-0.03Y0.015
M03 P30 S76.5
G1 Y-0.582
M05
G1 X-0.03Y0.034
M03 P30 S76.5
G1 Y0.561
M05
G1 X-0.03Y0.013
M03 P30 S76.5
G1 Y-0.549
M05
G1 X-0.03Y0.023
M03 P30 S76.5
G1 Y0.539
M05
G1 X-0.03Y0.01
M03 P30 S76.5
G1 Y-0.527
M05
G1 X-0.03Y0.02
M03 P30 S76.5
G1 Y0.517
M05
G1 X-0.03Y0.01
M03 P30 S76.5
G1 Y-0.511
M05
G1 X-0.03Y0.016
M03 P30 S76.5
G1 Y0.503
M05
G1 X-0.03Y0.008
M03 P30 S76.5
G1 Y-0.495
M05
G1 X-0.03Y0.012
M03 P30 S76.5
G1 Y0.49
M05
G1 X-0.03Y0.006
M03 P30 S76.5
G1 Y-0.486
M05
G1 X-0.03Y0.01
M03 P30 S76.5
G1 Y0.481
M05
G1 X-0.03
M03 P30 S76.5
G1 Y-0.471
M05
G1 X-0.03Y0.006
M03 P30 S76.5
G1 Y0.474
M05
G1 X-0.03
M03 P30 S76.5
G1 Y-0.47
M05
G1 X-0.03
M03 P30 S76.5
G1 Y0.473
M05
G1 X-0.03
M03 P30 S76.5
G1 Y-0.466
M05
G1 X-0.03
M03 P30 S76.5
G1 Y0.467
M05
G1 X-0.03
M03 P30 S76.5
G1 Y-0.47
M05
G1 X-0.03
M03 P30 S76.5
G1 Y0.466
M05
G1 X-0.03
M03 P30 S76.5
G1 Y-0.475
M05
G1 X-0.03Y-0.005
M03 P30 S76.5
G1 Y0.474
M05
G1 X-0.03Y-0.006
M03 P30 S76.5
G1 Y-0.477
M05
G1 X-0.03Y-0.009
M03 P30 S76.5
G1 Y0.481
M05
G1 X-0.03Y-0.005
M03 P30 S76.5
G1 Y-0.487
M05
G1 X-0.03Y-0.013
M03 P30 S76.5
G1 Y0.492
M05
G1 X-0.03Y-0.009
M03 P30 S76.5
G1 Y-0.496
M05
G1 X-0.03Y-0.016
M03 P30 S76.5
G1 Y0.503
M05
G1 X-0.03Y-0.009
M03 P30 S76.5
G1 Y-0.51
M05
G1 X-0.03Y-0.019
M03 P30 S76.5
G1 Y0.518
M05
G1 X-0.03Y-0.011
M03 P30 S76.5
G1 Y-0.527
M05
G1 X-0.03Y-0.025
M03 P30 S76.5
G1 Y0.54
M05
G1 X-0.03Y-0.012
M03 P30 S76.5
G1 Y-0.553
M05
G1 X-0.03Y-0.026
M03 P30 S76.5
G1 Y0.564
M05
G1 X-0.03Y-0.015
M03 P30 S76.5
G1 Y-0.581
M05
G1 X-0.03Y-0.038
M03 P30 S76.5
G1 Y0.604
M05
G1 X-0.03Y-0.017
M03 P30 S76.5
G1 Y-0.625
M05
G1 X-0.03Y-0.043
M03 P30 S76.5
G1 Y0.65
M05
G1 X-0.03Y-0.018
M03 P30 S76.5
G1 Y-0.687
M05
G1 X-0.03Y-0.055
M03 P30 S76.5
G1 Y0.723
M05
G1 X-0.03Y-0.022
M03 P30 S76.5
G1 Y-0.774
M05
G1 X-0.03Y-0.078
M03 P30 S76.5
G1 Y0.829
M05
G1 X-0.03Y-0.023
M03 P30 S76.5
G1 Y-0.911
M05
G1 Y-1.408
M03 P30 S76.5
G1 Y-0.919
M05
G1 X-0.03Y0.026
M03 P30 S76.5
G1 Y1.025
M05
G1 Y1.144
M03 P30 S76.5
G1 Y1.017
M05
G1 X-0.03Y-0.027
M03 P30 S76.5
G1 Y-1.185
M05
G1 Y-0.735
M03 P30 S76.5
G1 Y-1.214
M05
G1 X-0.03Y0.027
M03 P30 S76.5
G1 Y3.08
M05
G1 X-0.03Y-0.037
M03 P30 S76.5
G1 Y-3.01
M05
G1 X-0.03Y0.033
M03 P30 S76.5
G1 Y2.939
M05
G1 X-0.03Y-0.039
M03 P30 S76.5
G1 Y-2.866
M05
G1 X-0.03Y0.048
M03 P30 S76.5
G1 Y2.779
M05
G1 X-0.03Y-0.046
M03 P30 S76.5
G1 Y-2.685
M05
G1 X-0.03Y0.048
M03 P30 S76.5
G1 Y2.589
M05
G1 X-0.03Y-0.056
M03 P30 S76.5
G1 Y-2.475
M05
G1 X-0.03Y0.065
M03 P30 S76.5
G1 Y2.347
M05
G1 X-0.03Y-0.07
M03 P30 S76.5
G1 Y-2.212
M05
G1 X-0.03Y0.084
M03 P30 S76.5
G1 Y2.058
M05
G1 X-0.03Y-0.093
M03 P30 S76.5
G1 Y-1.879
M05
G1 X-0.03Y0.112
M03 P30 S76.5
G1 Y1.669
M05
G1 X-0.03Y-0.132
M03 P30 S76.5
G1 Y-1.406
M05
G1 X-0.03Y0.183
M03 P30 S76.5
G1 Y1.054
M05
G1 X-0.03Y-0.296
M03 P30 S76.5
G1 Y-0.417
M05
G1 X2.04Y-1.485
M03 P30 S76.5
G1 Y0.844
M05
G1 X-0.03Y-0.082
M03 P30 S76.5
G1 Y-0.785
M05
G1 X-0.03Y-0.02
M03 P30 S76.5
G1 Y0.737
M05
G1 X-0.03Y-0.059
M03 P30 S76.5
G1 Y-0.699
M05
G1 X-0.03Y-0.018
M03 P30 S76.5
G1 Y0.661
M05
G1 X-0.03Y-0.041
M03 P30 S76.5
G1 Y-0.638
M05
G1 X-0.03Y-0.017
M03 P30 S76.5
G1 Y0.613
M05
G1 X-0.03Y-0.041
M03 P30 S76.5
G1 Y-0.587
M05
G1 X-0.03Y-0.014
M03 P30 S76.5
G1 Y0.572
M05
G1 X-0.03Y-0.029
M03 P30 S76.5
G1 Y-0.557
M05
G1 X-0.03Y-0.013
M03 P30 S76.5
G1 Y0.546
M05
G1 X-0.03Y-0.023
M03 P30 S76.5
G1 Y-0.534
M05
G1 X-0.03Y-0.01
M03 P30 S76.5
G1 Y0.524
M05
G1 X-0.03Y-0.019
M03 P30 S76.5
G1 Y-0.516
M05
G1 X-0.03Y-0.009
M03 P30 S76.5
G1 Y0.508
M05
G1 X-0.03Y-0.016
M03 P30 S76.5
G1 Y-0.5
M05
G1 X-0.03Y-0.008
M03 P30 S76.5
G1 Y0.495
M05
G1 X-0.03Y-0.013
M03 P30 S76.5
G1 Y-0.489
M05
G1 X-0.03
M03 P30 S76.5
G1 Y0.479
M05
G1 X-0.03Y-0.01
M03 P30 S76.5
G1 Y-0.479
M05
G1 X-0.03
M03 P30 S76.5
G1 Y0.471
M05
G1 X-0.03Y-0.006
M03 P30 S76.5
G1 Y-0.473
M05
G1 X-0.03
M03 P30 S76.5
G1 Y0.467
M05
G1 X-0.03
M03 P30 S76.5
G1 Y-0.47
M05
G1 X-0.03
M03 P30 S76.5
G1 Y0.465
M05
G1 X-0.03
M03 P30 S76.5
G1 Y-0.465
M05
G1 X-0.03
M03 P30 S76.5
G1 Y0.468
M05
G1 X-0.03
M03 P30 S76.5
G1 Y-0.463
M05
G1 X-0.03
M03 P30 S76.5
G1 Y0.472
M05
G1 X-0.03Y0.006
M03 P30 S76.5
G1 Y-0.472
M05
G1 X-0.03Y0.006
M03 P30 S76.5
G1 Y0.473
M05
G1 X-0.03Y0.011
M03 P30 S76.5
G1 Y-0.478
M05
G1 X-0.03Y0.006
M03 P30 S76.5
G1 Y0.483
M05
G1 X-0.03Y0.013
M03 P30 S76.5
G1 Y-0.49
M05
G1 X-0.03Y0.01
M03 P30 S76.5
G1 Y0.495
M05
G1 X-0.03Y0.015
M03 P30 S76.5
G1 Y-0.5
M05
G1 X-0.03Y0.009
M03 P30 S76.5
G1 Y0.51
M05
G1 X-0.03Y0.019
M03 P30 S76.5
G1 Y-0.519
M05
G1 X-0.03Y0.012
M03 P30 S76.5
G1 Y0.529
M05
G1 X-0.03Y0.024
M03 P30 S76.5
G1 Y-0.54
M05
G1 X-0.03Y0.013
M03 P30 S76.5
G1 Y0.553
M05
G1 X-0.03Y0.03
M03 P30 S76.5
G1 Y-0.57
M05
G1 X-0.03Y0.015
M03 P30 S76.5
G1 Y0.587
M05
G1 X-0.03Y0.037
M03 P30 S76.5
G1 Y-0.607
M05
G1 X-0.03Y0.017
M03 P30 S76.5
G1 Y0.632
M05
G1 X-0.03Y0.049
M03 P30 S76.5
G1 Y-0.664
M05
G1 X-0.03Y0.018
M03 P30 S76.5
G1 Y0.694
M05
G1 X-0.03Y0.063
M03 P30 S76.5
G1 Y-0.736
M05
G1 X-0.03Y0.021
M03 P30 S76.5
G1 Y0.781
M05
G1 X-0.03Y0.085
M03 P30 S76.5
G1 Y-0.845
M05
G0 X2.887 Y-0.261 F0
M03 P30 S76.5
G1 X2.286 F2300
M05
G1 X0.057Y0.03
M03 P30 S76.5
G1 X-2.406
M05
G1 X-0.035Y0.03
M03 P30 S76.5
G1 X2.473
M05
G1 X0.022Y0.03
M03 P30 S76.5
G1 X-2.515
M05
G1 X-0.015Y0.03
M03 P30 S76.5
G1 X2.545
M05
G1 X0.01Y0.03
M03 P30 S76.5
G1 X-2.565
M05
G1 X-0.006Y0.03
M03 P30 S76.5
G1 X2.576
M05
G1 Y0.03
M03 P30 S76.5
G1 X-2.58
M05
G1 Y0.03
M03 P30 S76.5
G1 X2.575
M05
G1 X-0.008Y0.03
M03 P30 S76.5
G1 X-2.567
M05
G1 Y0.03
M03 P30 S76.5
G1 X2.551
M05
G1 X-0.022Y0.03
M03 P30 S76.5
G1 X-2.529
M05
G1 Y0.03
M03 P30 S76.5
G1 X2.5
M05
G1 X-0.061Y0.03
M03 P30 S76.5
G1 X-2.439
M05
G1 Y0.03
M03 P30 S76.5
G1 X0.415
M05
G1 Y0.03
M03 P30 S76.5
G1 X-0.415
M05
G1 Y0.03
M03 P30 S76.5
G1 X0.415
M05
G1 Y0.03
M03 P30 S76.5
G1 X-0.415
M05
G1 Y0.03
M03 P30 S76.5
G1 X0.415
M05
G1 Y0.03
M03 P30 S76.5
G1 X-0.415
M05
G1 Y0.03
M03 P30 S76.5
G1 X0.415
M05
G1 Y0.03
M03 P30 S76.5
G1 X-0.415
M05
G1 Y0.03
M03 P30 S76.5
G1 X0.415
M05
G1 Y0.03
M03 P30 S76.5
G1 X-0.415
M05
G1 Y0.03
M03 P30 S76.5
G1 X0.415
M05
G1 Y0.03
M03 P30 S76.5
G1 X-0.415
M05
G1 Y0.03
M03 P30 S76.5
G1 X0.415
M05
G1 Y0.03
M03 P30 S76.5
G1 X-0.415
M05
G1 Y0.03
M03 P30 S76.5
G1 X0.415
M05
G1 Y0.03
M03 P30 S76.5
G1 X-0.415
M05
G1 Y0.03
M03 P30 S76.5
G1 X0.415
M05
G1 Y0.03
M03 P30 S76.5
G1 X-0.414
M05
G1 Y0.03
M03 P30 S76.5
G1 X0.414
M05
G1 Y0.03
M03 P30 S76.5
G1 X-0.414
M05
G1 Y0.03
M03 P30 S76.5
G1 X0.414
M05
G1 Y0.03
M03 P30 S76.5
G1 X-0.414
M05
G1 Y0.03
M03 P30 S76.5
G1 X0.414
M05
G1 Y0.03
M03 P30 S76.5
G1 X-0.414
M05
G1 Y0.03
M03 P30 S76.5
G1 X0.414
M05
G1 Y0.03
M03 P30 S76.5
G1 X-0.414
M05
G1 Y0.03
M03 P30 S76.5
G1 X0.414
M05
G1 Y0.03
M03 P30 S76.5
G1 X-0.414
M05
G1 Y0.03
M03 P30 S76.5
G1 X0.414
M05
G1 Y0.03
M03 P30 S76.5
G1 X-0.414
M05
G1 Y0.03
M03 P30 S76.5
G1 X0.414
M05
G1 Y0.03
M03 P30 S76.5
G1 X-0.414
M05
G1 Y0.03
M03 P30 S76.5
G1 X0.414
M05
G1 Y0.03
M03 P30 S76.5
G1 X-0.414
M05
G1 Y0.03
M03 P30 S76.5
G1 X0.414
M05
G1 Y0.03
M03 P30 S76.5
G1 X-0.414
M05
G1 Y0.03
M03 P30 S76.5
G1 X0.414
M05
G1 Y0.03
M03 P30 S76.5
G1 X-0.414
M05
G1 Y0.03
M03 P30 S76.5
G1 X0.414
M05
G1 Y0.03
M03 P30 S76.5
G1 X-0.414
M05
G1 Y0.03
M03 P30 S76.5
G1 X0.414
M05
G1 Y0.03
M03 P30 S76.5
G1 X-0.414
M05
G1 Y0.03
M03 P30 S76.5
G1 X0.414
M05
G1 Y0.03
M03 P30 S76.5
G1 X-0.414
M05
G1 Y0.03
M03 P30 S76.5
G1 X0.414
M05
G1 Y0.03
M03 P30 S76.5
G1 X-0.414
M05
G1 Y0.03
M03 P30 S76.5
G1 X0.414
M05
G1 Y0.03
M03 P30 S76.5
G1 X-0.414
M05
G1 Y0.03
M03 P30 S76.5
G1 X0.414
M05
G1 Y0.03
M03 P30 S76.5
G1 X-0.414
M05
G1 Y0.03
M03 P30 S76.5
G1 X0.414
M05
G1 Y0.03
M03 P30 S76.5
G1 X-0.414
M05
G1 Y0.03
M03 P30 S76.5
G1 X0.414
M05
G1 Y0.03
M03 P30 S76.5
G1 X-0.414
M05
G1 Y0.03
M03 P30 S76.5
G1 X0.414
M05
G1 Y0.03
M03 P30 S76.5
G1 X-0.414
M05
G1 Y0.03
M03 P30 S76.5
G1 X0.414
M05
G1 Y0.03
M03 P30 S76.5
G1 X-0.414
M05
G1 Y0.03
M03 P30 S76.5
G1 X0.414
M05
G1 Y0.03
M03 P30 S76.5
G1 X-0.414
M05
G1 Y0.03
M03 P30 S76.5
G1 X0.414
M05
G1 Y0.03
M03 P30 S76.5
G1 X-0.414
M05
G1 Y0.03
M03 P30 S76.5
G1 X0.414
M05
G1 Y0.03
M03 P30 S76.5
G1 X-0.414
M05
G1 Y0.03
M03 P30 S76.5
G1 X0.414
M05
G1 Y0.03
M03 P30 S76.5
G1 X-0.414
M05
G1 Y0.03
M03 P30 S76.5
G1 X0.414
M05
G1 Y0.03
M03 P30 S76.5
G1 X-0.414
M05
G1 Y0.03
M03 P30 S76.5
G1 X0.414
M05
G1 Y0.03
M03 P30 S76.5
G1 X-0.414
M05
G1 Y0.03
M03 P30 S76.5
G1 X0.414
M05
G1 Y0.03
M03 P30 S76.5
G1 X-0.414
M05
G1 Y0.03
M03 P30 S76.5
G1 X0.414
M05
G1 Y0.03
M03 P30 S76.5
G1 X-0.414
M05
G1 Y0.03
M03 P30 S76.5
G1 X0.414
M05
G1 Y0.03
M03 P30 S76.5
G1 X-0.414
M05
G1 Y0.03
M03 P30 S76.5
G1 X0.414
M05
G1 Y0.03
M03 P30 S76.5
G1 X-0.414
M05
G1 Y0.03
M03 P30 S76.5
G1 X0.414
M05
G1 Y0.03
M03 P30 S76.5
G1 X-0.414
M05
G1 Y0.03
M03 P30 S76.5
G1 X0.414
M05
G1 Y0.03
M03 P30 S76.5
G1 X-0.414
M05
G1 Y0.03
M03 P30 S76.5
G1 X0.414
M05
G1 Y0.03
M03 P30 S76.5
G1 X-0.414
M05
G1 Y0.03
M03 P30 S76.5
G1 X0.414
M05
G1 Y0.03
M03 P30 S76.5
G1 X-0.414
M05
G1 Y0.03
M03 P30 S76.5
G1 X0.414
M05
G1 Y0.03
M03 P30 S76.5
G1 X-0.414
M05
G1 Y0.03
M03 P30 S76.5
G1 X0.414
M05
G1 Y0.03
M03 P30 S76.5
G1 X-0.414
M05
G1 Y0.03
M03 P30 S76.5
G1 X0.414
M05
G1 Y0.03
M03 P30 S76.5
G1 X-0.414
M05
G1 Y0.03
M03 P30 S76.5
G1 X0.414
M05
G1 Y0.03
M03 P30 S76.5
G1 X-0.414
M05
G1 Y0.03
M03 P30 S76.5
G1 X0.414
M05
G1 Y0.03
M03 P30 S76.5
G1 X-0.414
M05
G1 Y0.03
M03 P30 S76.5
G1 X0.414
M05
G1 Y0.03
M03 P30 S76.5
G1 X-0.414
M05
G1 Y0.03
M03 P30 S76.5
G1 X0.414
M05
G1 Y0.03
M03 P30 S76.5
G1 X-0.414
M05
G1 Y0.03
M03 P30 S76.5
G1 X0.414
M05
G1 Y0.03
M03 P30 S76.5
G1 X-0.414
M05
G1 Y0.03
M03 P30 S76.5
G1 X0.414
M05
G1 Y0.03
M03 P30 S76.5
G1 X-0.414
M05
G1 Y0.03
M03 P30 S76.5
G1 X0.411
M05
G1 Y0.03
M03 P30 S76.5
G1 X-0.404
M05
G1 Y0.03
M03 P30 S76.5
G1 X0.398
M05
G1 X-0.009Y0.03
M03 P30 S76.5
G1 X-0.376
M05
G1 X0.012Y0.03
M03 P30 S76.5
G1 X0.352
M05
G1 X-0.016Y0.03
M03 P30 S76.5
G1 X-0.318
M05
G1 X0.027Y0.03
M03 P30 S76.5
G1 X0.264
M05
G1 X-0.053Y0.03
M03 P30 S76.5
G1 X-0.157
M05
G1 X2.435Y-3.627
M03 P30 S76.5
G1 Y0.147
M05
G1 X-0.03Y0.053
M03 P30 S76.5
G1 Y-0.254
M05
G1 X-0.03Y-0.029
M03 P30 S76.5
G1 Y0.313
M05
G1 X-0.03Y0.019
M03 P30 S76.5
G1 Y-0.353
M05
G1 X-0.03Y-0.015
M03 P30 S76.5
G1 Y0.383
M05
G1 X-0.03Y0.007
M03 P30 S76.5
G1 Y-0.4
M05
G1 X-0.03Y-0.006
M03 P30 S76.5
G1 Y0.411
M05
G1 X-0.03
M03 P30 S76.5
G1 Y-0.412
M05
G1 X-0.03
M03 P30 S76.5
G1 Y0.413
M05
G1 X-0.03
M03 P30 S76.5
G1 Y-0.413
M05
G1 X-0.03
M03 P30 S76.5
G1 Y0.413
M05
G1 X-0.03
M03 P30 S76.5
G1 Y-0.413
M05
G1 X-0.03
M03 P30 S76.5
G1 Y0.413
M05
G1 X-0.03
M03 P30 S76.5
G1 Y-0.413
M05
G1 X-0.03
M03 P30 S76.5
G1 Y0.413
M05
G1 X-0.03
M03 P30 S76.5
G1 Y-0.413
M05
G1 X-0.03
M03 P30 S76.5
G1 Y0.413
M05
G1 X-0.03
M03 P30 S76.5
G1 Y-0.413
M05
G1 X-0.03
M03 P30 S76.5
G1 Y0.413
M05
G1 X-0.03
M03 P30 S76.5
G1 Y-0.413
M05
G1 X-0.03
M03 P30 S76.5
G1 Y0.413
M05
G1 X-0.03
M03 P30 S76.5
G1 Y-0.413
M05
G1 X-0.03
M03 P30 S76.5
G1 Y0.413
M05
G1 X-0.03
M03 P30 S76.5
G1 Y-0.413
M05
G1 X-0.03
M03 P30 S76.5
G1 Y0.413
M05
G1 X-0.03
M03 P30 S76.5
G1 Y-0.413
M05
G1 X-0.03
M03 P30 S76.5
G1 Y0.413
M05
G1 X-0.03
M03 P30 S76.5
G1 Y-0.413
M05
G1 X-0.03
M03 P30 S76.5
G1 Y0.413
M05
G1 X-0.03
M03 P30 S76.5
G1 Y-0.413
M05
G1 X-0.03
M03 P30 S76.5
G1 Y0.413
M05
G1 X-0.03
M03 P30 S76.5
G1 Y-0.413
M05
G1 X-0.03
M03 P30 S76.5
G1 Y0.413
M05
G1 X-0.03
M03 P30 S76.5
G1 Y-0.413
M05
G1 X-0.03
M03 P30 S76.5
G1 Y0.413
M05
G1 X-0.03
M03 P30 S76.5
G1 Y-0.413
M05
G1 X-0.03
M03 P30 S76.5
G1 Y0.413
M05
G1 X-0.03
M03 P30 S76.5
G1 Y-0.413
M05
G1 X-0.03
M03 P30 S76.5
G1 Y0.413
M05
G1 X-0.03
M03 P30 S76.5
G1 Y-0.413
M05
G1 X-0.03
M03 P30 S76.5
G1 Y0.413
M05
G1 X-0.03
M03 P30 S76.5
G1 Y-0.413
M05
G1 X-0.03
M03 P30 S76.5
G1 Y0.413
M05
G1 X-0.03
M03 P30 S76.5
G1 Y-0.413
M05
G1 X-0.03
M03 P30 S76.5
G1 Y0.413
M05
G1 X-0.03
M03 P30 S76.5
G1 Y-0.413
M05
G1 X-0.03
M03 P30 S76.5
G1 Y0.413
M05
G1 X-0.03
M03 P30 S76.5
G1 Y-0.413
M05
G1 X-0.03
M03 P30 S76.5
G1 Y0.413
M05
G1 X-0.03
M03 P30 S76.5
G1 Y-0.413
M05
G1 X-0.03
M03 P30 S76.5
G1 Y0.413
M05
G1 X-0.03
M03 P30 S76.5
G1 Y-0.413
M05
G1 X-0.03
M03 P30 S76.5
G1 Y0.413
M05
G1 X-0.03
M03 P30 S76.5
G1 Y-0.413
M05
G1 X-0.03
M03 P30 S76.5
G1 Y0.413
M05
G1 X-0.03
M03 P30 S76.5
G1 Y-0.413
M05
G1 X-0.03
M03 P30 S76.5
G1 Y0.413
M05
G1 X-0.03
M03 P30 S76.5
G1 Y-0.413
M05
G1 X-0.03
M03 P30 S76.5
G1 Y0.413
M05
G1 X-0.03
M03 P30 S76.5
G1 Y-0.413
M05
G1 X-0.03
M03 P30 S76.5
G1 Y0.413
M05
G1 X-0.03
M03 P30 S76.5
G1 Y-0.413
M05
G1 X-0.03
M03 P30 S76.5
G1 Y0.413
M05
G1 X-0.03
M03 P30 S76.5
G1 Y-0.413
M05
G1 X-0.03
M03 P30 S76.5
G1 Y0.413
M05
G1 X-0.03
M03 P30 S76.5
G1 Y-0.413
M05
G1 X-0.03
M03 P30 S76.5
G1 Y0.413
M05
G1 X-0.03
M03 P30 S76.5
G1 Y-0.413
M05
G1 X-0.03
M03 P30 S76.5
G1 Y0.413
M05
G1 X-0.03
M03 P30 S76.5
G1 Y-0.413
M05
G1 X-0.03
M03 P30 S76.5
G1 Y0.413
M05
G1 X-0.03
M03 P30 S76.5
G1 Y-0.413
M05
G1 X-0.03
M03 P30 S76.5
G1 Y3.601
M05
G1 X-0.03Y0.088
M03 P30 S76.5
G1 Y-3.689
M05
G1 X-0.03
M03 P30 S76.5
G1 Y3.728
M05
G1 X-0.03Y0.022
M03 P30 S76.5
G1 Y-3.75
M05
G1 X-0.03
M03 P30 S76.5
G1 Y3.764
M05
G1 X-0.03Y0.008
M03 P30 S76.5
G1 Y-3.772
M05
G1 X-0.03
M03 P30 S76.5
G1 Y3.775
M05
G1 X-0.03
M03 P30 S76.5
G1 Y-3.771
M05
G1 X-0.03Y0.006
M03 P30 S76.5
G1 Y3.763
M05
G1 X-0.03Y-0.008
M03 P30 S76.5
G1 Y-3.746
M05
G1 X-0.03Y0.013
M03 P30 S76.5
G1 Y3.72
M05
G1 X-0.03Y-0.021
M03 P30 S76.5
G1 Y-3.677
M05
G1 X-0.03Y0.031
M03 P30 S76.5
G1 Y3.613
M05
G1 X-0.03Y-0.068
M03 P30 S76.5
G1 Y-3.488
M05
G0 X3.293 Y-0.129 F0
M03 P30 S76.5
G1 X1.147 F2300
M05
G1 X0.161Y0.03
M03 P30 S76.5
G1 X-1.375
M05
G1 X-0.035Y0.03
M03 P30 S76.5
G1 X1.508
M05
G1 X0.076Y0.03
M03 P30 S76.5
G1 X-1.602
M05
G1 X-0.014Y0.03
M03 P30 S76.5
G1 X1.68
M05
G1 X0.056Y0.03
M03 P30 S76.5
G1 X-1.745
M05
G1 X-0.007Y0.03
M03 P30 S76.5
G1 X1.802
M05
G1 X0.044Y0.03
M03 P30 S76.5
G1 X-1.849
M05
G1 Y0.03
M03 P30 S76.5
G1 X1.89
M05
G1 X0.036Y0.03
M03 P30 S76.5
G1 X-1.928
M05
G1 Y0.03
M03 P30 S76.5
G1 X1.963
M05
G1 X0.032Y0.03
M03 P30 S76.5
G1 X-1.996
M05
G1 Y0.03
M03 P30 S76.5
G1 X2.026
M05
G1 X0.029Y0.03
M03 P30 S76.5
G1 X-2.055
M05
G1 Y0.03
M03 P30 S76.5
G1 X2.081
M05
G1 X0.027Y0.03
M03 P30 S76.5
G1 X-2.108
M05
G1 Y0.03
M03 P30 S76.5
G1 X0.466
M05
G1 X0.894
M03 P30 S76.5
G1 X0.77
M05
G1 X0.021Y0.03
M03 P30 S76.5
G1 X-0.695
M05
G1 X-0.99
M03 P30 S76.5
G1 X-0.466
M05
G1 Y0.03
M03 P30 S76.5
G1 X0.466
M05
G1 X1.051
M03 P30 S76.5
G1 X0.656
M05
G1 X0.022Y0.03
M03 P30 S76.5
G1 X-0.632
M05
G1 X-1.097
M03 P30 S76.5
G1 X-0.466
M05
G1 Y0.03
M03 P30 S76.5
G1 X0.466
M05
G1 X1.137
M03 P30 S76.5
G1 X0.614
M05
G1 X0.018Y0.03
M03 P30 S76.5
G1 X-0.595
M05
G1 X-1.174
M03 P30 S76.5
G1 X-0.466
M05
G1 Y0.03
M03 P30 S76.5
G1 X0.466
M05
G1 X1.206
M03 P30 S76.5
G1 X0.581
M05
G1 X0.018Y0.03
M03 P30 S76.5
G1 X-0.568
M05
G1 X-1.237
M03 P30 S76.5
G1 X-0.466
M05
G1 Y0.03
M03 P30 S76.5
G1 X0.466
M05
G1 X1.266
M03 P30 S76.5
G1 X0.557
M05
G1 X0.017Y0.03
M03 P30 S76.5
G1 X-0.547
M05
G1 X-1.293
M03 P30 S76.5
G1 X-0.466
M05
G1 Y0.03
M03 P30 S76.5
G1 X0.466
M05
G1 X1.319
M03 P30 S76.5
G1 X0.538
M05
G1 X0.015Y0.03
M03 P30 S76.5
G1 X-0.53
M05
G1 X-1.342
M03 P30 S76.5
G1 X-0.466
M05
G1 Y0.03
M03 P30 S76.5
G1 X0.466
M05
G1 X1.364
M03 P30 S76.5
G1 X0.524
M05
G1 X0.015Y0.03
M03 P30 S76.5
G1 X-0.517
M05
G1 X-1.386
M03 P30 S76.5
G1 X-0.466
M05
G1 Y0.03
M03 P30 S76.5
G1 X0.466
M05
G1 X1.405
M03 P30 S76.5
G1 X0.513
M05
G1 X0.013Y0.03
M03 P30 S76.5
G1 X-0.507
M05
G1 X-1.424
M03 P30 S76.5
G1 X-0.466
M05
G1 Y0.03
M03 P30 S76.5
G1 X0.466
M05
G1 X1.442
M03 P30 S76.5
G1 X0.501
M05
G1 X0.013Y0.03
M03 P30 S76.5
G1 X-0.498
M05
G1 X-1.458
M03 P30 S76.5
G1 X-0.466
M05
G1 Y0.03
M03 P30 S76.5
G1 X0.466
M05
G1 X1.474
M03 P30 S76.5
G1 X0.494
M05
G1 X0.011Y0.03
M03 P30 S76.5
G1 X-0.49
M05
G1 X-1.489
M03 P30 S76.5
G1 X-0.466
M05
G1 Y0.03
M03 P30 S76.5
G1 X0.466
M05
G1 X1.503
M03 P30 S76.5
G1 X0.486
M05
G1 X0.011Y0.03
M03 P30 S76.5
G1 X-0.484
M05
G1 X-1.516
M03 P30 S76.5
G1 X-0.466
M05
G1 Y0.03
M03 P30 S76.5
G1 X0.466
M05
G1 X1.528
M03 P30 S76.5
G1 X0.482
M05
G1 X0.01Y0.03
M03 P30 S76.5
G1 X-0.48
M05
G1 X0.011Y0.03
M03 P30 S76.5
G1 X0.476
M05
G1 X0.008Y0.03
M03 P30 S76.5
G1 X-0.473
M05
G1 X0.01Y0.03
M03 P30 S76.5
G1 X0.47
M05
G1 X0.007Y0.03
M03 P30 S76.5
G1 X-0.468
M05
G1 X0.008Y0.03
M03 P30 S76.5
G1 X0.467
M05
G1 X0.005Y0.03
M03 P30 S76.5
G1 X-0.464
M05
G1 X0.007Y0.03
M03 P30 S76.5
G1 X0.462
M05
G1 Y0.03
M03 P30 S76.5
G1 X-0.455
M05
G1 X0.007Y0.03
M03 P30 S76.5
G1 X0.458
M05
G1 Y0.03
M03 P30 S76.5
G1 X-0.451
M05
G1 Y0.03
M03 P30 S76.5
G1 X0.458
M05
G1 Y0.03
M03 P30 S76.5
G1 X-0.453
M05
G1 Y0.03
M03 P30 S76.5
G1 X0.459
M05
G1 Y0.03
M03 P30 S76.5
G1 X-0.454
M05
G1 Y0.03
M03 P30 S76.5
G1 X0.459
M05
G1 Y0.03
M03 P30 S76.5
G1 X-0.459
M05
G1 Y0.03
M03 P30 S76.5
G1 X0.461
M05
G1 Y0.03
M03 P30 S76.5
G1 X-0.461
M05
G1 Y0.03
M03 P30 S76.5
G1 X0.462
M05
G1 Y0.03
M03 P30 S76.5
G1 X-0.461
M05
G1 Y0.03
M03 P30 S76.5
G1 X0.463
M05
G1 Y0.03
M03 P30 S76.5
G1 X-0.464
M05
G1 Y0.03
M03 P30 S76.5
G1 X0.466
M05
G1 Y0.03
M03 P30 S76.5
G1 X-0.466
M05
G1 Y0.03
M03 P30 S76.5
G1 X0.467
M05
G1 Y0.03
M03 P30 S76.5
G1 X-0.468
M05
G1 Y0.03
M03 P30 S76.5
G1 X0.466
M05
G1 Y0.03
M03 P30 S76.5
G1 X-0.466
M05
G1 Y0.03
M03 P30 S76.5
G1 X0.464
M05
G1 Y0.03
M03 P30 S76.5
G1 X-0.465
M05
G1 Y0.03
M03 P30 S76.5
G1 X0.463
M05
G1 Y0.03
M03 P30 S76.5
G1 X-0.463
M05
G1 Y0.03
M03 P30 S76.5
G1 X0.458
M05
G1 Y0.03
M03 P30 S76.5
G1 X-0.459
M05
G1 Y0.03
M03 P30 S76.5
G1 X0.453
M05
G1 Y0.03
M03 P30 S76.5
G1 X-0.456
M05
G1 Y0.03
M03 P30 S76.5
G1 X0.451
M05
G1 Y0.03
M03 P30 S76.5
G1 X-0.457
M05
G1 Y0.03
M03 P30 S76.5
G1 X0.448
M05
G1 X-0.005Y0.03
M03 P30 S76.5
G1 X-0.453
M05
G1 X-0.006Y0.03
M03 P30 S76.5
G1 X0.454
M05
G1 X-0.006Y0.03
M03 P30 S76.5
G1 X-0.457
M05
G1 X-0.008Y0.03
M03 P30 S76.5
G1 X0.46
M05
G1 Y0.03
M03 P30 S76.5
G1 X-0.469
M05
G1 X-0.011Y0.03
M03 P30 S76.5
G1 X0.468
M05
G1 X-0.008Y0.03
M03 P30 S76.5
G1 X-0.472
M05
G1 X-0.011Y0.03
M03 P30 S76.5
G1 X0.475
M05
G1 X-0.009Y0.03
M03 P30 S76.5
G1 X-0.479
M05
G1 X-1.999Y0.03
M03 P30 S76.5
G1 X0.465
M05
G1 X1.52
M03 P30 S76.5
G1 X0.485
M05
G1 X-0.008Y0.03
M03 P30 S76.5
G1 X-0.49
M05
G1 X-1.507
M03 P30 S76.5
G1 X-0.465
M05
G1 Y0.03
M03 P30 S76.5
G1 X0.465
M05
G1 X1.492
M03 P30 S76.5
G1 X0.496
M05
G1 X-0.011Y0.03
M03 P30 S76.5
G1 X-0.501
M05
G1 X-1.476
M03 P30 S76.5
G1 X-0.465
M05
G1 Y0.03
M03 P30 S76.5
G1 X0.465
M05
G1 X1.46
M03 P30 S76.5
G1 X0.505
M05
G1 X-0.012Y0.03
M03 P30 S76.5
G1 X-0.51
M05
G1 X-1.443
M03 P30 S76.5
G1 X-0.465
M05
G1 Y0.03
M03 P30 S76.5
G1 X0.465
M05
G1 X1.424
M03 P30 S76.5
G1 X0.517
M05
G1 X-0.012Y0.03
M03 P30 S76.5
G1 X-0.524
M05
G1 X-1.405
M03 P30 S76.5
G1 X-0.465
M05
G1 Y0.03
M03 P30 S76.5
G1 X0.465
M05
G1 X1.385
M03 P30 S76.5
G1 X0.532
M05
G1 X-0.015Y0.03
M03 P30 S76.5
G1 X-0.539
M05
G1 X-1.363
M03 P30 S76.5
G1 X-0.465
M05
G1 Y0.03
M03 P30 S76.5
G1 X0.465
M05
G1 X1.341
M03 P30 S76.5
G1 X0.544
M05
G1 X-0.016Y0.03
M03 P30 S76.5
G1 X-0.552
M05
G1 X-1.317
M03 P30 S76.5
G1 X-0.465
M05
G1 Y0.03
M03 P30 S76.5
G1 X0.465
M05
G1 X1.29
M03 P30 S76.5
G1 X0.563
M05
G1 X-0.017Y0.03
M03 P30 S76.5
G1 X-0.572
M05
G1 X-1.264
M03 P30 S76.5
G1 X-0.465
M05
G1 Y0.03
M03 P30 S76.5
G1 X0.465
M05
G1 X1.233
M03 P30 S76.5
G1 X0.587
M05
G1 X-0.019Y0.03
M03 P30 S76.5
G1 X-0.599
M05
G1 X-1.202
M03 P30 S76.5
G1 X-0.465
M05
G1 Y0.03
M03 P30 S76.5
G1 X0.465
M05
G1 X1.168
M03 P30 S76.5
G1 X0.613
M05
G1 X-0.02Y0.03
M03 P30 S76.5
G1 X-0.632
M05
G1 X-1.129
M03 P30 S76.5
G1 X-0.465
M05
G1 Y0.03
M03 P30 S76.5
G1 X0.465
M05
G1 X1.089
M03 P30 S76.5
G1 X0.65
M05
G1 X-0.022Y0.03
M03 P30 S76.5
G1 X-0.681
M05
G1 X-1.036
M03 P30 S76.5
G1 X-0.465
M05
G1 Y0.03
M03 P30 S76.5
G1 X0.465
M05
G1 X0.978
M03 P30 S76.5
G1 X0.715
M05
G1 X-0.027Y0.03
M03 P30 S76.5
G1 X-0.764
M05
G1 X-0.902
M03 P30 S76.5
G1 X-0.465
M05
G1 Y0.03
M03 P30 S76.5
G1 X2.105
M05
G1 X-0.027Y0.03
M03 P30 S76.5
G1 X-2.078
M05
G1 Y0.03
M03 P30 S76.5
G1 X2.051
M05
G1 X-0.028Y0.03
M03 P30 S76.5
G1 X-2.023
M05
G1 Y0.03
M03 P30 S76.5
G1 X1.99
M05
G1 X-0.032Y0.03
M03 P30 S76.5
G1 X-1.958
M05
G1 Y0.03
M03 P30 S76.5
G1 X1.923
M05
G1 X-0.04Y0.03
M03 P30 S76.5
G1 X-1.883
M05
G1 Y0.03
M03 P30 S76.5
G1 X1.843
M05
G1 X-0.046Y0.03
M03 P30 S76.5
G1 X-1.791
M05
G1 X0.008Y0.03
M03 P30 S76.5
G1 X1.733
M05
G1 X-0.056Y0.03
M03 P30 S76.5
G1 X-1.665
M05
G1 X0.017Y0.03
M03 P30 S76.5
G1 X1.582
M05
G1 X-0.08Y0.03
M03 P30 S76.5
G1 X-1.478
M05
G1 X0.039Y0.03
M03 P30 S76.5
G1 X1.341
M05
G1 X-0.159Y0.03
M03 P30 S76.5
G1 X-1.113
M05
G1 X-0.176Y-2.58
M03 P30 S76.5
G1 X0.466
M05
G1 Y0.03
M03 P30 S76.5
G1 X-0.466
M05
G1 Y0.03
M03 P30 S76.5
G1 X0.466
M05
G1 Y0.03
M03 P30 S76.5
G1 X-0.466
M05
G1 Y0.03
M03 P30 S76.5
G1 X0.466
M05
G1 Y0.03
M03 P30 S76.5
G1 X-0.466
M05
G1 Y0.03
M03 P30 S76.5
G1 X0.466
M05
G1 Y0.03
M03 P30 S76.5
G1 X-0.466
M05
G1 Y0.03
M03 P30 S76.5
G1 X0.466
M05
G1 Y0.03
M03 P30 S76.5
G1 X-0.466
M05
G1 Y0.03
M03 P30 S76.5
G1 X0.466
M05
G1 Y0.03
M03 P30 S76.5
G1 X-0.466
M05
G1 Y0.03
M03 P30 S76.5
G1 X0.466
M05
G1 Y0.03
M03 P30 S76.5
G1 X-0.466
M05
G1 Y0.03
M03 P30 S76.5
G1 X0.466
M05
G1 Y0.03
M03 P30 S76.5
G1 X-0.466
M05
G1 Y0.03
M03 P30 S76.5
G1 X0.466
M05
G1 Y0.03
M03 P30 S76.5
G1 X-0.466
M05
G1 Y0.03
M03 P30 S76.5
G1 X0.466
M05
G1 Y0.03
M03 P30 S76.5
G1 X-0.466
M05
G1 Y0.03
M03 P30 S76.5
G1 X0.466
M05
G1 Y0.03
M03 P30 S76.5
G1 X-0.466
M05
G1 Y0.03
M03 P30 S76.5
G1 X0.466
M05
G1 Y0.03
M03 P30 S76.5
G1 X-0.466
M05
G1 Y0.03
M03 P30 S76.5
G1 X0.466
M05
G1 Y0.03
M03 P30 S76.5
G1 X-0.466
M05
G1 Y0.03
M03 P30 S76.5
G1 X0.466
M05
G1 Y0.03
M03 P30 S76.5
G1 X-0.466
M05
G1 Y0.03
M03 P30 S76.5
G1 X0.466
M05
G1 Y0.03
M03 P30 S76.5
G1 X-0.466
M05
G1 Y0.03
M03 P30 S76.5
G1 X0.466
M05
G1 Y0.03
M03 P30 S76.5
G1 X-0.466
M05
G1 Y0.03
M03 P30 S76.5
G1 X0.466
M05
G1 Y0.03
M03 P30 S76.5
G1 X-0.466
M05
G1 Y0.03
M03 P30 S76.5
G1 X0.466
M05
G1 Y0.03
M03 P30 S76.5
G1 X-0.466
M05
G1 Y0.03
M03 P30 S76.5
G1 X0.466
M05
G1 Y0.03
M03 P30 S76.5
G1 X-0.466
M05
G1 Y0.03
M03 P30 S76.5
G1 X0.466
M05
G1 Y0.03
M03 P30 S76.5
G1 X-0.466
M05
G1 Y0.03
M03 P30 S76.5
G1 X0.466
M05
G1 Y0.03
M03 P30 S76.5
G1 X-0.466
M05
G1 Y0.03
M03 P30 S76.5
G1 X0.466
M05
G1 Y0.03
M03 P30 S76.5
G1 X-0.466
M05
G1 Y0.03
M03 P30 S76.5
G1 X0.466
M05
G1 Y0.03
M03 P30 S76.5
G1 X-0.466
M05
G1 Y0.03
M03 P30 S76.5
G1 X0.466
M05
G1 Y0.03
M03 P30 S76.5
G1 X-0.466
M05
G1 Y0.03
M03 P30 S76.5
G1 X0.466
M05
G1 X2.093Y-1.009
M03 P30 S76.5
G1 Y0.536
M05
G1 X-0.03Y0.249
M03 P30 S76.5
G1 Y-1.024
M05
G1 X-0.03Y-0.138
M03 P30 S76.5
G1 Y1.314
M05
G1 X-0.03Y0.11
M03 P30 S76.5
G1 Y-1.528
M05
G1 X-0.03Y-0.088
M03 P30 S76.5
G1 Y1.707
M05
G1 X-0.03Y0.076
M03 P30 S76.5
G1 Y-1.855
M05
G1 X-0.03Y-0.071
M03 P30 S76.5
G1 Y2
M05
G1 X-0.03Y0.055
M03 P30 S76.5
G1 Y-2.113
M05
G1 X-0.03Y-0.059
M03 P30 S76.5
G1 Y2.228
M05
G1 X-0.03Y0.055
M03 P30 S76.5
G1 Y-2.334
M05
G1 X-0.03Y-0.051
M03 P30 S76.5
G1 Y2.432
M05
G1 X-0.03Y0.046
M03 P30 S76.5
G1 Y-2.528
M05
G1 X-0.03Y-0.045
M03 P30 S76.5
G1 Y2.613
M05
G1 X-0.03Y0.041
M03 P30 S76.5
G1 Y-2.695
M05
G1 X-0.03Y-0.041
M03 P30 S76.5
G1 Y2.769
M05
G1 X-0.03Y0.034
M03 P30 S76.5
G1 Y-2.844
M05
G1 X-0.03Y-0.035
M03 P30 S76.5
G1 Y1.002
M05
G1 Y0.95
M03 P30 S76.5
G1 Y0.961
M05
G1 X-0.03Y0.034
M03 P30 S76.5
G1 Y-0.88
M05
G1 Y-1.185
M03 P30 S76.5
G1 Y-0.915
M05
G1 X-0.03Y-0.031
M03 P30 S76.5
G1 Y0.853
M05
G1 Y1.358
M03 P30 S76.5
G1 Y0.831
M05
G1 X-0.03Y0.027
M03 P30 S76.5
G1 Y-0.788
M05
G1 Y-1.506
M03 P30 S76.5
G1 Y-0.805
M05
G1 X-0.03Y2.375
M03 P30 S76.5
G1 Y0.752
M05
G1 X-0.03Y0.027
M03 P30 S76.5
G1 Y-0.722
M05
G1 X-0.03Y0.051
M03 P30 S76.5
G1 Y0.693
M05
G1 X-0.03Y0.023
M03 P30 S76.5
G1 Y-0.668
M05
G1 X-0.03Y0.043
M03 P30 S76.5
G1 Y0.647
M05
G1 X-0.03Y0.019
M03 P30 S76.5
G1 Y-0.626
M05
G1 X-0.03Y0.037
M03 P30 S76.5
G1 Y0.607
M05
G1 X-0.03Y0.018
M03 P30 S76.5
G1 Y-0.591
M05
G1 X-0.03Y0.033
M03 P30 S76.5
G1 Y0.577
M05
G1 X-0.03Y0.013
M03 P30 S76.5
G1 Y-0.561
M05
G1 X-0.03Y0.029
M03 P30 S76.5
G1 Y0.546
M05
G1 X-0.03Y0.014
M03 P30 S76.5
G1 Y-0.535
M05
G1 X-0.03Y0.023
M03 P30 S76.5
G1 Y0.525
M05
G1 X-0.03Y0.01
M03 P30 S76.5
G1 Y-0.512
M05
G1 X-0.03Y0.019
M03 P30 S76.5
G1 Y0.503
M05
G1 X-0.03Y0.011
M03 P30 S76.5
G1 Y-0.497
M05
G1 X-0.03Y0.018
M03 P30 S76.5
G1 Y0.489
M05
G1 X-0.03Y0.007
M03 P30 S76.5
G1 Y-0.482
M05
G1 X-0.03Y0.013
M03 P30 S76.5
G1 Y0.476
M05
G1 X-0.03Y0.006
M03 P30 S76.5
G1 Y-0.469
M05
G1 X-0.03Y0.008
M03 P30 S76.5
G1 Y0.468
M05
G1 X-0.03Y0.005
M03 P30 S76.5
G1 Y-0.466
M05
G1 X-0.03Y0.007
M03 P30 S76.5
G1 Y0.463
M05
G1 X-0.03
M03 P30 S76.5
G1 Y-0.459
M05
G1 X-0.03
M03 P30 S76.5
G1 Y0.466
M05
G1 X-0.03
M03 P30 S76.5
G1 Y-0.461
M05
G1 X-0.03
M03 P30 S76.5
G1 Y0.465
M05
G1 X-0.03
M03 P30 S76.5
G1 Y-0.464
M05
G1 X-0.03
M03 P30 S76.5
G1 Y0.466
M05
G1 X-0.03
M03 P30 S76.5
G1 Y-0.466
M05
G1 X-0.03
M03 P30 S76.5
G1 Y0.468
M05
G1 X-0.03
M03 P30 S76.5
G1 Y-0.468
M05
G1 X-0.03
M03 P30 S76.5
G1 Y0.468
M05
G1 X-0.03
M03 P30 S76.5
G1 Y-0.468
M05
G1 X-0.03
M03 P30 S76.5
G1 Y0.468
M05
G1 X-0.03
M03 P30 S76.5
G1 Y-0.467
M05
G1 X-0.03
M03 P30 S76.5
G1 Y0.467
M05
G1 X-0.03
M03 P30 S76.5
G1 Y-0.467
M05
G1 X-0.03
M03 P30 S76.5
G1 Y0.467
M05
G1 X-0.03
M03 P30 S76.5
G1 Y-0.467
M05
G1 X-0.03
M03 P30 S76.5
G1 Y0.467
M05
G1 X-0.03
M03 P30 S76.5
G1 Y-0.467
M05
G1 X-0.03
M03 P30 S76.5
G1 Y0.467
M05
G1 X-0.03
M03 P30 S76.5
G1 Y-0.467
M05
G1 X-0.03
M03 P30 S76.5
G1 Y0.467
M05
G1 X-0.03
M03 P30 S76.5
G1 Y-0.467
M05
G1 X-0.03
M03 P30 S76.5
G1 Y0.467
M05
G1 X-0.03
M03 P30 S76.5
G1 Y-0.467
M05
G1 X-0.03
M03 P30 S76.5
G1 Y0.467
M05
G1 X-0.03
M03 P30 S76.5
G1 Y-0.467
M05
G1 X-0.03Y-3.31
M03 P30 S76.5
G1 Y3.777
M05
G1 X-0.03
M03 P30 S76.5
G1 Y-3.777
M05
G1 X-0.03
M03 P30 S76.5
G1 Y3.777
M05
G1 X-0.03
M03 P30 S76.5
G1 Y-3.777
M05
G1 X-0.03
M03 P30 S76.5
G1 Y3.777
M05
G1 X-0.03
M03 P30 S76.5
G1 Y-3.777
M05
G1 X-0.03
M03 P30 S76.5
G1 Y3.776
M05
G1 X-0.03
M03 P30 S76.5
G1 Y-3.775
M05
G1 X-0.03
M03 P30 S76.5
G1 Y3.77
M05
G1 X-0.03
M03 P30 S76.5
G1 Y-3.764
M05
G1 X-0.03Y0.005
M03 P30 S76.5
G1 Y3.745
M05
G1 X-0.03Y-0.01
M03 P30 S76.5
G1 Y-3.723
M05
G1 X-0.03Y0.013
M03 P30 S76.5
G1 Y3.691
M05
G1 X-0.03Y-0.023
M03 P30 S76.5
G1 Y-3.648
M05
G1 X-0.03Y0.04
M03 P30 S76.5
G1 Y3.57
M05
G1 X-0.03Y-0.074
M03 P30 S76.5
G1 Y-3.413
M05
G1 X1.95Y0.129
M03 P30 S76.5
G1 Y0.761
M05
G1 X-0.03Y-0.057
M03 P30 S76.5
G1 Y-0.73
M05
G1 X-0.03Y-0.026
M03 P30 S76.5
G1 Y0.702
M05
G1 X-0.03Y-0.049
M03 P30 S76.5
G1 Y-0.675
M05
G1 X-0.03Y-0.021
M03 P30 S76.5
G1 Y0.651
M05
G1 X-0.03Y-0.041
M03 P30 S76.5
G1 Y-0.63
M05
G1 X-0.03Y-0.018
M03 P30 S76.5
G1 Y0.61
M05
G1 X-0.03Y-0.034
M03 P30 S76.5
G1 Y-0.594
M05
G1 X-0.03Y-0.016
M03 P30 S76.5
G1 Y0.576
M05
G1 X-0.03Y-0.028
M03 P30 S76.5
G1 Y-0.563
M05
G1 X-0.03Y-0.015
M03 P30 S76.5
G1 Y0.549
M05
G1 X-0.03Y-0.027
M03 P30 S76.5
G1 Y-0.535
M05
G1 X-0.03Y-0.012
M03 P30 S76.5
G1 Y0.522
M05
G1 X-0.03Y-0.022
M03 P30 S76.5
G1 Y-0.511
M05
G1 X-0.03Y-0.01
M03 P30 S76.5
G1 Y0.501
M05
G1 X-0.03Y-0.018
M03 P30 S76.5
G1 Y-0.493
M05
G1 X-0.03Y-0.009
M03 P30 S76.5
G1 Y0.488
M05
G1 X-0.03Y-0.014
M03 P30 S76.5
G1 Y-0.481
M05
G1 X-0.03Y-0.007
M03 P30 S76.5
G1 Y0.477
M05
G1 X-0.03Y-0.01
M03 P30 S76.5
G1 Y-0.474
M05
G1 X-0.03
M03 P30 S76.5
G1 Y0.467
M05
G1 X-0.03Y-0.007
M03 P30 S76.5
G1 Y-0.469
M05
G1 X-0.03
M03 P30 S76.5
G1 Y0.463
M05
G1 X-0.03
M03 P30 S76.5
G1 Y-0.471
M05
G1 X-0.03
M03 P30 S76.5
G1 Y0.463
M05
G1 X-0.03
M03 P30 S76.5
G1 Y-0.468
M05
G1 X-0.03
M03 P30 S76.5
G1 Y0.466
M05
G1 X-0.03
M03 P30 S76.5
G1 Y-0.469
M05
G1 X-0.03
M03 P30 S76.5
G1 Y0.466
M05
G1 X-0.03
M03 P30 S76.5
G1 Y-0.467
M05
G1 X-0.03
M03 P30 S76.5
G1 Y0.466
M05
G1 X-0.03
M03 P30 S76.5
G1 Y-0.466
M05
G1 X-0.03
M03 P30 S76.5
G1 Y0.466
M05
G1 X-0.03
M03 P30 S76.5
G1 Y-0.466
M05
G1 X-0.03
M03 P30 S76.5
G1 Y0.466
M05
G1 X-0.03
M03 P30 S76.5
G1 Y-0.466
M05
G1 X-0.03
M03 P30 S76.5
G1 Y0.466
M05
G1 X-0.03
M03 P30 S76.5
G1 Y-0.466
M05
G1 X-0.03
M03 P30 S76.5
G1 Y0.466
M05
G1 X-0.03
M03 P30 S76.5
G1 Y-0.466
M05
G1 X-0.03
M03 P30 S76.5
G1 Y0.466
M05
G1 X-0.03
M03 P30 S76.5
G1 Y-0.466
M05
G1 X-0.03
M03 P30 S76.5
G1 Y0.466
M05
G1 X-0.03
M03 P30 S76.5
G1 Y-0.466
M05
G1 X-0.03
M03 P30 S76.5
G1 Y0.466
M05
G1 X-0.03
M03 P30 S76.5
G1 Y-0.466
M05
G1 X-0.03
M03 P30 S76.5
G1 Y0.466
M05
G1 X-0.03
M03 P30 S76.5
G1 Y-0.466
M05
G1 X-0.03
M03 P30 S76.5
G1 Y0.466
M05
G1 X-0.03
M03 P30 S76.5
G1 Y-0.466
M05
G0 X-9.949 Y0.014 F0
M03 P30 S76.5
G1 X0.157 F2300
M05
G1 X0.061Y0.03
M03 P30 S76.5
G1 X-0.28
M05
G1 X-0.036Y0.03
M03 P30 S76.5
G1 X0.349
M05
G1 X0.022Y0.03
M03 P30 S76.5
G1 X-0.393
M05
G1 X-0.02Y0.03
M03 P30 S76.5
G1 X0.427
M05
G1 X0.01Y0.03
M03 P30 S76.5
G1 X-0.445
M05
G1 X-0.005Y0.03
M03 P30 S76.5
G1 X0.459
M05
G1 Y0.03
M03 P30 S76.5
G1 X-0.461
M05
G1 Y0.03
M03 P30 S76.5
G1 X0.464
M05
G1 Y0.03
M03 P30 S76.5
G1 X-0.465
M05
G1 Y0.03
M03 P30 S76.5
G1 X0.465
M05
G1 Y0.03
M03 P30 S76.5
G1 X-0.466
M05
G1 Y0.03
M03 P30 S76.5
G1 X0.466
M05
G1 Y0.03
M03 P30 S76.5
G1 X-0.466
M05
G1 Y0.03
M03 P30 S76.5
G1 X0.466
M05
G1 Y0.03
M03 P30 S76.5
G1 X-0.466
M05
G1 Y0.03
M03 P30 S76.5
G1 X0.466
M05
G1 Y0.03
M03 P30 S76.5
G1 X-0.466
M05
G1 Y0.03
M03 P30 S76.5
G1 X0.466
M05
G1 Y0.03
M03 P30 S76.5
G1 X-0.466
M05
G1 Y0.03
M03 P30 S76.5
G1 X0.466
M05
G1 Y0.03
M03 P30 S76.5
G1 X-0.466
M05
G1 Y0.03
M03 P30 S76.5
G1 X0.466
M05
G1 Y0.03
M03 P30 S76.5
G1 X-0.466
M05
G1 Y0.03
M03 P30 S76.5
G1 X0.467
M05
G1 Y0.03
M03 P30 S76.5
G1 X-0.467
M05
G1 Y0.03
M03 P30 S76.5
G1 X0.467
M05
G1 Y0.03
M03 P30 S76.5
G1 X-0.467
M05
G1 Y0.03
M03 P30 S76.5
G1 X0.467
M05
G1 Y0.03
M03 P30 S76.5
G1 X-0.467
M05
G1 Y0.03
M03 P30 S76.5
G1 X0.467
M05
G1 Y0.03
M03 P30 S76.5
G1 X-0.467
M05
G1 Y0.03
M03 P30 S76.5
G1 X0.467
M05
G1 Y0.03
M03 P30 S76.5
G1 X-0.467
M05
G1 Y0.03
M03 P30 S76.5
G1 X0.467
M05
G1 Y0.03
M03 P30 S76.5
G1 X-0.467
M05
G1 Y0.03
M03 P30 S76.5
G1 X0.467
M05
G1 Y0.03
M03 P30 S76.5
G1 X-0.467
M05
G1 Y0.03
M03 P30 S76.5
G1 X0.467
M05
G1 Y0.03
M03 P30 S76.5
G1 X-0.467
M05
G1 Y0.03
M03 P30 S76.5
G1 X0.467
M05
G1 Y0.03
M03 P30 S76.5
G1 X-0.467
M05
G1 Y0.03
M03 P30 S76.5
G1 X0.467
M05
G1 Y0.03
M03 P30 S76.5
G1 X-0.467
M05
G1 Y0.03
M03 P30 S76.5
G1 X0.467
M05
G1 Y0.03
M03 P30 S76.5
G1 X-0.467
M05
G1 Y0.03
M03 P30 S76.5
G1 X0.467
M05
G1 Y0.03
M03 P30 S76.5
G1 X-0.467
M05
G1 Y0.03
M03 P30 S76.5
G1 X0.467
M05
G1 Y0.03
M03 P30 S76.5
G1 X-0.467
M05
G1 Y0.03
M03 P30 S76.5
G1 X0.467
M05
G1 Y0.03
M03 P30 S76.5
G1 X-0.467
M05
G1 Y0.03
M03 P30 S76.5
G1 X0.467
M05
G1 Y0.03
M03 P30 S76.5
G1 X-0.467
M05
G1 Y0.03
M03 P30 S76.5
G1 X0.467
M05
G1 Y0.03
M03 P30 S76.5
G1 X-0.467
M05
G1 Y0.03
M03 P30 S76.5
G1 X0.467
M05
G1 Y0.03
M03 P30 S76.5
G1 X-0.467
M05
G1 Y0.03
M03 P30 S76.5
G1 X0.467
M05
G1 Y0.03
M03 P30 S76.5
G1 X-0.467
M05
G1 Y0.03
M03 P30 S76.5
G1 X0.467
M05
G1 Y0.03
M03 P30 S76.5
G1 X-0.467
M05
G1 Y0.03
M03 P30 S76.5
G1 X0.467
M05
G1 X1.419Y0.03
M03 P30 S76.5
G1 X-1.886
M05
G1 Y0.03
M03 P30 S76.5
G1 X1.963
M05
G1 X0.04Y0.03
M03 P30 S76.5
G1 X-2.003
M05
G1 Y0.03
M03 P30 S76.5
G1 X2.026
M05
G1 X0.013Y0.03
M03 P30 S76.5
G1 X-2.039
M05
G1 Y0.03
M03 P30 S76.5
G1 X2.052
M05
G1 Y0.03
M03 P30 S76.5
G1 X-2.052
M05
G1 Y0.03
M03 P30 S76.5
G1 X2.061
M05
G1 Y0.03
M03 P30 S76.5
G1 X-2.061
M05
G1 Y0.03
M03 P30 S76.5
G1 X2.059
M05
G1 X-0.008Y0.03
M03 P30 S76.5
G1 X-2.051
M05
G1 Y0.03
M03 P30 S76.5
G1 X2.042
M05
G1 X-0.021Y0.03
M03 P30 S76.5
G1 X-2.021
M05
G1 Y0.03
M03 P30 S76.5
G1 X1.992
M05
G1 X-0.049Y0.03
M03 P30 S76.5
G1 X-1.943
M05
G1 Y0.03
M03 P30 S76.5
G1 X1.8
M05
G1 X-1.333Y0.03
M03 P30 S76.5
G1 X-0.467
M05
G1 Y0.03
M03 P30 S76.5
G1 X0.467
M05
G1 Y0.03
M03 P30 S76.5
G1 X-0.467
M05
G1 Y0.03
M03 P30 S76.5
G1 X0.467
M05
G1 Y0.03
M03 P30 S76.5
G1 X-0.467
M05
G1 Y0.03
M03 P30 S76.5
G1 X0.467
M05
G1 Y0.03
M03 P30 S76.5
G1 X-0.467
M05
G1 Y0.03
M03 P30 S76.5
G1 X0.467
M05
G1 Y0.03
M03 P30 S76.5
G1 X-0.467
M05
G1 Y0.03
M03 P30 S76.5
G1 X0.467
M05
G1 Y0.03
M03 P30 S76.5
G1 X-0.467
M05
G1 Y0.03
M03 P30 S76.5
G1 X0.467
M05
G1 Y0.03
M03 P30 S76.5
G1 X-0.467
M05
G1 Y0.03
M03 P30 S76.5
G1 X0.467
M05
G1 Y0.03
M03 P30 S76.5
G1 X-0.467
M05
G1 Y0.03
M03 P30 S76.5
G1 X0.467
M05
G1 Y0.03
M03 P30 S76.5
G1 X-0.467
M05
G1 Y0.03
M03 P30 S76.5
G1 X0.467
M05
G1 Y0.03
M03 P30 S76.5
G1 X-0.467
M05
G1 Y0.03
M03 P30 S76.5
G1 X0.467
M05
G1 Y0.03
M03 P30 S76.5
G1 X-0.467
M05
G1 Y0.03
M03 P30 S76.5
G1 X0.467
M05
G1 Y0.03
M03 P30 S76.5
G1 X-0.467
M05
G1 Y0.03
M03 P30 S76.5
G1 X0.467
M05
G1 Y0.03
M03 P30 S76.5
G1 X-0.467
M05
G1 Y0.03
M03 P30 S76.5
G1 X0.467
M05
G1 Y0.03
M03 P30 S76.5
G1 X-0.467
M05
G1 Y0.03
M03 P30 S76.5
G1 X0.467
M05
G1 Y0.03
M03 P30 S76.5
G1 X-0.467
M05
G1 Y0.03
M03 P30 S76.5
G1 X0.467
M05
G1 Y0.03
M03 P30 S76.5
G1 X-0.467
M05
G1 Y0.03
M03 P30 S76.5
G1 X2.306
M05
G1 X0.136Y0.03
M03 P30 S76.5
G1 X-2.442
M05
G1 Y0.03
M03 P30 S76.5
G1 X2.489
M05
G1 X0.03Y0.03
M03 P30 S76.5
G1 X-2.519
M05
G1 Y0.03
M03 P30 S76.5
G1 X2.538
M05
G1 X0.01Y0.03
M03 P30 S76.5
G1 X-2.547
M05
G1 Y0.03
M03 P30 S76.5
G1 X2.556
M05
G1 Y0.03
M03 P30 S76.5
G1 X-2.553
M05
G1 Y0.03
M03 P30 S76.5
G1 X2.556
M05
G1 Y0.03
M03 P30 S76.5
G1 X-2.546
M05
G1 X0.01Y0.03
M03 P30 S76.5
G1 X2.526
M05
G1 X-0.011Y0.03
M03 P30 S76.5
G1 X-2.503
M05
G1 X0.018Y0.03
M03 P30 S76.5
G1 X2.467
M05
G1 X-0.026Y0.03
M03 P30 S76.5
G1 X-2.419
M05
G1 X0.039Y0.03
M03 P30 S76.5
G1 X2.339
M05
G1 X-0.082Y0.03
M03 P30 S76.5
G1 X-2.191
M05
G1 X2.375Y-0.277
M03 P30 S76.5
G1 Y0.107
M05
G1 X-0.03Y0.072
M03 P30 S76.5
G1 Y-0.25
M05
G1 X-0.03Y-0.036
M03 P30 S76.5
G1 Y0.323
M05
G1 X-0.03Y0.025
M03 P30 S76.5
G1 Y-0.372
M05
G1 X-0.03Y-0.015
M03 P30 S76.5
G1 Y0.402
M05
G1 X-0.03Y0.012
M03 P30 S76.5
G1 Y-0.425
M05
G1 X-0.03Y-0.008
M03 P30 S76.5
G1 Y0.441
M05
G1 X-0.03
M03 P30 S76.5
G1 Y-0.445
M05
G1 X-0.03
M03 P30 S76.5
G1 Y0.453
M05
G1 X-0.03
M03 P30 S76.5
G1 Y-0.459
M05
G1 X-0.03
M03 P30 S76.5
G1 Y0.465
M05
G1 X-0.03
M03 P30 S76.5
G1 Y-0.467
M05
G1 X-0.03
M03 P30 S76.5
G1 Y0.467
M05
G1 X-0.03
M03 P30 S76.5
G1 Y-0.467
M05
G1 X-0.03
M03 P30 S76.5
G1 Y0.467
M05
G1 X-0.03
M03 P30 S76.5
G1 Y-0.467
M05
G1 X-0.03
M03 P30 S76.5
G1 Y0.467
M05
G1 X-0.03
M03 P30 S76.5
G1 Y-0.467
M05
G1 Y-1.089
M03 P30 S76.5
G1 Y-0.181
M05
G1 X-0.03Y-0.06
M03 P30 S76.5
G1 Y0.291
M05
G1 Y1.039
M03 P30 S76.5
G1 Y0.467
M05
G1 X-0.03
M03 P30 S76.5
G1 Y-0.467
M05
G1 Y-1.011
M03 P30 S76.5
G1 Y-0.35
M05
G1 X-0.03Y-0.019
M03 P30 S76.5
G1 Y0.389
M05
G1 Y0.991
M03 P30 S76.5
G1 Y0.467
M05
G1 X-0.03
M03 P30 S76.5
G1 Y-0.467
M05
G1 Y-0.978
M03 P30 S76.5
G1 Y-0.417
M05
G1 X-0.03Y-0.009
M03 P30 S76.5
G1 Y0.435
M05
G1 Y0.969
M03 P30 S76.5
G1 Y0.467
M05
G1 X-0.03
M03 P30 S76.5
G1 Y-0.467
M05
G1 Y-0.962
M03 P30 S76.5
G1 Y-0.447
M05
G1 X-0.03
M03 P30 S76.5
G1 Y0.451
M05
G1 Y0.958
M03 P30 S76.5
G1 Y0.467
M05
G1 X-0.03
M03 P30 S76.5
G1 Y-0.467
M05
G1 Y-0.956
M03 P30 S76.5
G1 Y-0.461
M05
G1 X-0.03
M03 P30 S76.5
G1 Y0.463
M05
G1 Y0.954
M03 P30 S76.5
G1 Y0.467
M05
G1 X-0.03
M03 P30 S76.5
G1 Y-0.467
M05
G1 Y-0.952
M03 P30 S76.5
G1 Y-0.466
M05
G1 X-0.03
M03 P30 S76.5
G1 Y0.466
M05
G1 Y0.952
M03 P30 S76.5
G1 Y0.467
M05
G1 X-0.03
M03 P30 S76.5
G1 Y-0.467
M05
G1 Y-0.952
M03 P30 S76.5
G1 Y-0.467
M05
G1 X-0.03
M03 P30 S76.5
G1 Y0.467
M05
G1 Y0.952
M03 P30 S76.5
G1 Y0.467
M05
G1 X-0.03
M03 P30 S76.5
G1 Y-0.467
M05
G1 Y-0.952
M03 P30 S76.5
G1 Y-0.467
M05
G1 X-0.03
M03 P30 S76.5
G1 Y0.467
M05
G1 Y0.952
M03 P30 S76.5
G1 Y0.467
M05
G1 X-0.03
M03 P30 S76.5
G1 Y-0.467
M05
G1 Y-0.952
M03 P30 S76.5
G1 Y-0.467
M05
G1 X-0.03
M03 P30 S76.5
G1 Y0.467
M05
G1 Y0.952
M03 P30 S76.5
G1 Y0.467
M05
G1 X-0.03
M03 P30 S76.5
G1 Y-0.467
M05
G1 Y-0.952
M03 P30 S76.5
G1 Y-0.467
M05
G1 X-0.03
M03 P30 S76.5
G1 Y0.467
M05
G1 Y0.952
M03 P30 S76.5
G1 Y0.467
M05
G1 X-0.03
M03 P30 S76.5
G1 Y-0.467
M05
G1 Y-0.952
M03 P30 S76.5
G1 Y-0.467
M05
G1 X-0.03
M03 P30 S76.5
G1 Y0.467
M05
G1 Y0.952
M03 P30 S76.5
G1 Y0.467
M05
G1 X-0.03
M03 P30 S76.5
G1 Y-0.467
M05
G1 Y-0.952
M03 P30 S76.5
G1 Y-0.467
M05
G1 X-0.03
M03 P30 S76.5
G1 Y0.467
M05
G1 Y0.952
M03 P30 S76.5
G1 Y0.467
M05
G1 X-0.03
M03 P30 S76.5
G1 Y-0.467
M05
G1 Y-0.952
M03 P30 S76.5
G1 Y-0.467
M05
G1 X-0.03
M03 P30 S76.5
G1 Y0.467
M05
G1 Y0.952
M03 P30 S76.5
G1 Y0.467
M05
G1 X-0.03
M03 P30 S76.5
G1 Y-0.467
M05
G1 Y-0.952
M03 P30 S76.5
G1 Y-0.467
M05
G1 X-0.03
M03 P30 S76.5
G1 Y0.467
M05
G1 Y0.952
M03 P30 S76.5
G1 Y0.467
M05
G1 X-0.03
M03 P30 S76.5
G1 Y-0.467
M05
G1 Y-0.952
M03 P30 S76.5
G1 Y-0.467
M05
G1 X-0.03
M03 P30 S76.5
G1 Y0.467
M05
G1 Y0.952
M03 P30 S76.5
G1 Y0.467
M05
G1 X-0.03
M03 P30 S76.5
G1 Y-0.467
M05
G1 Y-0.952
M03 P30 S76.5
G1 Y-0.467
M05
G1 X-0.03
M03 P30 S76.5
G1 Y0.467
M05
G1 Y0.952
M03 P30 S76.5
G1 Y0.467
M05
G1 X-0.03
M03 P30 S76.5
G1 Y-0.467
M05
G1 Y-0.952
M03 P30 S76.5
G1 Y-0.467
M05
G1 X-0.03
M03 P30 S76.5
G1 Y0.467
M05
G1 Y0.952
M03 P30 S76.5
G1 Y0.467
M05
G1 X-0.03
M03 P30 S76.5
G1 Y-0.467
M05
G1 Y-0.952
M03 P30 S76.5
G1 Y-0.467
M05
G1 X-0.03
M03 P30 S76.5
G1 Y0.467
M05
G1 Y0.952
M03 P30 S76.5
G1 Y0.467
M05
G1 X-0.03
M03 P30 S76.5
G1 Y-0.467
M05
G1 Y-0.952
M03 P30 S76.5
G1 Y-0.467
M05
G1 X-0.03
M03 P30 S76.5
G1 Y0.467
M05
G1 Y0.952
M03 P30 S76.5
G1 Y0.467
M05
G1 X-0.03
M03 P30 S76.5
G1 Y-0.467
M05
G1 Y-0.952
M03 P30 S76.5
G1 Y-0.467
M05
G1 X-0.03
M03 P30 S76.5
G1 Y0.467
M05
G1 Y0.952
M03 P30 S76.5
G1 Y0.467
M05
G1 X-0.03
M03 P30 S76.5
G1 Y-0.467
M05
G1 Y-0.952
M03 P30 S76.5
G1 Y-0.467
M05
G1 X-0.03
M03 P30 S76.5
G1 Y0.467
M05
G1 Y0.952
M03 P30 S76.5
G1 Y0.467
M05
G1 X-0.03
M03 P30 S76.5
G1 Y-0.467
M05
G1 Y-0.952
M03 P30 S76.5
G1 Y-0.467
M05
G1 X-0.03
M03 P30 S76.5
G1 Y0.467
M05
G1 Y0.952
M03 P30 S76.5
G1 Y0.467
M05
G1 X-0.03
M03 P30 S76.5
G1 Y-0.467
M05
G1 Y-0.952
M03 P30 S76.5
G1 Y-0.467
M05
G1 X-0.03
M03 P30 S76.5
G1 Y0.467
M05
G1 Y0.952
M03 P30 S76.5
G1 Y0.467
M05
G1 X-0.03
M03 P30 S76.5
G1 Y-0.467
M05
G1 Y-0.952
M03 P30 S76.5
G1 Y-0.467
M05
G1 X-0.03
M03 P30 S76.5
G1 Y0.467
M05
G1 Y0.952
M03 P30 S76.5
G1 Y0.467
M05
G1 X-0.03
M03 P30 S76.5
G1 Y-0.467
M05
G1 Y-0.952
M03 P30 S76.5
G1 Y-0.467
M05
G1 X-0.03
M03 P30 S76.5
G1 Y0.467
M05
G1 Y0.952
M03 P30 S76.5
G1 Y0.467
M05
G1 X-0.03
M03 P30 S76.5
G1 Y-0.467
M05
G1 Y-0.952
M03 P30 S76.5
G1 Y-0.467
M05
G1 X-0.03
M03 P30 S76.5
G1 Y0.467
M05
G1 Y0.952
M03 P30 S76.5
G1 Y0.467
M05
G1 X-0.03
M03 P30 S76.5
G1 Y-0.467
M05
G1 Y-0.952
M03 P30 S76.5
G1 Y-0.467
M05
G1 X-0.03Y-1.722
M03 P30 S76.5
G1 Y3.608
M05
G1 X-0.03
M03 P30 S76.5
G1 Y-3.68
M05
G1 X-0.03Y-0.037
M03 P30 S76.5
G1 Y3.717
M05
G1 X-0.03
M03 P30 S76.5
G1 Y-3.74
M05
G1 X-0.03Y-0.013
M03 P30 S76.5
G1 Y3.753
M05
G1 X-0.03
M03 P30 S76.5
G1 Y-3.767
M05
G1 X-0.03
M03 P30 S76.5
G1 Y3.768
M05
G1 X-0.03
M03 P30 S76.5
G1 Y-3.777
M05
G1 X-0.03
M03 P30 S76.5
G1 Y3.771
M05
G1 X-0.03Y-0.006
M03 P30 S76.5
G1 Y-3.759
M05
G1 X-0.03Y0.007
M03 P30 S76.5
G1 Y3.742
M05
G1 X-0.03Y-0.014
M03 P30 S76.5
G1 Y-3.715
M05
G1 X-0.03Y0.016
M03 P30 S76.5
G1 Y3.678
M05
G1 X-0.03Y-0.031
M03 P30 S76.5
G1 Y-3.622
M05
G1 X-0.03Y0.038
M03 P30 S76.5
G1 Y3.537
M05
G1 X-0.03Y-0.104
M03 P30 S76.5
G1 Y-3.365
M05
G0 X-0.238 Y7.729 F0
M03 P30 S76.5
G1 X0.157 F2300
M05
G1 X0.061Y0.03
M03 P30 S76.5
G1 X-0.279
M05
G1 X-0.037Y0.03
M03 P30 S76.5
G1 X0.353
M05
G1 X0.021Y0.03
M03 P30 S76.5
G1 X-0.398
M05
G1 X-0.017Y0.03
M03 P30 S76.5
G1 X0.432
M05
G1 X0.01Y0.03
M03 P30 S76.5
G1 X-0.453
M05
G1 Y0.03
M03 P30 S76.5
G1 X0.458
M05
G1 Y0.03
M03 P30 S76.5
G1 X-0.46
M05
G1 Y0.03
M03 P30 S76.5
G1 X0.462
M05
G1 Y0.03
M03 P30 S76.5
G1 X-0.464
M05
G1 Y0.03
M03 P30 S76.5
G1 X0.465
M05
G1 Y0.03
M03 P30 S76.5
G1 X-0.466
M05
G1 Y0.03
M03 P30 S76.5
G1 X0.466
M05
G1 Y0.03
M03 P30 S76.5
G1 X-0.466
M05
G1 Y0.03
M03 P30 S76.5
G1 X0.466
M05
G1 Y0.03
M03 P30 S76.5
G1 X-0.466
M05
G1 Y0.03
M03 P30 S76.5
G1 X0.466
M05
G1 Y0.03
M03 P30 S76.5
G1 X-0.466
M05
G1 Y0.03
M03 P30 S76.5
G1 X0.466
M05
G1 Y0.03
M03 P30 S76.5
G1 X-0.466
M05
G1 Y0.03
M03 P30 S76.5
G1 X0.466
M05
G1 Y0.03
M03 P30 S76.5
G1 X-0.466
M05
G1 Y0.03
M03 P30 S76.5
G1 X0.466
M05
G1 Y0.03
M03 P30 S76.5
G1 X-0.466
M05
G1 Y0.03
M03 P30 S76.5
G1 X0.466
M05
G1 Y0.03
M03 P30 S76.5
G1 X-0.466
M05
G1 Y0.03
M03 P30 S76.5
G1 X0.466
M05
G1 Y0.03
M03 P30 S76.5
G1 X-0.466
M05
G1 Y0.03
M03 P30 S76.5
G1 X0.466
M05
G1 Y0.03
M03 P30 S76.5
G1 X-0.466
M05
G1 Y0.03
M03 P30 S76.5
G1 X0.466
M05
G1 Y0.03
M03 P30 S76.5
G1 X-0.466
M05
G1 Y0.03
M03 P30 S76.5
G1 X0.466
M05
G1 Y0.03
M03 P30 S76.5
G1 X-0.466
M05
G1 Y0.03
M03 P30 S76.5
G1 X0.466
M05
G1 Y0.03
M03 P30 S76.5
G1 X-0.466
M05
G1 Y0.03
M03 P30 S76.5
G1 X0.466
M05
G1 Y0.03
M03 P30 S76.5
G1 X-0.466
M05
G1 Y0.03
M03 P30 S76.5
G1 X0.466
M05
G1 Y0.03
M03 P30 S76.5
G1 X-0.466
M05
G1 Y0.03
M03 P30 S76.5
G1 X0.466
M05
G1 Y0.03
M03 P30 S76.5
G1 X-0.466
M05
G1 Y0.03
M03 P30 S76.5
G1 X0.466
M05
G1 Y0.03
M03 P30 S76.5
G1 X-0.466
M05
G1 Y0.03
M03 P30 S76.5
G1 X0.466
M05
G1 Y0.03
M03 P30 S76.5
G1 X-0.466
M05
G1 Y0.03
M03 P30 S76.5
G1 X0.466
M05
G1 Y0.03
M03 P30 S76.5
G1 X-0.466
M05
G1 Y0.03
M03 P30 S76.5
G1 X0.466
M05
G1 Y0.03
M03 P30 S76.5
G1 X-0.466
M05
G1 Y0.03
M03 P30 S76.5
G1 X0.466
M05
G1 Y0.03
M03 P30 S76.5
G1 X-0.466
M05
G1 Y0.03
M03 P30 S76.5
G1 X0.466
M05
G1 Y0.03
M03 P30 S76.5
G1 X-0.466
M05
G1 Y0.03
M03 P30 S76.5
G1 X0.466
M05
G1 Y0.03
M03 P30 S76.5
G1 X-0.466
M05
G1 Y0.03
M03 P30 S76.5
G1 X0.466
M05
G1 Y0.03
M03 P30 S76.5
G1 X-0.466
M05
G1 Y0.03
M03 P30 S76.5
G1 X0.466
M05
G1 Y0.03
M03 P30 S76.5
G1 X-0.466
M05
G1 Y0.03
M03 P30 S76.5
G1 X0.466
M05
G1 Y0.03
M03 P30 S76.5
G1 X-0.466
M05
G1 Y0.03
M03 P30 S76.5
G1 X0.466
M05
G1 Y0.03
M03 P30 S76.5
G1 X-0.466
M05
G1 Y0.03
M03 P30 S76.5
G1 X0.466
M05
G1 Y0.03
M03 P30 S76.5
G1 X-0.466
M05
G1 Y0.03
M03 P30 S76.5
G1 X0.466
M05
G1 Y0.03
M03 P30 S76.5
G1 X-0.466
M05
G1 Y0.03
M03 P30 S76.5
G1 X0.466
M05
G1 Y0.03
M03 P30 S76.5
G1 X-0.466
M05
G1 Y0.03
M03 P30 S76.5
G1 X0.466
M05
G1 Y0.03
M03 P30 S76.5
G1 X-0.466
M05
G1 Y0.03
M03 P30 S76.5
G1 X0.466
M05
G1 Y0.03
M03 P30 S76.5
G1 X-0.466
M05
G1 Y0.03
M03 P30 S76.5
G1 X0.466
M05
G1 Y0.03
M03 P30 S76.5
G1 X-0.466
M05
G1 Y0.03
M03 P30 S76.5
G1 X0.466
M05
G1 Y0.03
M03 P30 S76.5
G1 X-0.466
M05
G1 Y0.03
M03 P30 S76.5
G1 X0.466
M05
G1 Y0.03
M03 P30 S76.5
G1 X-0.466
M05
G1 Y0.03
M03 P30 S76.5
G1 X0.466
M05
G1 Y0.03
M03 P30 S76.5
G1 X-0.466
M05
G1 Y0.03
M03 P30 S76.5
G1 X0.466
M05
G1 Y0.03
M03 P30 S76.5
G1 X-0.466
M05
G1 Y0.03
M03 P30 S76.5
G1 X0.466
M05
G1 Y0.03
M03 P30 S76.5
G1 X-0.466
M05
G1 Y0.03
M03 P30 S76.5
G1 X0.466
M05
G1 Y0.03
M03 P30 S76.5
G1 X-0.466
M05
G1 Y0.03
M03 P30 S76.5
G1 X0.466
M05
G1 Y0.03
M03 P30 S76.5
G1 X-0.466
M05
G1 Y0.03
M03 P30 S76.5
G1 X0.466
M05
G1 Y0.03
M03 P30 S76.5
G1 X-0.466
M05
G1 Y0.03
M03 P30 S76.5
G1 X0.466
M05
G1 Y0.03
M03 P30 S76.5
G1 X-0.466
M05
G1 Y0.03
M03 P30 S76.5
G1 X0.466
M05
G1 Y0.03
M03 P30 S76.5
G1 X-0.466
M05
G1 Y0.03
M03 P30 S76.5
G1 X0.466
M05
G1 Y0.03
M03 P30 S76.5
G1 X-0.466
M05
G1 Y0.03
M03 P30 S76.5
G1 X0.466
M05
G1 Y0.03
M03 P30 S76.5
G1 X-0.466
M05
G1 Y0.03
M03 P30 S76.5
G1 X0.466
M05
G1 Y0.03
M03 P30 S76.5
G1 X-0.466
M05
G1 Y0.03
M03 P30 S76.5
G1 X0.466
M05
G1 Y0.03
M03 P30 S76.5
G1 X-0.466
M05
G1 Y0.03
M03 P30 S76.5
G1 X0.466
M05
G1 Y0.03
M03 P30 S76.5
G1 X-0.466
M05
G1 Y0.03
M03 P30 S76.5
G1 X0.466
M05
G1 Y0.03
M03 P30 S76.5
G1 X-0.466
M05
G1 Y0.03
M03 P30 S76.5
G1 X0.466
M05
G1 Y0.03
M03 P30 S76.5
G1 X-0.466
M05
G1 X-0.796Y0.03
M03 P30 S76.5
G1 X2.064
M05
G1 X0.152Y0.03
M03 P30 S76.5
G1 X-2.362
M05
G1 X-0.048Y0.03
M03 P30 S76.5
G1 X2.459
M05
G1 X0.029Y0.03
M03 P30 S76.5
G1 X-2.519
M05
G1 X-0.018Y0.03
M03 P30 S76.5
G1 X2.557
M05
G1 X0.01Y0.03
M03 P30 S76.5
G1 X-2.58
M05
G1 X-0.009Y0.03
M03 P30 S76.5
G1 X2.596
M05
G1 Y0.03
M03 P30 S76.5
G1 X-2.599
M05
G1 Y0.03
M03 P30 S76.5
G1 X2.601
M05
G1 Y0.03
M03 P30 S76.5
G1 X-2.601
M05
G1 Y0.03
M03 P30 S76.5
G1 X2.591
M05
G1 X-0.009Y0.03
M03 P30 S76.5
G1 X-2.568
M05
G1 X0.015Y0.03
M03 P30 S76.5
G1 X2.535
M05
G1 X-0.025Y0.03
M03 P30 S76.5
G1 X-2.485
M05
G1 X0.043Y0.03
M03 P30 S76.5
G1 X2.403
M05
G1 X-0.075Y0.03
M03 P30 S76.5
G1 X-2.243
M05
G1 X2.393Y-0.342
M03 P30 S76.5
G1 Y0.233
M05
G1 X-0.03Y0.043
M03 P30 S76.5
G1 Y-0.315
M05
G1 X-0.03Y-0.022
M03 P30 S76.5
G1 Y0.365
M05
G1 X-0.03Y0.016
M03 P30 S76.5
G1 Y-0.398
M05
G1 X-0.03Y-0.012
M03 P30 S76.5
G1 Y0.423
M05
G1 X-0.03Y0.009
M03 P30 S76.5
G1 Y-0.439
M05
G1 X-0.03Y-0.007
M03 P30 S76.5
G1 Y0.451
M05
G1 X-0.03
M03 P30 S76.5
G1 Y-0.453
M05
G1 X-0.03
M03 P30 S76.5
G1 Y0.459
M05
G1 X-0.03
M03 P30 S76.5
G1 Y-0.463
M05
G1 X-0.03
M03 P30 S76.5
G1 Y0.465
M05
G1 X-0.03
M03 P30 S76.5
G1 Y-0.466
M05
G1 X-0.03
M03 P30 S76.5
G1 Y0.466
M05
G1 X-0.03
M03 P30 S76.5
G1 Y-0.466
M05
G1 X-0.03
M03 P30 S76.5
G1 Y0.466
M05
G1 X-0.03
M03 P30 S76.5
G1 Y-0.466
M05
G1 X-0.03
M03 P30 S76.5
G1 Y0.466
M05
G1 X-0.03
M03 P30 S76.5
G1 Y-0.466
M05
G1 X-0.03
M03 P30 S76.5
G1 Y0.466
M05
G1 X-0.03
M03 P30 S76.5
G1 Y-0.466
M05
G1 X-0.03
M03 P30 S76.5
G1 Y0.466
M05
G1 X-0.03
M03 P30 S76.5
G1 Y-0.466
M05
G1 X-0.03
M03 P30 S76.5
G1 Y0.466
M05
G1 X-0.03
M03 P30 S76.5
G1 Y-0.466
M05
G1 X-0.03
M03 P30 S76.5
G1 Y0.466
M05
G1 X-0.03
M03 P30 S76.5
G1 Y-0.466
M05
G1 X-0.03
M03 P30 S76.5
G1 Y0.466
M05
G1 X-0.03
M03 P30 S76.5
G1 Y-0.466
M05
G1 X-0.03
M03 P30 S76.5
G1 Y0.466
M05
G1 X-0.03
M03 P30 S76.5
G1 Y-0.466
M05
G1 X-0.03
M03 P30 S76.5
G1 Y0.466
M05
G1 X-0.03
M03 P30 S76.5
G1 Y-0.466
M05
G1 X-0.03
M03 P30 S76.5
G1 Y0.466
M05
G1 X-0.03
M03 P30 S76.5
G1 Y-0.466
M05
G1 X-0.03
M03 P30 S76.5
G1 Y0.466
M05
G1 X-0.03
M03 P30 S76.5
G1 Y-3.593
M05
G1 X-0.03Y-0.08
M03 P30 S76.5
G1 Y3.673
M05
G1 X-0.03
M03 P30 S76.5
G1 Y-3.711
M05
G1 X-0.03Y-0.024
M03 P30 S76.5
G1 Y3.735
M05
G1 X-0.03
M03 P30 S76.5
G1 Y-3.752
M05
G1 X-0.03Y-0.011
M03 P30 S76.5
G1 Y3.763
M05
G1 X-0.03
M03 P30 S76.5
G1 Y-3.771
M05
G1 X-0.03
M03 P30 S76.5
G1 Y3.771
M05
G1 X-0.03
M03 P30 S76.5
G1 Y-3.775
M05
G1 X-0.03
M03 P30 S76.5
G1 Y3.775
M05
G1 X-0.03
M03 P30 S76.5
G1 Y-3.766
M05
G1 X-0.03Y0.015
M03 P30 S76.5
G1 Y3.751
M05
G1 X-0.03
M03 P30 S76.5
G1 Y-3.737
M05
G1 X-0.03Y0.021
M03 P30 S76.5
G1 Y3.716
M05
G1 X-0.03
M03 P30 S76.5
G1 Y-3.685
M05
G1 X-0.03Y0.055
M03 P30 S76.5
G1 Y3.63
M05
G1 X-0.03
M03 P30 S76.5
G1 Y-0.466
M05
G1 X-0.03
M03 P30 S76.5
G1 Y0.466
M05
G1 X-0.03
M03 P30 S76.5
G1 Y-0.466
M05
G1 X-0.03
M03 P30 S76.5
G1 Y0.466
M05
G1 X-0.03
M03 P30 S76.5
G1 Y-0.466
M05
G1 X-0.03
M03 P30 S76.5
G1 Y0.466
M05
G1 X-0.03
M03 P30 S76.5
G1 Y-0.466
M05
G1 X-0.03
M03 P30 S76.5
G1 Y0.466
M05
G1 X-0.03
M03 P30 S76.5
G1 Y-0.466
M05
G1 X-0.03
M03 P30 S76.5
G1 Y0.466
M05
G1 X-0.03
M03 P30 S76.5
G1 Y-0.466
M05
G1 X-0.03
M03 P30 S76.5
G1 Y0.466
M05
G1 X-0.03
M03 P30 S76.5
G1 Y-0.466
M05
G1 X-0.03
M03 P30 S76.5
G1 Y0.466
M05
G1 X-0.03
M03 P30 S76.5
G1 Y-0.466
M05
G1 X-0.03
M03 P30 S76.5
G1 Y0.466
M05
G1 X-0.03
M03 P30 S76.5
G1 Y-0.466
M05
G1 X-0.03
M03 P30 S76.5
G1 Y0.466
M05
G1 X-0.03
M03 P30 S76.5
G1 Y-0.466
M05
G1 X-0.03
M03 P30 S76.5
G1 Y0.466
M05
G1 X-0.03
M03 P30 S76.5
G1 Y-0.466
M05
G1 X-0.03
M03 P30 S76.5
G1 Y0.466
M05
G1 X-0.03
M03 P30 S76.5
G1 Y-0.466
M05
G1 X-0.03
M03 P30 S76.5
G1 Y0.466
M05
G1 X-0.03
M03 P30 S76.5
G1 Y-0.466
M05
G1 X-0.03
M03 P30 S76.5
G1 Y0.465
M05
G1 X-0.03
M03 P30 S76.5
G1 Y-0.462
M05
G1 X-0.03
M03 P30 S76.5
G1 Y0.458
M05
G1 X-0.03
M03 P30 S76.5
G1 Y-0.452
M05
G1 X-0.03Y0.005
M03 P30 S76.5
G1 Y0.437
M05
G1 X-0.03Y-0.008
M03 P30 S76.5
G1 Y-0.42
M05
G1 X-0.03Y0.013
M03 P30 S76.5
G1 Y0.396
M05
G1 X-0.03Y-0.017
M03 P30 S76.5
G1 Y-0.362
M05
G1 X-0.03Y0.026
M03 P30 S76.5
G1 Y0.316
M05
G1 X-0.03Y-0.037
M03 P30 S76.5
G1 Y-0.236
M05
G0 X1.246 Y1.661 F0
M03 P30 S76.5
G1 X0.157 F2300
M05
G1 X0.062Y0.03
M03 P30 S76.5
G1 X-0.28
M05
G1 X-0.037Y0.03
M03 P30 S76.5
G1 X0.353
M05
G1 X0.022Y0.03
M03 P30 S76.5
G1 X-0.399
M05
G1 X-0.017Y0.03
M03 P30 S76.5
G1 X0.433
M05
G1 X0.01Y0.03
M03 P30 S76.5
G1 X-0.453
M05
G1 Y0.03
M03 P30 S76.5
G1 X0.457
M05
G1 Y0.03
M03 P30 S76.5
G1 X-0.459
M05
G1 Y0.03
M03 P30 S76.5
G1 X0.462
M05
G1 Y0.03
M03 P30 S76.5
G1 X-0.465
M05
G1 Y0.03
M03 P30 S76.5
G1 X0.466
M05
G1 Y0.03
M03 P30 S76.5
G1 X-0.467
M05
G1 Y0.03
M03 P30 S76.5
G1 X0.467
M05
G1 Y0.03
M03 P30 S76.5
G1 X-0.467
M05
G1 Y0.03
M03 P30 S76.5
G1 X0.467
M05
G1 Y0.03
M03 P30 S76.5
G1 X-0.467
M05
G1 Y0.03
M03 P30 S76.5
G1 X0.467
M05
G1 Y0.03
M03 P30 S76.5
G1 X-0.467
M05
G1 Y0.03
M03 P30 S76.5
G1 X0.467
M05
G1 Y0.03
M03 P30 S76.5
G1 X-0.467
M05
G1 Y0.03
M03 P30 S76.5
G1 X0.467
M05
G1 Y0.03
M03 P30 S76.5
G1 X-0.467
M05
G1 Y0.03
M03 P30 S76.5
G1 X0.467
M05
G1 Y0.03
M03 P30 S76.5
G1 X-0.467
M05
G1 Y0.03
M03 P30 S76.5
G1 X0.467
M05
G1 Y0.03
M03 P30 S76.5
G1 X-0.467
M05
G1 Y0.03
M03 P30 S76.5
G1 X0.467
M05
G1 Y0.03
M03 P30 S76.5
G1 X-0.467
M05
G1 Y0.03
M03 P30 S76.5
G1 X0.467
M05
G1 Y0.03
M03 P30 S76.5
G1 X-0.467
M05
G1 Y0.03
M03 P30 S76.5
G1 X0.467
M05
G1 Y0.03
M03 P30 S76.5
G1 X-0.467
M05
G1 Y0.03
M03 P30 S76.5
G1 X0.467
M05
G1 Y0.03
M03 P30 S76.5
G1 X-0.467
M05
G1 Y0.03
M03 P30 S76.5
G1 X0.467
M05
G1 Y0.03
M03 P30 S76.5
G1 X-0.467
M05
G1 Y0.03
M03 P30 S76.5
G1 X0.467
M05
G1 Y0.03
M03 P30 S76.5
G1 X-0.467
M05
G1 Y0.03
M03 P30 S76.5
G1 X0.467
M05
G1 Y0.03
M03 P30 S76.5
G1 X-0.467
M05
G1 Y0.03
M03 P30 S76.5
G1 X0.467
M05
G1 Y0.03
M03 P30 S76.5
G1 X-0.467
M05
G1 Y0.03
M03 P30 S76.5
G1 X0.467
M05
G1 Y0.03
M03 P30 S76.5
G1 X-0.467
M05
G1 Y0.03
M03 P30 S76.5
G1 X0.467
M05
G1 Y0.03
M03 P30 S76.5
G1 X-0.467
M05
G1 Y0.03
M03 P30 S76.5
G1 X0.467
M05
G1 Y0.03
M03 P30 S76.5
G1 X-0.467
M05
G1 Y0.03
M03 P30 S76.5
G1 X0.467
M05
G1 Y0.03
M03 P30 S76.5
G1 X-0.467
M05
G1 Y0.03
M03 P30 S76.5
G1 X0.467
M05
G1 Y0.03
M03 P30 S76.5
G1 X-0.467
M05
G1 Y0.03
M03 P30 S76.5
G1 X0.467
M05
G1 Y0.03
M03 P30 S76.5
G1 X-0.467
M05
G1 Y0.03
M03 P30 S76.5
G1 X0.467
M05
G1 Y0.03
M03 P30 S76.5
G1 X-0.467
M05
G1 Y0.03
M03 P30 S76.5
G1 X0.467
M05
G1 Y0.03
M03 P30 S76.5
G1 X-0.467
M05
G1 Y0.03
M03 P30 S76.5
G1 X0.467
M05
G1 Y0.03
M03 P30 S76.5
G1 X-0.467
M05
G1 Y0.03
M03 P30 S76.5
G1 X0.467
M05
G1 Y0.03
M03 P30 S76.5
G1 X-0.467
M05
G1 Y0.03
M03 P30 S76.5
G1 X0.467
M05
G1 Y0.03
M03 P30 S76.5
G1 X-0.467
M05
G1 Y0.03
M03 P30 S76.5
G1 X0.467
M05
G1 Y0.03
M03 P30 S76.5
G1 X-0.467
M05
G1 Y0.03
M03 P30 S76.5
G1 X0.467
M05
G1 Y0.03
M03 P30 S76.5
G1 X-0.467
M05
G1 Y0.03
M03 P30 S76.5
G1 X0.467
M05
G1 Y0.03
M03 P30 S76.5
G1 X-0.467
M05
G1 Y0.03
M03 P30 S76.5
G1 X0.467
M05
G1 Y0.03
M03 P30 S76.5
G1 X-0.467
M05
G1 Y0.03
M03 P30 S76.5
G1 X0.467
M05
G1 Y0.03
M03 P30 S76.5
G1 X-0.467
M05
G1 Y0.03
M03 P30 S76.5
G1 X0.467
M05
G1 Y0.03
M03 P30 S76.5
G1 X-0.467
M05
G1 Y0.03
M03 P30 S76.5
G1 X0.467
M05
G1 Y0.03
M03 P30 S76.5
G1 X-0.467
M05
G1 Y0.03
M03 P30 S76.5
G1 X0.467
M05
G1 Y0.03
M03 P30 S76.5
G1 X-0.467
M05
G1 Y0.03
M03 P30 S76.5
G1 X0.467
M05
G1 Y0.03
M03 P30 S76.5
G1 X-0.467
M05
G1 Y0.03
M03 P30 S76.5
G1 X0.467
M05
G1 Y0.03
M03 P30 S76.5
G1 X-0.467
M05
G1 Y0.03
M03 P30 S76.5
G1 X0.467
M05
G1 Y0.03
M03 P30 S76.5
G1 X-0.467
M05
G1 Y0.03
M03 P30 S76.5
G1 X0.467
M05
G1 Y0.03
M03 P30 S76.5
G1 X-0.467
M05
G1 Y0.03
M03 P30 S76.5
G1 X0.467
M05
G1 Y0.03
M03 P30 S76.5
G1 X-0.467
M05
G1 Y0.03
M03 P30 S76.5
G1 X0.467
M05
G1 Y0.03
M03 P30 S76.5
G1 X-0.467
M05
G1 Y0.03
M03 P30 S76.5
G1 X0.467
M05
G1 Y0.03
M03 P30 S76.5
G1 X-0.467
M05
G1 Y0.03
M03 P30 S76.5
G1 X0.467
M05
G1 Y0.03
M03 P30 S76.5
G1 X-0.467
M05
G1 Y0.03
M03 P30 S76.5
G1 X0.467
M05
G1 Y0.03
M03 P30 S76.5
G1 X-0.467
M05
G1 Y0.03
M03 P30 S76.5
G1 X0.467
M05
G1 Y0.03
M03 P30 S76.5
G1 X-0.467
M05
G1 Y0.03
M03 P30 S76.5
G1 X0.467
M05
G1 Y0.03
M03 P30 S76.5
G1 X-0.467
M05
G1 Y0.03
M03 P30 S76.5
G1 X0.467
M05
G1 Y0.03
M03 P30 S76.5
G1 X-0.467
M05
G1 Y0.03
M03 P30 S76.5
G1 X0.467
M05
G1 Y0.03
M03 P30 S76.5
G1 X-0.467
M05
G1 Y0.03
M03 P30 S76.5
G1 X0.467
M05
G1 Y0.03
M03 P30 S76.5
G1 X-0.467
M05
G1 Y0.03
M03 P30 S76.5
G1 X0.467
M05
G1 Y0.03
M03 P30 S76.5
G1 X-0.467
M05
G1 X-0.796Y0.03
M03 P30 S76.5
G1 X2.065
M05
G1 X0.152Y0.03
M03 P30 S76.5
G1 X-2.363
M05
G1 X-0.048Y0.03
M03 P30 S76.5
G1 X2.46
M05
G1 X0.029Y0.03
M03 P30 S76.5
G1 X-2.52
M05
G1 X-0.018Y0.03
M03 P30 S76.5
G1 X2.558
M05
G1 X0.01Y0.03
M03 P30 S76.5
G1 X-2.58
M05
G1 X-0.009Y0.03
M03 P30 S76.5
G1 X2.596
M05
G1 Y0.03
M03 P30 S76.5
G1 X-2.6
M05
G1 Y0.03
M03 P30 S76.5
G1 X2.602
M05
G1 Y0.03
M03 P30 S76.5
G1 X-2.602
M05
G1 Y0.03
M03 P30 S76.5
G1 X2.592
M05
G1 X-0.009Y0.03
M03 P30 S76.5
G1 X-2.569
M05
G1 X0.016Y0.03
M03 P30 S76.5
G1 X2.535
M05
G1 X-0.025Y0.03
M03 P30 S76.5
G1 X-2.486
M05
G1 X0.043Y0.03
M03 P30 S76.5
G1 X2.404
M05
G1 X-0.075Y0.03
M03 P30 S76.5
G1 X-2.243
M05
G1 X2.393Y-0.342
M03 P30 S76.5
G1 Y0.233
M05
G1 X-0.03Y0.043
M03 P30 S76.5
G1 Y-0.315
M05
G1 X-0.03Y-0.022
M03 P30 S76.5
G1 Y0.365
M05
G1 X-0.03Y0.016
M03 P30 S76.5
G1 Y-0.398
M05
G1 X-0.03Y-0.012
M03 P30 S76.5
G1 Y0.423
M05
G1 X-0.03Y0.009
M03 P30 S76.5
G1 Y-0.439
M05
G1 X-0.03Y-0.007
M03 P30 S76.5
G1 Y0.451
M05
G1 X-0.03
M03 P30 S76.5
G1 Y-0.453
M05
G1 X-0.03
M03 P30 S76.5
G1 Y0.459
M05
G1 X-0.03
M03 P30 S76.5
G1 Y-0.463
M05
G1 X-0.03
M03 P30 S76.5
G1 Y0.465
M05
G1 X-0.03
M03 P30 S76.5
G1 Y-0.466
M05
G1 X-0.03
M03 P30 S76.5
G1 Y0.466
M05
G1 X-0.03
M03 P30 S76.5
G1 Y-0.466
M05
G1 X-0.03
M03 P30 S76.5
G1 Y0.466
M05
G1 X-0.03
M03 P30 S76.5
G1 Y-0.466
M05
G1 X-0.03
M03 P30 S76.5
G1 Y0.466
M05
G1 X-0.03
M03 P30 S76.5
G1 Y-0.466
M05
G1 X-0.03
M03 P30 S76.5
G1 Y0.466
M05
G1 X-0.03
M03 P30 S76.5
G1 Y-0.466
M05
G1 X-0.03
M03 P30 S76.5
G1 Y0.466
M05
G1 X-0.03
M03 P30 S76.5
G1 Y-0.466
M05
G1 X-0.03
M03 P30 S76.5
G1 Y0.466
M05
G1 X-0.03
M03 P30 S76.5
G1 Y-0.466
M05
G1 X-0.03
M03 P30 S76.5
G1 Y0.466
M05
G1 X-0.03
M03 P30 S76.5
G1 Y-0.466
M05
G1 X-0.03
M03 P30 S76.5
G1 Y0.466
M05
G1 X-0.03
M03 P30 S76.5
G1 Y-0.466
M05
G1 X-0.03
M03 P30 S76.5
G1 Y0.466
M05
G1 X-0.03
M03 P30 S76.5
G1 Y-0.466
M05
G1 X-0.03
M03 P30 S76.5
G1 Y0.466
M05
G1 X-0.03
M03 P30 S76.5
G1 Y-0.466
M05
G1 X-0.03
M03 P30 S76.5
G1 Y0.466
M05
G1 X-0.03
M03 P30 S76.5
G1 Y-0.466
M05
G1 X-0.03
M03 P30 S76.5
G1 Y0.466
M05
G1 X-0.03
M03 P30 S76.5
G1 Y-3.593
M05
G1 X-0.03Y-0.08
M03 P30 S76.5
G1 Y3.673
M05
G1 X-0.03
M03 P30 S76.5
G1 Y-3.711
M05
G1 X-0.03Y-0.024
M03 P30 S76.5
G1 Y3.735
M05
G1 X-0.03
M03 P30 S76.5
G1 Y-3.752
M05
G1 X-0.03Y-0.011
M03 P30 S76.5
G1 Y3.763
M05
G1 X-0.03
M03 P30 S76.5
G1 Y-3.771
M05
G1 X-0.03
M03 P30 S76.5
G1 Y3.771
M05
G1 X-0.03
M03 P30 S76.5
G1 Y-3.775
M05
G1 X-0.03
M03 P30 S76.5
G1 Y3.775
M05
G1 X-0.03
M03 P30 S76.5
G1 Y-3.766
M05
G1 X-0.03Y0.015
M03 P30 S76.5
G1 Y3.751
M05
G1 X-0.03
M03 P30 S76.5
G1 Y-3.737
M05
G1 X-0.03Y0.021
M03 P30 S76.5
G1 Y3.716
M05
G1 X-0.03
M03 P30 S76.5
G1 Y-3.685
M05
G1 X-0.03Y0.055
M03 P30 S76.5
G1 Y3.63
M05
G1 X-0.03
M03 P30 S76.5
G1 Y-0.466
M05
G1 X-0.03
M03 P30 S76.5
G1 Y0.466
M05
G1 X-0.03
M03 P30 S76.5
G1 Y-0.466
M05
G1 X-0.03
M03 P30 S76.5
G1 Y0.466
M05
G1 X-0.03
M03 P30 S76.5
G1 Y-0.466
M05
G1 X-0.03
M03 P30 S76.5
G1 Y0.466
M05
G1 X-0.03
M03 P30 S76.5
G1 Y-0.466
M05
G1 X-0.03
M03 P30 S76.5
G1 Y0.466
M05
G1 X-0.03
M03 P30 S76.5
G1 Y-0.466
M05
G1 X-0.03
M03 P30 S76.5
G1 Y0.466
M05
G1 X-0.03
M03 P30 S76.5
G1 Y-0.466
M05
G1 X-0.03
M03 P30 S76.5
G1 Y0.466
M05
G1 X-0.03
M03 P30 S76.5
G1 Y-0.466
M05
G1 X-0.03
M03 P30 S76.5
G1 Y0.466
M05
G1 X-0.03
M03 P30 S76.5
G1 Y-0.466
M05
G1 X-0.03
M03 P30 S76.5
G1 Y0.466
M05
G1 X-0.03
M03 P30 S76.5
G1 Y-0.466
M05
G1 X-0.03
M03 P30 S76.5
G1 Y0.466
M05
G1 X-0.03
M03 P30 S76.5
G1 Y-0.466
M05
G1 X-0.03
M03 P30 S76.5
G1 Y0.466
M05
G1 X-0.03
M03 P30 S76.5
G1 Y-0.466
M05
G1 X-0.03
M03 P30 S76.5
G1 Y0.466
M05
G1 X-0.03
M03 P30 S76.5
G1 Y-0.466
M05
G1 X-0.03
M03 P30 S76.5
G1 Y0.466
M05
G1 X-0.03
M03 P30 S76.5
G1 Y-0.466
M05
G1 X-0.03
M03 P30 S76.5
G1 Y0.465
M05
G1 X-0.03
M03 P30 S76.5
G1 Y-0.462
M05
G1 X-0.03
M03 P30 S76.5
G1 Y0.458
M05
G1 X-0.03
M03 P30 S76.5
G1 Y-0.452
M05
G1 X-0.03Y0.005
M03 P30 S76.5
G1 Y0.437
M05
G1 X-0.03Y-0.008
M03 P30 S76.5
G1 Y-0.42
M05
G1 X-0.03Y0.013
M03 P30 S76.5
G1 Y0.396
M05
G1 X-0.03Y-0.017
M03 P30 S76.5
G1 Y-0.362
M05
G1 X-0.03Y0.026
M03 P30 S76.5
G1 Y0.316
M05
G1 X-0.03Y-0.037
M03 P30 S76.5
G1 Y-0.236
M05
G0 X-1.602 Y1.659 F0
M03 P30 S76.5
G1 X0.145 F2300
M05
G1 X0.071Y0.03
M03 P30 S76.5
G1 X-0.292
M05
G1 X-0.038Y0.03
M03 P30 S76.5
G1 X0.368
M05
G1 X0.027Y0.03
M03 P30 S76.5
G1 X-0.421
M05
G1 X-0.02Y0.03
M03 P30 S76.5
G1 X0.458
M05
G1 X0.011Y0.03
M03 P30 S76.5
G1 X-0.485
M05
G1 X-0.009Y0.03
M03 P30 S76.5
G1 X0.505
M05
G1 X0.008Y0.03
M03 P30 S76.5
G1 X-0.517
M05
G1 Y0.03
M03 P30 S76.5
G1 X0.52
M05
G1 Y0.03
M03 P30 S76.5
G1 X-0.523
M05
G1 Y0.03
M03 P30 S76.5
G1 X0.523
M05
G1 Y0.03
M03 P30 S76.5
G1 X-0.524
M05
G1 Y0.03
M03 P30 S76.5
G1 X0.525
M05
G1 Y0.03
M03 P30 S76.5
G1 X-0.525
M05
G1 Y0.03
M03 P30 S76.5
G1 X0.525
M05
G1 Y0.03
M03 P30 S76.5
G1 X-0.525
M05
G1 Y0.03
M03 P30 S76.5
G1 X0.525
M05
G1 Y0.03
M03 P30 S76.5
G1 X-0.525
M05
G1 Y0.03
M03 P30 S76.5
G1 X0.525
M05
G1 Y0.03
M03 P30 S76.5
G1 X-0.525
M05
G1 Y0.03
M03 P30 S76.5
G1 X0.525
M05
G1 Y0.03
M03 P30 S76.5
G1 X-0.525
M05
G1 Y0.03
M03 P30 S76.5
G1 X0.525
M05
G1 Y0.03
M03 P30 S76.5
G1 X-0.525
M05
G1 Y0.03
M03 P30 S76.5
G1 X0.525
M05
G1 Y0.03
M03 P30 S76.5
G1 X-0.525
M05
G1 Y0.03
M03 P30 S76.5
G1 X0.525
M05
G1 Y0.03
M03 P30 S76.5
G1 X-0.525
M05
G1 Y0.03
M03 P30 S76.5
G1 X0.525
M05
G1 Y0.03
M03 P30 S76.5
G1 X-0.525
M05
G1 Y0.03
M03 P30 S76.5
G1 X0.525
M05
G1 Y0.03
M03 P30 S76.5
G1 X-0.525
M05
G1 Y0.03
M03 P30 S76.5
G1 X0.525
M05
G1 Y0.03
M03 P30 S76.5
G1 X-0.525
M05
G1 Y0.03
M03 P30 S76.5
G1 X0.525
M05
G1 Y0.03
M03 P30 S76.5
G1 X-0.525
M05
G1 Y0.03
M03 P30 S76.5
G1 X0.525
M05
G1 Y0.03
M03 P30 S76.5
G1 X-0.525
M05
G1 Y0.03
M03 P30 S76.5
G1 X0.525
M05
G1 Y0.03
M03 P30 S76.5
G1 X-0.525
M05
G1 Y0.03
M03 P30 S76.5
G1 X0.525
M05
G1 Y0.03
M03 P30 S76.5
G1 X-0.525
M05
G1 Y0.03
M03 P30 S76.5
G1 X0.525
M05
G1 Y0.03
M03 P30 S76.5
G1 X-0.525
M05
G1 Y0.03
M03 P30 S76.5
G1 X0.525
M05
G1 Y0.03
M03 P30 S76.5
G1 X-0.525
M05
G1 Y0.03
M03 P30 S76.5
G1 X0.525
M05
G1 Y0.03
M03 P30 S76.5
G1 X-0.525
M05
G1 Y0.03
M03 P30 S76.5
G1 X0.525
M05
G1 Y0.03
M03 P30 S76.5
G1 X-0.525
M05
G1 Y0.03
M03 P30 S76.5
G1 X0.525
M05
G1 Y0.03
M03 P30 S76.5
G1 X-0.525
M05
G1 Y0.03
M03 P30 S76.5
G1 X0.525
M05
G1 Y0.03
M03 P30 S76.5
G1 X-0.525
M05
G1 Y0.03
M03 P30 S76.5
G1 X0.525
M05
G1 Y0.03
M03 P30 S76.5
G1 X-0.525
M05
G1 Y0.03
M03 P30 S76.5
G1 X0.525
M05
G1 Y0.03
M03 P30 S76.5
G1 X-0.525
M05
G1 Y0.03
M03 P30 S76.5
G1 X0.525
M05
G1 Y0.03
M03 P30 S76.5
G1 X-0.525
M05
G1 Y0.03
M03 P30 S76.5
G1 X0.525
M05
G1 Y0.03
M03 P30 S76.5
G1 X-0.525
M05
G1 Y0.03
M03 P30 S76.5
G1 X0.525
M05
G1 Y0.03
M03 P30 S76.5
G1 X-0.525
M05
G1 Y0.03
M03 P30 S76.5
G1 X0.525
M05
G1 Y0.03
M03 P30 S76.5
G1 X-0.525
M05
G1 Y0.03
M03 P30 S76.5
G1 X0.525
M05
G1 Y0.03
M03 P30 S76.5
G1 X-0.525
M05
G1 Y0.03
M03 P30 S76.5
G1 X0.525
M05
G1 Y0.03
M03 P30 S76.5
G1 X-0.525
M05
G1 Y0.03
M03 P30 S76.5
G1 X0.525
M05
G1 X1.585Y0.03
M03 P30 S76.5
G1 X-2.11
M05
G1 Y0.03
M03 P30 S76.5
G1 X2.197
M05
G1 X0.045Y0.03
M03 P30 S76.5
G1 X-2.242
M05
G1 Y0.03
M03 P30 S76.5
G1 X2.269
M05
G1 X0.019Y0.03
M03 P30 S76.5
G1 X-2.288
M05
G1 Y0.03
M03 P30 S76.5
G1 X2.301
M05
G1 X0.009Y0.03
M03 P30 S76.5
G1 X-2.31
M05
G1 Y0.03
M03 P30 S76.5
G1 X2.314
M05
G1 Y0.03
M03 P30 S76.5
G1 X-2.314
M05
G1 Y0.03
M03 P30 S76.5
G1 X2.318
M05
G1 Y0.03
M03 P30 S76.5
G1 X-2.318
M05
G1 Y0.03
M03 P30 S76.5
G1 X2.31
M05
G1 X-0.009Y0.03
M03 P30 S76.5
G1 X-2.301
M05
G1 Y0.03
M03 P30 S76.5
G1 X2.285
M05
G1 X-0.021Y0.03
M03 P30 S76.5
G1 X-2.264
M05
G1 Y0.03
M03 P30 S76.5
G1 X2.228
M05
G1 X-0.055Y0.03
M03 P30 S76.5
G1 X-2.173
M05
G1 Y0.03
M03 P30 S76.5
G1 X1.996
M05
G1 X-1.471Y0.03
M03 P30 S76.5
G1 X-0.525
M05
G1 Y0.03
M03 P30 S76.5
G1 X0.525
M05
G1 Y0.03
M03 P30 S76.5
G1 X-0.525
M05
G1 Y0.03
M03 P30 S76.5
G1 X0.525
M05
G1 Y0.03
M03 P30 S76.5
G1 X-0.525
M05
G1 Y0.03
M03 P30 S76.5
G1 X0.525
M05
G1 Y0.03
M03 P30 S76.5
G1 X-0.525
M05
G1 Y0.03
M03 P30 S76.5
G1 X0.525
M05
G1 Y0.03
M03 P30 S76.5
G1 X-0.525
M05
G1 Y0.03
M03 P30 S76.5
G1 X0.525
M05
G1 Y0.03
M03 P30 S76.5
G1 X-0.525
M05
G1 Y0.03
M03 P30 S76.5
G1 X0.525
M05
G1 Y0.03
M03 P30 S76.5
G1 X-0.525
M05
G1 Y0.03
M03 P30 S76.5
G1 X0.525
M05
G1 Y0.03
M03 P30 S76.5
G1 X-0.525
M05
G1 Y0.03
M03 P30 S76.5
G1 X0.525
M05
G1 Y0.03
M03 P30 S76.5
G1 X-0.525
M05
G1 Y0.03
M03 P30 S76.5
G1 X0.525
M05
G1 Y0.03
M03 P30 S76.5
G1 X-0.525
M05
G1 Y0.03
M03 P30 S76.5
G1 X0.525
M05
G1 Y0.03
M03 P30 S76.5
G1 X-0.525
M05
G1 Y0.03
M03 P30 S76.5
G1 X0.525
M05
G1 Y0.03
M03 P30 S76.5
G1 X-0.525
M05
G1 Y0.03
M03 P30 S76.5
G1 X0.525
M05
G1 Y0.03
M03 P30 S76.5
G1 X-0.525
M05
G1 Y0.03
M03 P30 S76.5
G1 X0.525
M05
G1 Y0.03
M03 P30 S76.5
G1 X-0.525
M05
G1 Y0.03
M03 P30 S76.5
G1 X0.525
M05
G1 Y0.03
M03 P30 S76.5
G1 X-0.525
M05
G1 Y0.03
M03 P30 S76.5
G1 X0.525
M05
G1 Y0.03
M03 P30 S76.5
G1 X-0.525
M05
G1 Y0.03
M03 P30 S76.5
G1 X0.525
M05
G1 Y0.03
M03 P30 S76.5
G1 X-0.525
M05
G1 Y0.03
M03 P30 S76.5
G1 X0.525
M05
G1 Y0.03
M03 P30 S76.5
G1 X-0.525
M05
G1 Y0.03
M03 P30 S76.5
G1 X2.634
M05
G1 X0.109Y0.03
M03 P30 S76.5
G1 X-2.743
M05
G1 Y0.03
M03 P30 S76.5
G1 X2.793
M05
G1 X0.034Y0.03
M03 P30 S76.5
G1 X-2.827
M05
G1 Y0.03
M03 P30 S76.5
G1 X2.846
M05
G1 X0.015Y0.03
M03 P30 S76.5
G1 X-2.861
M05
G1 Y0.03
M03 P30 S76.5
G1 X2.871
M05
G1 X0.006Y0.03
M03 P30 S76.5
G1 X-2.874
M05
G1 Y0.03
M03 P30 S76.5
G1 X2.877
M05
G1 Y0.03
M03 P30 S76.5
G1 X-2.87
M05
G1 X0.005Y0.03
M03 P30 S76.5
G1 X2.862
M05
G1 X-0.007Y0.03
M03 P30 S76.5
G1 X-2.845
M05
G1 X0.012Y0.03
M03 P30 S76.5
G1 X2.823
M05
G1 X-0.016Y0.03
M03 P30 S76.5
G1 X-2.793
M05
G1 X0.022Y0.03
M03 P30 S76.5
G1 X2.752
M05
G1 X-0.034Y0.03
M03 P30 S76.5
G1 X-2.693
M05
G1 X0.043Y0.03
M03 P30 S76.5
G1 X2.6
M05
G1 X-0.118Y0.03
M03 P30 S76.5
G1 X-2.403
M05
G1 X2.646Y-0.347
M03 P30 S76.5
G1 Y0.179
M05
G1 X-0.03Y0.061
M03 P30 S76.5
G1 Y-0.3
M05
G1 X-0.03Y-0.033
M03 P30 S76.5
G1 Y0.367
M05
G1 X-0.03Y0.025
M03 P30 S76.5
G1 Y-0.416
M05
G1 X-0.03Y-0.015
M03 P30 S76.5
G1 Y0.446
M05
G1 X-0.03Y0.014
M03 P30 S76.5
G1 Y-0.473
M05
G1 X-0.03Y-0.008
M03 P30 S76.5
G1 Y0.489
M05
G1 X-0.03Y0.007
M03 P30 S76.5
G1 Y-0.503
M05
G1 X-0.03
M03 P30 S76.5
G1 Y0.506
M05
G1 X-0.03
M03 P30 S76.5
G1 Y-0.514
M05
G1 X-0.03
M03 P30 S76.5
G1 Y0.521
M05
G1 X-0.03
M03 P30 S76.5
G1 Y-0.523
M05
G1 X-0.03
M03 P30 S76.5
G1 Y0.525
M05
G1 X-0.03
M03 P30 S76.5
G1 Y-0.525
M05
G1 X-0.03
M03 P30 S76.5
G1 Y0.525
M05
G1 X-0.03
M03 P30 S76.5
G1 Y-0.525
M05
G1 X-0.03
M03 P30 S76.5
G1 Y0.525
M05
G1 X-0.03
M03 P30 S76.5
G1 Y-0.525
M05
G1 X-0.03
M03 P30 S76.5
G1 Y0.525
M05
G1 X-0.03
M03 P30 S76.5
G1 Y-0.525
M05
G1 Y-1.209
M03 P30 S76.5
G1 Y-0.241
M05
G1 X-0.03Y-0.048
M03 P30 S76.5
G1 Y0.332
M05
G1 Y1.166
M03 P30 S76.5
G1 Y0.525
M05
G1 X-0.03
M03 P30 S76.5
G1 Y-0.525
M05
G1 Y-1.139
M03 P30 S76.5
G1 Y-0.39
M05
G1 X-0.03Y-0.02
M03 P30 S76.5
G1 Y0.431
M05
G1 Y1.118
M03 P30 S76.5
G1 Y0.525
M05
G1 X-0.03
M03 P30 S76.5
G1 Y-0.525
M05
G1 Y-1.105
M03 P30 S76.5
G1 Y-0.46
M05
G1 X-0.03Y-0.013
M03 P30 S76.5
G1 Y0.485
M05
G1 Y1.093
M03 P30 S76.5
G1 Y0.525
M05
G1 X-0.03
M03 P30 S76.5
G1 Y-0.525
M05
G1 Y-1.086
M03 P30 S76.5
G1 Y-0.496
M05
G1 X-0.03Y-0.005
M03 P30 S76.5
G1 Y0.508
M05
G1 Y1.079
M03 P30 S76.5
G1 Y0.525
M05
G1 X-0.03
M03 P30 S76.5
G1 Y-0.525
M05
G1 Y-1.077
M03 P30 S76.5
G1 Y-0.515
M05
G1 X-0.03
M03 P30 S76.5
G1 Y0.517
M05
G1 Y1.075
M03 P30 S76.5
G1 Y0.525
M05
G1 X-0.03
M03 P30 S76.5
G1 Y-0.525
M05
G1 Y-1.073
M03 P30 S76.5
G1 Y-0.522
M05
G1 X-0.03
M03 P30 S76.5
G1 Y0.524
M05
G1 Y1.071
M03 P30 S76.5
G1 Y0.525
M05
G1 X-0.03
M03 P30 S76.5
G1 Y-0.525
M05
G1 Y-1.071
M03 P30 S76.5
G1 Y-0.525
M05
G1 X-0.03
M03 P30 S76.5
G1 Y0.525
M05
G1 Y1.071
M03 P30 S76.5
G1 Y0.525
M05
G1 X-0.03
M03 P30 S76.5
G1 Y-0.525
M05
G1 Y-1.071
M03 P30 S76.5
G1 Y-0.525
M05
G1 X-0.03
M03 P30 S76.5
G1 Y0.525
M05
G1 Y1.071
M03 P30 S76.5
G1 Y0.525
M05
G1 X-0.03
M03 P30 S76.5
G1 Y-0.525
M05
G1 Y-1.071
M03 P30 S76.5
G1 Y-0.525
M05
G1 X-0.03
M03 P30 S76.5
G1 Y0.525
M05
G1 Y1.071
M03 P30 S76.5
G1 Y0.525
M05
G1 X-0.03
M03 P30 S76.5
G1 Y-0.525
M05
G1 Y-1.071
M03 P30 S76.5
G1 Y-0.525
M05
G1 X-0.03
M03 P30 S76.5
G1 Y0.525
M05
G1 Y1.071
M03 P30 S76.5
G1 Y0.525
M05
G1 X-0.03
M03 P30 S76.5
G1 Y-0.525
M05
G1 Y-1.071
M03 P30 S76.5
G1 Y-0.525
M05
G1 X-0.03
M03 P30 S76.5
G1 Y0.525
M05
G1 Y1.071
M03 P30 S76.5
G1 Y0.525
M05
G1 X-0.03
M03 P30 S76.5
G1 Y-0.525
M05
G1 Y-1.071
M03 P30 S76.5
G1 Y-0.525
M05
G1 X-0.03
M03 P30 S76.5
G1 Y0.525
M05
G1 Y1.071
M03 P30 S76.5
G1 Y0.525
M05
G1 X-0.03
M03 P30 S76.5
G1 Y-0.525
M05
G1 Y-1.071
M03 P30 S76.5
G1 Y-0.525
M05
G1 X-0.03
M03 P30 S76.5
G1 Y0.525
M05
G1 Y1.071
M03 P30 S76.5
G1 Y0.525
M05
G1 X-0.03
M03 P30 S76.5
G1 Y-0.525
M05
G1 Y-1.071
M03 P30 S76.5
G1 Y-0.525
M05
G1 X-0.03
M03 P30 S76.5
G1 Y0.525
M05
G1 Y1.071
M03 P30 S76.5
G1 Y0.525
M05
G1 X-0.03
M03 P30 S76.5
G1 Y-0.525
M05
G1 Y-1.071
M03 P30 S76.5
G1 Y-0.525
M05
G1 X-0.03
M03 P30 S76.5
G1 Y0.525
M05
G1 Y1.071
M03 P30 S76.5
G1 Y0.525
M05
G1 X-0.03
M03 P30 S76.5
G1 Y-0.525
M05
G1 Y-1.071
M03 P30 S76.5
G1 Y-0.525
M05
G1 X-0.03
M03 P30 S76.5
G1 Y0.525
M05
G1 Y1.071
M03 P30 S76.5
G1 Y0.525
M05
G1 X-0.03
M03 P30 S76.5
G1 Y-0.525
M05
G1 Y-1.071
M03 P30 S76.5
G1 Y-0.525
M05
G1 X-0.03
M03 P30 S76.5
G1 Y0.525
M05
G1 Y1.071
M03 P30 S76.5
G1 Y0.525
M05
G1 X-0.03
M03 P30 S76.5
G1 Y-0.525
M05
G1 Y-1.071
M03 P30 S76.5
G1 Y-0.525
M05
G1 X-0.03
M03 P30 S76.5
G1 Y0.525
M05
G1 Y1.071
M03 P30 S76.5
G1 Y0.525
M05
G1 X-0.03
M03 P30 S76.5
G1 Y-0.525
M05
G1 Y-1.071
M03 P30 S76.5
G1 Y-0.525
M05
G1 X-0.03
M03 P30 S76.5
G1 Y0.525
M05
G1 Y1.071
M03 P30 S76.5
G1 Y0.525
M05
G1 X-0.03
M03 P30 S76.5
G1 Y-0.525
M05
G1 Y-1.071
M03 P30 S76.5
G1 Y-0.525
M05
G1 X-0.03
M03 P30 S76.5
G1 Y0.525
M05
G1 Y1.071
M03 P30 S76.5
G1 Y0.525
M05
G1 X-0.03
M03 P30 S76.5
G1 Y-0.525
M05
G1 Y-1.071
M03 P30 S76.5
G1 Y-0.525
M05
G1 X-0.03
M03 P30 S76.5
G1 Y0.525
M05
G1 Y1.071
M03 P30 S76.5
G1 Y0.525
M05
G1 X-0.03
M03 P30 S76.5
G1 Y-0.525
M05
G1 Y-1.071
M03 P30 S76.5
G1 Y-0.525
M05
G1 X-0.03
M03 P30 S76.5
G1 Y0.525
M05
G1 Y1.071
M03 P30 S76.5
G1 Y0.525
M05
G1 X-0.03
M03 P30 S76.5
G1 Y-0.525
M05
G1 Y-1.071
M03 P30 S76.5
G1 Y-0.525
M05
G1 X-0.03
M03 P30 S76.5
G1 Y0.525
M05
G1 Y1.071
M03 P30 S76.5
G1 Y0.525
M05
G1 X-0.03
M03 P30 S76.5
G1 Y-0.525
M05
G1 Y-1.071
M03 P30 S76.5
G1 Y-0.525
M05
G1 X-0.03
M03 P30 S76.5
G1 Y0.525
M05
G1 Y1.071
M03 P30 S76.5
G1 Y0.525
M05
G1 X-0.03
M03 P30 S76.5
G1 Y-0.525
M05
G1 Y-1.071
M03 P30 S76.5
G1 Y-0.525
M05
G1 X-0.03
M03 P30 S76.5
G1 Y0.525
M05
G1 Y1.071
M03 P30 S76.5
G1 Y0.525
M05
G1 X-0.03
M03 P30 S76.5
G1 Y-0.525
M05
G1 Y-1.071
M03 P30 S76.5
G1 Y-0.525
M05
G1 X-0.03
M03 P30 S76.5
G1 Y0.525
M05
G1 Y1.071
M03 P30 S76.5
G1 Y0.525
M05
G1 X-0.03
M03 P30 S76.5
G1 Y-0.525
M05
G1 Y-1.071
M03 P30 S76.5
G1 Y-0.525
M05
G1 X-0.03
M03 P30 S76.5
G1 Y0.525
M05
G1 Y1.071
M03 P30 S76.5
G1 Y0.525
M05
G1 X-0.03
M03 P30 S76.5
G1 Y-0.525
M05
G1 Y-1.071
M03 P30 S76.5
G1 Y-0.525
M05
G1 X-0.03
M03 P30 S76.5
G1 Y0.525
M05
G1 Y1.071
M03 P30 S76.5
G1 Y0.525
M05
G1 X-0.03
M03 P30 S76.5
G1 Y-0.525
M05
G1 Y-1.071
M03 P30 S76.5
G1 Y-0.525
M05
G1 X-0.03
M03 P30 S76.5
G1 Y0.525
M05
G1 Y1.071
M03 P30 S76.5
G1 Y0.525
M05
G1 X-0.03
M03 P30 S76.5
G1 Y-0.525
M05
G1 Y-1.071
M03 P30 S76.5
G1 Y-0.525
M05
G1 X-0.03
M03 P30 S76.5
G1 Y0.525
M05
G1 Y1.071
M03 P30 S76.5
G1 Y0.525
M05
G1 X-0.03
M03 P30 S76.5
G1 Y-4.107
M05
G1 X-0.03Y-0.051
M03 P30 S76.5
G1 Y4.158
M05
G1 X-0.03
M03 P30 S76.5
G1 Y-4.188
M05
G1 X-0.03Y-0.022
M03 P30 S76.5
G1 Y4.21
M05
G1 X-0.03
M03 P30 S76.5
G1 Y-4.226
M05
G1 X-0.03Y-0.01
M03 P30 S76.5
G1 Y4.237
M05
G1 X-0.03
M03 P30 S76.5
G1 Y-4.243
M05
G1 X-0.03
M03 P30 S76.5
G1 Y4.243
M05
G1 X-0.03
M03 P30 S76.5
G1 Y-4.249
M05
G1 X-0.03
M03 P30 S76.5
G1 Y4.241
M05
G1 X-0.03Y-0.01
M03 P30 S76.5
G1 Y-4.222
M05
G1 X-0.03Y0.01
M03 P30 S76.5
G1 Y4.202
M05
G1 X-0.03Y-0.014
M03 P30 S76.5
G1 Y-4.175
M05
G1 X-0.03Y0.016
M03 P30 S76.5
G1 Y4.138
M05
G1 X-0.03Y-0.033
M03 P30 S76.5
G1 Y-4.081
M05
G1 X-0.03Y0.038
M03 P30 S76.5
G1 Y4.002
M05
G1 X-0.03Y-0.08
M03 P30 S76.5
G1 Y-3.869
M05
G0 X-3.881 Y-0.155 F0
M03 P30 S76.5
G1 X0.308 F2300
M05
G1 X0.162Y0.03
M03 P30 S76.5
G1 X-0.645
M05
G1 X-0.094Y0.03
M03 P30 S76.5
G1 X0.842
M05
G1 X0.083Y0.03
M03 P30 S76.5
G1 X-1.012
M05
G1 X-0.062Y0.03
M03 P30 S76.5
G1 X1.146
M05
G1 X0.061Y0.03
M03 P30 S76.5
G1 X-1.27
M05
G1 X-0.051Y0.03
M03 P30 S76.5
G1 X1.375
M05
G1 X0.053Y0.03
M03 P30 S76.5
G1 X-1.475
M05
G1 X-0.046Y0.03
M03 P30 S76.5
G1 X1.563
M05
G1 X0.043Y0.03
M03 P30 S76.5
G1 X-1.647
M05
G1 X-0.037Y0.03
M03 P30 S76.5
G1 X1.725
M05
G1 X0.032Y0.03
M03 P30 S76.5
G1 X-1.793
M05
G1 X-0.037Y0.03
M03 P30 S76.5
G1 X1.862
M05
G1 X0.033Y0.03
M03 P30 S76.5
G1 X-1.926
M05
G1 X-0.03Y0.03
M03 P30 S76.5
G1 X1.984
M05
G1 X0.025Y0.03
M03 P30 S76.5
G1 X-2.039
M05
G1 X-0.03Y0.03
M03 P30 S76.5
G1 X2.094
M05
G1 X0.025Y0.03
M03 P30 S76.5
G1 X-2.144
M05
G1 X-0.026Y0.03
M03 P30 S76.5
G1 X0.92
M05
G1 X0.409
M03 P30 S76.5
G1 X0.861
M05
G1 X0.017Y0.03
M03 P30 S76.5
G1 X-0.787
M05
G1 X-0.598
M03 P30 S76.5
G1 X-0.847
M05
G1 X-0.025Y0.03
M03 P30 S76.5
G1 X0.803
M05
G1 X0.732
M03 P30 S76.5
G1 X0.739
M05
G1 X0.017Y0.03
M03 P30 S76.5
G1 X-0.708
M05
G1 X-0.835
M03 P30 S76.5
G1 X-0.771
M05
G1 X-0.021Y0.03
M03 P30 S76.5
G1 X0.74
M05
G1 X0.928
M03 P30 S76.5
G1 X0.682
M05
G1 X0.012Y0.03
M03 P30 S76.5
G1 X-0.659
M05
G1 X-1.002
M03 P30 S76.5
G1 X-0.722
M05
G1 X-0.02Y0.03
M03 P30 S76.5
G1 X0.702
M05
G1 X1.072
M03 P30 S76.5
G1 X0.64
M05
G1 X0.009Y0.03
M03 P30 S76.5
G1 X-0.623
M05
G1 X-1.132
M03 P30 S76.5
G1 X-0.689
M05
G1 X-0.021Y0.03
M03 P30 S76.5
G1 X0.677
M05
G1 X1.188
M03 P30 S76.5
G1 X0.608
M05
G1 X0.005Y0.03
M03 P30 S76.5
G1 X-0.594
M05
G1 X-1.237
M03 P30 S76.5
G1 X-0.664
M05
G1 X-0.018Y0.03
M03 P30 S76.5
G1 X0.655
M05
G1 X1.283
M03 P30 S76.5
G1 X0.58
M05
G1 Y0.03
M03 P30 S76.5
G1 X-0.567
M05
G1 X-1.324
M03 P30 S76.5
G1 X-0.645
M05
G1 X-0.017Y0.03
M03 P30 S76.5
G1 X0.64
M05
G1 X1.359
M03 P30 S76.5
G1 X0.564
M05
G1 Y0.03
M03 P30 S76.5
G1 X-0.552
M05
G1 X-1.394
M03 P30 S76.5
G1 X-0.635
M05
G1 X-0.016Y0.03
M03 P30 S76.5
G1 X0.628
M05
G1 X1.424
M03 P30 S76.5
G1 X0.548
M05
G1 Y0.03
M03 P30 S76.5
G1 X-0.541
M05
G1 X-1.453
M03 P30 S76.5
G1 X-0.62
M05
G1 X-0.015Y0.03
M03 P30 S76.5
G1 X0.614
M05
G1 X1.481
M03 P30 S76.5
G1 X0.537
M05
G1 Y0.03
M03 P30 S76.5
G1 X-0.533
M05
G1 X-1.504
M03 P30 S76.5
G1 X-0.609
M05
G1 X-0.014Y0.03
M03 P30 S76.5
G1 X0.604
M05
G1 X1.526
M03 P30 S76.5
G1 X0.531
M05
G1 X-2.076Y0.03
M03 P30 S76.5
G1 X-0.599
M05
G1 X-0.014Y0.03
M03 P30 S76.5
G1 X0.594
M05
G1 X-0.016Y0.03
M03 P30 S76.5
G1 X-0.589
M05
G1 X-0.012Y0.03
M03 P30 S76.5
G1 X0.586
M05
G1 X-0.015Y0.03
M03 P30 S76.5
G1 X-0.582
M05
G1 X-0.012Y0.03
M03 P30 S76.5
G1 X0.579
M05
G1 X-0.015Y0.03
M03 P30 S76.5
G1 X-0.575
M05
G1 X-0.012Y0.03
M03 P30 S76.5
G1 X0.573
M05
G1 X-0.012Y0.03
M03 P30 S76.5
G1 X-0.57
M05
G1 X-0.008Y0.03
M03 P30 S76.5
G1 X0.566
M05
G1 X-0.013Y0.03
M03 P30 S76.5
G1 X-0.562
M05
G1 X-0.009Y0.03
M03 P30 S76.5
G1 X0.559
M05
G1 X-0.011Y0.03
M03 P30 S76.5
G1 X-0.557
M05
G1 X-0.009Y0.03
M03 P30 S76.5
G1 X0.556
M05
G1 X-0.01Y0.03
M03 P30 S76.5
G1 X-0.553
M05
G1 X-0.006Y0.03
M03 P30 S76.5
G1 X0.55
M05
G1 X-0.01Y0.03
M03 P30 S76.5
G1 X-0.546
M05
G1 X-0.007Y0.03
M03 P30 S76.5
G1 X0.543
M05
G1 X-0.006Y0.03
M03 P30 S76.5
G1 X-0.543
M05
G1 X-0.006Y0.03
M03 P30 S76.5
G1 X0.542
M05
G1 X-0.007Y0.03
M03 P30 S76.5
G1 X-0.541
M05
G1 Y0.03
M03 P30 S76.5
G1 X0.534
M05
G1 X-0.007Y0.03
M03 P30 S76.5
G1 X-0.535
M05
G1 Y0.03
M03 P30 S76.5
G1 X0.529
M05
G1 Y0.03
M03 P30 S76.5
G1 X-0.536
M05
G1 Y0.03
M03 P30 S76.5
G1 X0.527
M05
G1 X2.342Y0.03
M03 P30 S76.5
G1 X-1.128
M05
G1 X-1.218
M03 P30 S76.5
G1 X-0.531
M05
G1 Y0.03
M03 P30 S76.5
G1 X0.526
M05
G1 X1.142
M03 P30 S76.5
G1 X1.209
M05
G1 Y0.03
M03 P30 S76.5
G1 X-1.248
M05
G1 X-1.107
M03 P30 S76.5
G1 X-0.526
M05
G1 Y0.03
M03 P30 S76.5
G1 X0.524
M05
G1 X1.08
M03 P30 S76.5
G1 X1.277
M05
G1 Y0.03
M03 P30 S76.5
G1 X-1.298
M05
G1 X-1.06
M03 P30 S76.5
G1 X-0.526
M05
G1 Y0.03
M03 P30 S76.5
G1 X0.524
M05
G1 X1.047
M03 P30 S76.5
G1 X1.313
M05
G1 Y0.03
M03 P30 S76.5
G1 X-1.323
M05
G1 X-1.038
M03 P30 S76.5
G1 X-0.526
M05
G1 Y0.03
M03 P30 S76.5
G1 X0.524
M05
G1 X1.033
M03 P30 S76.5
G1 X1.33
M05
G1 Y0.03
M03 P30 S76.5
G1 X-1.334
M05
G1 X-1.029
M03 P30 S76.5
G1 X-0.525
M05
G1 Y0.03
M03 P30 S76.5
G1 X0.526
M05
G1 X1.029
M03 P30 S76.5
G1 X1.329
M05
G1 Y0.03
M03 P30 S76.5
G1 X-1.325
M05
G1 X-1.032
M03 P30 S76.5
G1 X-0.525
M05
G1 Y0.03
M03 P30 S76.5
G1 X0.526
M05
G1 X1.036
M03 P30 S76.5
G1 X1.31
M05
G1 X-0.009Y0.03
M03 P30 S76.5
G1 X-1.289
M05
G1 X-1.047
M03 P30 S76.5
G1 X-0.524
M05
G1 Y0.03
M03 P30 S76.5
G1 X0.528
M05
G1 X1.06
M03 P30 S76.5
G1 X1.26
M05
G1 X-0.017Y0.03
M03 P30 S76.5
G1 X-1.221
M05
G1 X-1.079
M03 P30 S76.5
G1 X-0.526
M05
G1 Y0.03
M03 P30 S76.5
G1 X0.53
M05
G1 X1.106
M03 P30 S76.5
G1 X1.163
M05
G1 X-0.042Y0.03
M03 P30 S76.5
G1 X-1.071
M05
G1 X-1.153
M03 P30 S76.5
G1 X-0.528
M05
G1 Y0.03
M03 P30 S76.5
G1 X0.532
M05
G1 X1.229
M03 P30 S76.5
G1 X0.892
M05
G1 X-2.115Y0.03
M03 P30 S76.5
G1 X-0.529
M05
G1 Y0.03
M03 P30 S76.5
G1 X0.535
M05
G1 X0.006Y0.03
M03 P30 S76.5
G1 X-0.533
M05
G1 X0.005Y0.03
M03 P30 S76.5
G1 X0.534
M05
G1 X0.008Y0.03
M03 P30 S76.5
G1 X-0.536
M05
G1 X0.006Y0.03
M03 P30 S76.5
G1 X0.538
M05
G1 X0.008Y0.03
M03 P30 S76.5
G1 X-0.54
M05
G1 X0.006Y0.03
M03 P30 S76.5
G1 X0.542
M05
G1 X0.01Y0.03
M03 P30 S76.5
G1 X-0.545
M05
G1 X0.008Y0.03
M03 P30 S76.5
G1 X0.548
M05
G1 X0.011Y0.03
M03 P30 S76.5
G1 X-0.552
M05
G1 X0.008Y0.03
M03 P30 S76.5
G1 X0.554
M05
G1 X0.012Y0.03
M03 P30 S76.5
G1 X-0.557
M05
G1 X0.009Y0.03
M03 P30 S76.5
G1 X0.562
M05
G1 X0.013Y0.03
M03 P30 S76.5
G1 X-0.565
M05
G1 X0.009Y0.03
M03 P30 S76.5
G1 X0.569
M05
G1 X0.015Y0.03
M03 P30 S76.5
G1 X-0.574
M05
G1 X0.011Y0.03
M03 P30 S76.5
G1 X0.579
M05
G1 X0.017Y0.03
M03 P30 S76.5
G1 X-0.585
M05
G1 X0.011Y0.03
M03 P30 S76.5
G1 X0.591
M05
G1 X0.018Y0.03
M03 P30 S76.5
G1 X-0.597
M05
G1 X0.013Y0.03
M03 P30 S76.5
G1 X0.604
M05
G1 X0.019Y0.03
M03 P30 S76.5
G1 X-0.611
M05
G1 X0.013Y0.03
M03 P30 S76.5
G1 X0.618
M05
G1 X0.019Y0.03
M03 P30 S76.5
G1 X-0.624
M05
G1 X0.015Y0.03
M03 P30 S76.5
G1 X0.629
M05
G1 X0.019Y0.03
M03 P30 S76.5
G1 X-0.633
M05
G1 X0.014Y0.03
M03 P30 S76.5
G1 X0.639
M05
G1 X1.507
M03 P30 S76.5
G1 X0.416
M05
G1 X0.019Y0.03
M03 P30 S76.5
G1 X-0.459
M05
G1 X-1.46
M03 P30 S76.5
G1 X-0.646
M05
G1 X0.016Y0.03
M03 P30 S76.5
G1 X0.652
M05
G1 X1.414
M03 P30 S76.5
G1 X0.497
M05
G1 X0.009Y0.03
M03 P30 S76.5
G1 X-0.53
M05
G1 X-1.367
M03 P30 S76.5
G1 X-0.658
M05
G1 X0.016Y0.03
M03 P30 S76.5
G1 X0.666
M05
G1 X1.319
M03 P30 S76.5
G1 X0.562
M05
G1 Y0.03
M03 P30 S76.5
G1 X-0.586
M05
G1 X-1.267
M03 P30 S76.5
G1 X-0.676
M05
G1 X0.019Y0.03
M03 P30 S76.5
G1 X0.684
M05
G1 X1.213
M03 P30 S76.5
G1 X0.618
M05
G1 Y0.03
M03 P30 S76.5
G1 X-0.645
M05
G1 X-1.158
M03 P30 S76.5
G1 X-0.693
M05
G1 X0.019Y0.03
M03 P30 S76.5
G1 X0.708
M05
G1 X1.094
M03 P30 S76.5
G1 X0.667
M05
G1 X-0.007Y0.03
M03 P30 S76.5
G1 X-0.692
M05
G1 X-1.028
M03 P30 S76.5
G1 X-0.722
M05
G1 X0.022Y0.03
M03 P30 S76.5
G1 X0.735
M05
G1 X0.96
M03 P30 S76.5
G1 X0.714
M05
G1 X-0.015Y0.03
M03 P30 S76.5
G1 X-0.738
M05
G1 X-0.875
M03 P30 S76.5
G1 X-0.76
M05
G1 X0.022Y0.03
M03 P30 S76.5
G1 X0.783
M05
G1 X0.79
M03 P30 S76.5
G1 X0.761
M05
G1 X-0.021Y0.03
M03 P30 S76.5
G1 X-0.79
M05
G1 X-0.683
M03 P30 S76.5
G1 X-0.816
M05
G1 X0.024Y0.03
M03 P30 S76.5
G1 X0.859
M05
G1 X0.555
M03 P30 S76.5
G1 X0.83
M05
G1 X-0.023Y0.03
M03 P30 S76.5
G1 X-0.891
M05
G1 X-0.384
M03 P30 S76.5
G1 X-0.921
M05
G1 X0.026Y0.03
M03 P30 S76.5
G1 X2.145
M05
G1 X-0.025Y0.03
M03 P30 S76.5
G1 X-2.092
M05
G1 X0.027Y0.03
M03 P30 S76.5
G1 X2.036
M05
G1 X-0.031Y0.03
M03 P30 S76.5
G1 X-1.976
M05
G1 X0.032Y0.03
M03 P30 S76.5
G1 X1.913
M05
G1 X-0.033Y0.03
M03 P30 S76.5
G1 X-1.849
M05
G1 X0.033Y0.03
M03 P30 S76.5
G1 X1.78
M05
G1 X-0.036Y0.03
M03 P30 S76.5
G1 X-1.709
M05
G1 X0.036Y0.03
M03 P30 S76.5
G1 X1.635
M05
G1 X-0.043Y0.03
M03 P30 S76.5
G1 X-1.552
M05
G1 X0.045Y0.03
M03 P30 S76.5
G1 X1.463
M05
G1 X-0.048Y0.03
M03 P30 S76.5
G1 X-1.366
M05
G1 X0.054Y0.03
M03 P30 S76.5
G1 X1.257
M05
G1 X-0.056Y0.03
M03 P30 S76.5
G1 X-1.138
M05
G1 X0.07Y0.03
M03 P30 S76.5
G1 X0.997
M05
G1 X-0.076Y0.03
M03 P30 S76.5
G1 X-0.838
M05
G1 X0.105Y0.03
M03 P30 S76.5
G1 X0.631
M05
G1 X-0.158Y0.03
M03 P30 S76.5
G1 X-0.3
M05
G1 X0.826Y-3.12
M03 P30 S76.5
G1 X0.528
M05
G1 Y0.03
M03 P30 S76.5
G1 X-0.527
M05
G1 Y0.03
M03 P30 S76.5
G1 X0.527
M05
G1 Y0.03
M03 P30 S76.5
G1 X-0.525
M05
G1 Y0.03
M03 P30 S76.5
G1 X0.525
M05
G1 Y0.03
M03 P30 S76.5
G1 X-0.525
M05
G1 Y0.03
M03 P30 S76.5
G1 X0.525
M05
G1 Y0.03
M03 P30 S76.5
G1 X-0.525
M05
G1 Y0.03
M03 P30 S76.5
G1 X0.525
M05
G1 Y0.03
M03 P30 S76.5
G1 X-0.525
M05
G1 Y0.03
M03 P30 S76.5
G1 X0.525
M05
G1 Y0.03
M03 P30 S76.5
G1 X-0.525
M05
G1 Y0.03
M03 P30 S76.5
G1 X0.525
M05
G1 Y0.03
M03 P30 S76.5
G1 X-0.525
M05
G1 Y0.03
M03 P30 S76.5
G1 X0.525
M05
G1 Y0.03
M03 P30 S76.5
G1 X-0.525
M05
G1 Y0.03
M03 P30 S76.5
G1 X0.525
M05
G1 Y0.03
M03 P30 S76.5
G1 X-0.525
M05
G1 Y0.03
M03 P30 S76.5
G1 X0.524
M05
G1 Y0.03
M03 P30 S76.5
G1 X-0.524
M05
G1 Y0.03
M03 P30 S76.5
G1 X0.524
M05
G1 Y0.03
M03 P30 S76.5
G1 X-0.524
M05
G1 Y0.03
M03 P30 S76.5
G1 X0.524
M05
G1 Y0.03
M03 P30 S76.5
G1 X-0.524
M05
G1 Y0.03
M03 P30 S76.5
G1 X0.524
M05
G1 Y0.03
M03 P30 S76.5
G1 X-0.524
M05
G1 X0.227Y1.26
M03 P30 S76.5
G1 X0.067
M05
G1 X0.088Y0.03
M03 P30 S76.5
G1 X-0.228
M05
G1 X-0.038Y0.03
M03 P30 S76.5
G1 X0.308
M05
G1 X0.03Y0.03
M03 P30 S76.5
G1 X-0.366
M05
G1 X0.42Y-2.366
M03 P30 S76.5
G1 Y1.38
M05
G1 Y1.075
M03 P30 S76.5
G1 Y0.232
M05
G1 X-0.03Y0.061
M03 P30 S76.5
G1 Y-0.348
M05
G1 Y-0.943
M03 P30 S76.5
G1 Y-1.588
M05
G1 X-0.03Y-0.073
M03 P30 S76.5
G1 Y1.698
M05
G1 Y0.867
M03 P30 S76.5
G1 Y0.431
M05
G1 X-0.03Y0.041
M03 P30 S76.5
G1 Y-0.503
M05
G1 Y-0.813
M03 P30 S76.5
G1 Y-1.774
M05
G1 X-0.03Y-0.053
M03 P30 S76.5
G1 Y1.843
M05
G1 Y0.778
M03 P30 S76.5
G1 Y0.559
M05
G1 X-0.03Y0.036
M03 P30 S76.5
G1 Y-0.611
M05
G1 Y-0.752
M03 P30 S76.5
G1 Y-1.893
M05
G1 X-0.03Y-0.036
M03 P30 S76.5
G1 Y1.939
M05
G1 Y0.73
M03 P30 S76.5
G1 Y0.654
M05
G1 X-0.03Y0.029
M03 P30 S76.5
G1 Y-0.689
M05
G1 Y-0.72
M03 P30 S76.5
G1 Y-1.979
M05
G1 X-0.03Y-0.032
M03 P30 S76.5
G1 Y2.015
M05
G1 Y0.712
M03 P30 S76.5
G1 Y0.722
M05
G1 X-0.03Y0.028
M03 P30 S76.5
G1 Y-0.748
M05
G1 Y-0.712
M03 P30 S76.5
G1 Y-2.045
M05
G1 X-0.03Y-0.027
M03 P30 S76.5
G1 Y2.072
M05
G1 Y0.719
M03 P30 S76.5
G1 Y0.766
M05
G1 X-0.03Y0.025
M03 P30 S76.5
G1 Y-0.781
M05
G1 Y-0.729
M03 P30 S76.5
G1 Y-2.1
M05
G1 X-0.03Y-0.024
M03 P30 S76.5
G1 Y2.124
M05
G1 Y0.747
M03 P30 S76.5
G1 Y0.788
M05
G1 X-0.03Y0.022
M03 P30 S76.5
G1 Y-0.786
M05
G1 Y-0.771
M03 P30 S76.5
G1 Y-2.145
M05
G1 X-0.03Y-0.022
M03 P30 S76.5
G1 Y2.167
M05
G1 Y0.803
M03 P30 S76.5
G1 Y0.775
M05
G1 X-0.03Y0.021
M03 P30 S76.5
G1 Y-0.764
M05
G1 Y-0.835
M03 P30 S76.5
G1 Y-2.188
M05
G1 X-0.03Y-0.019
M03 P30 S76.5
G1 Y2.207
M05
G1 Y0.872
M03 P30 S76.5
G1 Y0.747
M05
G1 X-0.03Y0.019
M03 P30 S76.5
G1 Y-0.728
M05
G1 Y-0.91
M03 P30 S76.5
G1 Y-0.524
M05
G1 Y-0.741
M03 P30 S76.5
G1 Y-0.959
M05
G1 X-0.03Y-0.016
M03 P30 S76.5
G1 Y0.772
M05
G1 Y0.944
M03 P30 S76.5
G1 Y0.524
M05
G1 Y0.948
M03 P30 S76.5
G1 Y0.707
M05
G1 X-0.03Y0.016
M03 P30 S76.5
G1 Y-0.686
M05
G1 Y-0.985
M03 P30 S76.5
G1 Y-0.524
M05
G1 Y-1.019
M03 P30 S76.5
G1 Y-0.714
M05
G1 X-0.03Y-0.016
M03 P30 S76.5
G1 Y0.675
M05
G1 Y1.074
M03 P30 S76.5
G1 Y0.524
M05
G1 Y1.018
M03 P30 S76.5
G1 Y0.669
M05
G1 X-0.03Y0.016
M03 P30 S76.5
G1 Y-0.652
M05
G1 Y-1.051
M03 P30 S76.5
G1 Y-0.524
M05
G1 Y-1.119
M03 P30 S76.5
G1 Y-0.643
M05
G1 X-0.03Y-0.013
M03 P30 S76.5
G1 Y0.621
M05
G1 Y1.154
M03 P30 S76.5
G1 Y0.524
M05
G1 Y1.08
M03 P30 S76.5
G1 Y0.636
M05
G1 X-0.03Y0.013
M03 P30 S76.5
G1 Y-0.62
M05
G1 Y-1.109
M03 P30 S76.5
G1 Y-0.524
M05
G1 Y-1.186
M03 P30 S76.5
G1 Y-0.601
M05
G1 X-0.03Y-0.013
M03 P30 S76.5
G1 Y0.588
M05
G1 Y1.212
M03 P30 S76.5
G1 Y0.524
M05
G1 Y1.135
M03 P30 S76.5
G1 Y0.606
M05
G1 X-0.03Y0.013
M03 P30 S76.5
G1 Y-0.595
M05
G1 Y-1.159
M03 P30 S76.5
G1 Y-0.524
M05
G1 Y-1.238
M03 P30 S76.5
G1 Y-0.574
M05
G1 X-0.03Y-0.009
M03 P30 S76.5
G1 Y0.564
M05
G1 Y1.257
M03 P30 S76.5
G1 Y0.524
M05
G1 Y1.182
M03 P30 S76.5
G1 Y0.582
M05
G1 X-0.03Y0.009
M03 P30 S76.5
G1 Y-0.571
M05
G1 Y-1.202
M03 P30 S76.5
G1 Y-0.524
M05
G1 Y-1.275
M03 P30 S76.5
G1 Y-0.555
M05
G1 X-0.03Y-0.008
M03 P30 S76.5
G1 Y0.546
M05
G1 Y1.292
M03 P30 S76.5
G1 Y0.524
M05
G1 Y1.219
M03 P30 S76.5
G1 Y0.563
M05
G1 X-0.03Y0.009
M03 P30 S76.5
G1 Y-0.554
M05
G1 Y-1.237
M03 P30 S76.5
G1 Y-0.524
M05
G1 Y-1.305
M03 P30 S76.5
G1 Y-0.542
M05
G1 X-0.03Y-0.009
M03 P30 S76.5
G1 Y0.537
M05
G1 Y1.319
M03 P30 S76.5
G1 Y0.524
M05
G1 Y1.251
M03 P30 S76.5
G1 Y0.548
M05
G1 X-0.03Y0.006
M03 P30 S76.5
G1 Y-0.542
M05
G1 Y-1.263
M03 P30 S76.5
G1 Y-0.524
M05
G1 Y-1.329
M03 P30 S76.5
G1 Y-0.532
M05
G1 X-0.03Y-0.005
M03 P30 S76.5
G1 Y0.528
M05
G1 Y1.338
M03 P30 S76.5
G1 Y0.524
M05
G1 Y1.274
M03 P30 S76.5
G1 Y0.536
M05
G1 X-0.03Y0.005
M03 P30 S76.5
G1 Y-0.532
M05
G1 Y-1.283
M03 P30 S76.5
G1 Y-0.524
M05
G1 Y-1.346
M03 P30 S76.5
G1 Y-0.526
M05
G1 X-0.03Y-0.005
M03 P30 S76.5
G1 Y0.525
M05
G1 Y1.353
M03 P30 S76.5
G1 Y0.522
M05
G1 Y1.291
M03 P30 S76.5
G1 Y0.531
M05
G1 X-0.03
M03 P30 S76.5
G1 Y-0.524
M05
G1 Y-1.298
M03 P30 S76.5
G1 Y-0.521
M05
G1 Y-1.359
M03 P30 S76.5
G1 Y-0.525
M05
G1 X-0.03
M03 P30 S76.5
G1 Y0.52
M05
G1 Y1.365
M03 P30 S76.5
G1 Y0.516
M05
G1 Y1.307
M03 P30 S76.5
G1 Y0.525
M05
G1 X-0.03
M03 P30 S76.5
G1 Y-0.523
M05
G1 Y-1.313
M03 P30 S76.5
G1 Y-0.508
M05
G1 Y-1.371
M03 P30 S76.5
G1 Y-0.522
M05
G1 X-0.03
M03 P30 S76.5
G1 Y0.52
M05
G1 Y1.378
M03 P30 S76.5
G1 Y0.492
M05
G1 Y1.326
M03 P30 S76.5
G1 Y0.524
M05
G1 X-0.03
M03 P30 S76.5
G1 Y-0.522
M05
G1 Y-1.341
M03 P30 S76.5
G1 Y-0.467
M05
G1 Y-1.391
M03 P30 S76.5
G1 Y-0.523
M05
G1 X-0.03
M03 P30 S76.5
G1 Y0.524
M05
G1 Y1.407
M03 P30 S76.5
G1 Y0.433
M05
G1 Y1.356
M03 P30 S76.5
G1 Y0.527
M05
G1 X-0.03
M03 P30 S76.5
G1 Y-0.529
M05
G1 Y-1.374
M03 P30 S76.5
G1 Y-0.388
M05
G1 Y-1.431
M03 P30 S76.5
G1 Y-0.526
M05
G1 X-0.03
M03 P30 S76.5
G1 Y0.528
M05
G1 Y1.458
M03 P30 S76.5
G1 Y0.329
M05
G1 Y1.401
M03 P30 S76.5
G1 Y0.529
M05
G1 X-0.03
M03 P30 S76.5
G1 Y-0.531
M05
G1 Y-1.443
M03 P30 S76.5
G1 Y-0.243
M05
G1 Y-1.497
M03 P30 S76.5
G1 Y-0.527
M05
G1 X-0.03Y3.706
M03 P30 S76.5
G1 Y0.531
M05
G1 X-0.03
M03 P30 S76.5
G1 Y-0.537
M05
G1 X-0.03Y-0.007
M03 P30 S76.5
G1 Y0.536
M05
G1 X-0.03
M03 P30 S76.5
G1 Y-0.545
M05
G1 X-0.03Y-0.009
M03 P30 S76.5
G1 Y0.544
M05
G1 X-0.03Y-0.006
M03 P30 S76.5
G1 Y-0.552
M05
G1 X-0.03Y-0.013
M03 P30 S76.5
G1 Y0.559
M05
G1 X-0.03Y-0.008
M03 P30 S76.5
G1 Y-0.565
M05
G1 X-0.03Y-0.014
M03 P30 S76.5
G1 Y0.57
M05
G1 X-0.03Y-0.008
M03 P30 S76.5
G1 Y-0.58
M05
G1 X-0.03Y-0.02
M03 P30 S76.5
G1 Y0.591
M05
G1 X-0.03Y-0.011
M03 P30 S76.5
G1 Y-0.599
M05
G1 X-0.03Y-0.02
M03 P30 S76.5
G1 Y0.608
M05
G1 X-0.03Y-0.011
M03 P30 S76.5
G1 Y-0.623
M05
G1 X-0.03Y-0.027
M03 P30 S76.5
G1 Y0.637
M05
G1 X-0.03Y-0.013
M03 P30 S76.5
G1 Y-0.65
M05
G1 X-0.03Y-0.03
M03 P30 S76.5
G1 Y0.666
M05
G1 X-0.03Y-0.015
M03 P30 S76.5
G1 Y-0.684
M05
G1 X-0.03Y-0.033
M03 P30 S76.5
G1 Y0.701
M05
G1 X-0.03Y-0.017
M03 P30 S76.5
G1 Y-0.721
M05
G1 X-0.03Y-0.039
M03 P30 S76.5
G1 Y0.742
M05
G1 X-0.03Y-0.02
M03 P30 S76.5
G1 Y-0.762
M05
G1 X-0.03Y-0.045
M03 P30 S76.5
G1 Y0.787
M05
G1 X-0.03Y-0.022
M03 P30 S76.5
G1 Y-0.811
M05
G1 X-0.03Y-0.046
M03 P30 S76.5
G1 Y0.832
M05
G1 X-0.03Y-0.025
M03 P30 S76.5
G1 Y-0.853
M05
G1 X-0.03Y-0.046
M03 P30 S76.5
G1 Y0.874
M05
G1 X-0.03Y-0.029
M03 P30 S76.5
G1 Y-0.898
M05
G1 X-0.03Y-0.055
M03 P30 S76.5
G1 Y0.924
M05
G1 X-0.03Y-0.028
M03 P30 S76.5
G1 Y-0.96
M05
G1 Y-1.473
M03 P30 S76.5
G1 Y-0.959
M05
G1 X-0.03Y0.03
M03 P30 S76.5
G1 Y1.002
M05
G1 Y1.332
M03 P30 S76.5
G1 Y0.996
M05
G1 X-0.03Y-0.033
M03 P30 S76.5
G1 Y-1.046
M05
G1 Y-1.159
M03 P30 S76.5
G1 Y-1.062
M05
G1 X-0.03Y0.034
M03 P30 S76.5
G1 Y1.125
M05
G1 Y0.966
M03 P30 S76.5
G1 Y1.11
M05
G1 X-0.03Y-0.036
M03 P30 S76.5
G1 Y-1.196
M05
G1 Y-0.715
M03 P30 S76.5
G1 Y-1.218
M05
G1 X-0.03Y0.036
M03 P30 S76.5
G1 Y1.378
M05
G1 Y0.32
M03 P30 S76.5
G1 Y1.358
M05
G1 X-0.03Y-0.037
M03 P30 S76.5
G1 Y-2.983
M05
G1 X-0.03Y0.043
M03 P30 S76.5
G1 Y2.898
M05
G1 X-0.03Y-0.042
M03 P30 S76.5
G1 Y-2.813
M05
G1 X-0.03Y0.043
M03 P30 S76.5
G1 Y2.726
M05
G1 X-0.03Y-0.048
M03 P30 S76.5
G1 Y-2.632
M05
G1 X-0.03Y0.051
M03 P30 S76.5
G1 Y2.534
M05
G1 X-0.03Y-0.054
M03 P30 S76.5
G1 Y-2.429
M05
G1 X-0.03Y0.052
M03 P30 S76.5
G1 Y2.323
M05
G1 X-0.03Y-0.061
M03 P30 S76.5
G1 Y-2.2
M05
G1 X-0.03Y0.063
M03 P30 S76.5
G1 Y2.075
M05
G1 X-0.03Y-0.07
M03 P30 S76.5
G1 Y-1.941
M05
G1 X-0.03Y0.078
M03 P30 S76.5
G1 Y1.791
M05
G1 X-0.03Y-0.083
M03 P30 S76.5
G1 Y-1.63
M05
G1 X-0.03Y0.093
M03 P30 S76.5
G1 Y1.446
M05
G1 X-0.03Y-0.103
M03 P30 S76.5
G1 Y-1.241
M05
