;Header Start
;header_type: laser
;file_total_lines:33246
;max_x(mm): 103.65
;max_y(mm): 13.64
;max_z(mm): 0
;min_x(mm): 14.36
;min_y(mm): 3.04
;min_z(mm): 0
;Header End
; LightBurn 1.2.04
; SnapMaker device profile, user origin
; Bounds: X14.36 Y3.04 to X103.65 Y13.64

;USER START SCRIPT
M106 P0 S255
G28
G53
G0 Z45 F6000
G54
G92 Z0
G53
G0 X100 Y75 F6000
G54
G92 X0 Y0
M3 S0


;USER START SCRIPT

G21
G90
G0 X0 Y0 F0
G91
; Scan @ 2300 mm/min, 30% power
M106 P0 S255
M05
G0 X15.376 Y2.553 F0
; Layer C16
M03 P30 S76.5
G1 X0.323 F2300
M05
G1 X0.168Y0.03
M03 P30 S76.5
G1 X-0.659
M05
G1 X-0.099Y0.03
M03 P30 S76.5
G1 X0.866
M05
G1 X0.078Y0.03
M03 P30 S76.5
G1 X-1.033
M05
G1 X-0.062Y0.03
M03 P30 S76.5
G1 X1.166
M05
G1 X0.058Y0.03
M03 P30 S76.5
G1 X-1.287
M05
G1 X-0.053Y0.03
M03 P30 S76.5
G1 X1.396
M05
G1 X0.045Y0.03
M03 P30 S76.5
G1 X-1.488
M05
G1 X-0.046Y0.03
M03 P30 S76.5
G1 X1.578
M05
G1 X0.042Y0.03
M03 P30 S76.5
G1 X-1.662
M05
G1 X-0.037Y0.03
M03 P30 S76.5
G1 X1.735
M05
G1 X0.036Y0.03
M03 P30 S76.5
G1 X-1.808
M05
G1 X-0.036Y0.03
M03 P30 S76.5
G1 X1.879
M05
G1 X0.03Y0.03
M03 P30 S76.5
G1 X-1.94
M05
G1 X-0.03Y0.03
M03 P30 S76.5
G1 X2.001
M05
G1 X0.031Y0.03
M03 P30 S76.5
G1 X-2.062
M05
G1 X-0.029Y0.03
M03 P30 S76.5
G1 X2.117
M05
G1 X0.025Y0.03
M03 P30 S76.5
G1 X-2.169
M05
G1 X-0.025Y0.03
M03 P30 S76.5
G1 X0.927
M05
G1 X0.411
M03 P30 S76.5
G1 X0.882
M05
G1 X0.026Y0.03
M03 P30 S76.5
G1 X-0.82
M05
G1 X-0.598
M03 P30 S76.5
G1 X-0.853
M05
G1 X-0.026Y0.03
M03 P30 S76.5
G1 X0.81
M05
G1 X0.731
M03 P30 S76.5
G1 X0.781
M05
G1 X0.02Y0.03
M03 P30 S76.5
G1 X-0.748
M05
G1 X-0.839
M03 P30 S76.5
G1 X-0.779
M05
G1 X-0.021Y0.03
M03 P30 S76.5
G1 X0.748
M05
G1 X0.933
M03 P30 S76.5
G1 X0.724
M05
G1 X0.018Y0.03
M03 P30 S76.5
G1 X-0.701
M05
G1 X-1.014
M03 P30 S76.5
G1 X-0.729
M05
G1 X-0.02Y0.03
M03 P30 S76.5
G1 X0.708
M05
G1 X1.091
M03 P30 S76.5
G1 X0.675
M05
G1 X0.008Y0.03
M03 P30 S76.5
G1 X-0.65
M05
G1 X-1.157
M03 P30 S76.5
G1 X-0.696
M05
G1 X-0.021Y0.03
M03 P30 S76.5
G1 X0.683
M05
G1 X1.223
M03 P30 S76.5
G1 X0.621
M05
G1 Y0.03
M03 P30 S76.5
G1 X-0.594
M05
G1 X-1.28
M03 P30 S76.5
G1 X-0.672
M05
G1 X-0.017Y0.03
M03 P30 S76.5
G1 X0.662
M05
G1 X1.335
M03 P30 S76.5
G1 X0.563
M05
G1 X-0.006Y0.03
M03 P30 S76.5
G1 X-0.531
M05
G1 X-1.389
M03 P30 S76.5
G1 X-0.651
M05
G1 X-0.017Y0.03
M03 P30 S76.5
G1 X0.645
M05
G1 X1.436
M03 P30 S76.5
G1 X0.498
M05
G1 X-0.014Y0.03
M03 P30 S76.5
G1 X-0.459
M05
G1 X-1.485
M03 P30 S76.5
G1 X-0.638
M05
G1 X-0.017Y0.03
M03 P30 S76.5
G1 X0.632
M05
G1 X1.533
M03 P30 S76.5
G1 X0.414
M05
G1 X-1.97Y0.03
M03 P30 S76.5
G1 X-0.624
M05
G1 X-0.014Y0.03
M03 P30 S76.5
G1 X0.617
M05
G1 X-0.019Y0.03
M03 P30 S76.5
G1 X-0.612
M05
G1 X-0.013Y0.03
M03 P30 S76.5
G1 X0.606
M05
G1 X-0.019Y0.03
M03 P30 S76.5
G1 X-0.601
M05
G1 X-0.014Y0.03
M03 P30 S76.5
G1 X0.596
M05
G1 X-0.017Y0.03
M03 P30 S76.5
G1 X-0.591
M05
G1 X-0.011Y0.03
M03 P30 S76.5
G1 X0.586
M05
G1 X-0.015Y0.03
M03 P30 S76.5
G1 X-0.582
M05
G1 X-0.012Y0.03
M03 P30 S76.5
G1 X0.578
M05
G1 X-0.015Y0.03
M03 P30 S76.5
G1 X-0.574
M05
G1 X-0.011Y0.03
M03 P30 S76.5
G1 X0.571
M05
G1 X-0.012Y0.03
M03 P30 S76.5
G1 X-0.569
M05
G1 X-0.009Y0.03
M03 P30 S76.5
G1 X0.565
M05
G1 X-0.012Y0.03
M03 P30 S76.5
G1 X-0.561
M05
G1 X-0.008Y0.03
M03 P30 S76.5
G1 X0.556
M05
G1 X-0.011Y0.03
M03 P30 S76.5
G1 X-0.554
M05
G1 X-0.008Y0.03
M03 P30 S76.5
G1 X0.552
M05
G1 X-0.009Y0.03
M03 P30 S76.5
G1 X-0.552
M05
G1 X-0.007Y0.03
M03 P30 S76.5
G1 X0.549
M05
G1 X-0.01Y0.03
M03 P30 S76.5
G1 X-0.544
M05
G1 X-0.006Y0.03
M03 P30 S76.5
G1 X0.541
M05
G1 X-0.007Y0.03
M03 P30 S76.5
G1 X-0.54
M05
G1 X-0.006Y0.03
M03 P30 S76.5
G1 X0.538
M05
G1 X-0.007Y0.03
M03 P30 S76.5
G1 X-0.537
M05
G1 X-0.006Y0.03
M03 P30 S76.5
G1 X0.536
M05
G1 X-0.007Y0.03
M03 P30 S76.5
G1 X-0.532
M05
G1 Y0.03
M03 P30 S76.5
G1 X0.526
M05
G1 Y0.03
M03 P30 S76.5
G1 X-0.533
M05
G1 Y0.03
M03 P30 S76.5
G1 X0.525
M05
G1 Y0.03
M03 P30 S76.5
G1 X-0.533
M05
G1 Y0.03
M03 P30 S76.5
G1 X0.525
M05
G1 Y0.03
M03 P30 S76.5
G1 X-0.531
M05
G1 Y0.03
M03 P30 S76.5
G1 X0.524
M05
G1 Y0.03
M03 P30 S76.5
G1 X-0.527
M05
G1 Y0.03
M03 P30 S76.5
G1 X0.524
M05
G1 Y0.03
M03 P30 S76.5
G1 X-0.526
M05
G1 Y0.03
M03 P30 S76.5
G1 X0.523
M05
G1 Y0.03
M03 P30 S76.5
G1 X-0.525
M05
G1 Y0.03
M03 P30 S76.5
G1 X0.526
M05
G1 Y0.03
M03 P30 S76.5
G1 X-0.525
M05
G1 Y0.03
M03 P30 S76.5
G1 X0.528
M05
G1 Y0.03
M03 P30 S76.5
G1 X-0.525
M05
G1 Y0.03
M03 P30 S76.5
G1 X0.529
M05
G1 Y0.03
M03 P30 S76.5
G1 X-0.526
M05
G1 Y0.03
M03 P30 S76.5
G1 X0.533
M05
G1 Y0.03
M03 P30 S76.5
G1 X-0.529
M05
G1 Y0.03
M03 P30 S76.5
G1 X0.536
M05
G1 X0.005Y0.03
M03 P30 S76.5
G1 X-0.532
M05
G1 Y0.03
M03 P30 S76.5
G1 X0.537
M05
G1 X0.006Y0.03
M03 P30 S76.5
G1 X-0.535
M05
G1 Y0.03
M03 P30 S76.5
G1 X0.54
M05
G1 X0.007Y0.03
M03 P30 S76.5
G1 X-0.539
M05
G1 X0.007Y0.03
M03 P30 S76.5
G1 X0.539
M05
G1 X0.007Y0.03
M03 P30 S76.5
G1 X-0.539
M05
G1 X0.007Y0.03
M03 P30 S76.5
G1 X0.54
M05
G1 X0.008Y0.03
M03 P30 S76.5
G1 X-0.541
M05
G1 X0.007Y0.03
M03 P30 S76.5
G1 X0.543
M05
G1 X0.01Y0.03
M03 P30 S76.5
G1 X-0.546
M05
G1 X0.008Y0.03
M03 P30 S76.5
G1 X0.548
M05
G1 X0.009Y0.03
M03 P30 S76.5
G1 X-0.547
M05
G1 X0.009Y0.03
M03 P30 S76.5
G1 X0.551
M05
G1 X0.012Y0.03
M03 P30 S76.5
G1 X-0.553
M05
G1 X0.01Y0.03
M03 P30 S76.5
G1 X0.555
M05
G1 X0.012Y0.03
M03 P30 S76.5
G1 X-0.558
M05
G1 X0.01Y0.03
M03 P30 S76.5
G1 X0.563
M05
G1 X0.015Y0.03
M03 P30 S76.5
G1 X-0.566
M05
G1 X0.013Y0.03
M03 P30 S76.5
G1 X0.568
M05
G1 X0.015Y0.03
M03 P30 S76.5
G1 X-0.571
M05
G1 X0.013Y0.03
M03 P30 S76.5
G1 X0.576
M05
G1 X0.018Y0.03
M03 P30 S76.5
G1 X-0.582
M05
G1 X0.012Y0.03
M03 P30 S76.5
G1 X0.588
M05
G1 X0.018Y0.03
M03 P30 S76.5
G1 X-0.591
M05
G1 X0.015Y0.03
M03 P30 S76.5
G1 X0.597
M05
G1 X0.022Y0.03
M03 P30 S76.5
G1 X-0.604
M05
G1 X0.015Y0.03
M03 P30 S76.5
G1 X0.61
M05
G1 X1.959Y0.03
M03 P30 S76.5
G1 X-0.404
M05
G1 X-1.532
M03 P30 S76.5
G1 X-0.617
M05
G1 X0.015Y0.03
M03 P30 S76.5
G1 X0.627
M05
G1 X1.479
M03 P30 S76.5
G1 X0.456
M05
G1 X0.014Y0.03
M03 P30 S76.5
G1 X-0.495
M05
G1 X-1.428
M03 P30 S76.5
G1 X-0.635
M05
G1 X0.018Y0.03
M03 P30 S76.5
G1 X0.642
M05
G1 X1.379
M03 P30 S76.5
G1 X0.531
M05
G1 X0.009Y0.03
M03 P30 S76.5
G1 X-0.566
M05
G1 X-1.323
M03 P30 S76.5
G1 X-0.654
M05
G1 X0.019Y0.03
M03 P30 S76.5
G1 X0.665
M05
G1 X1.267
M03 P30 S76.5
G1 X0.596
M05
G1 Y0.03
M03 P30 S76.5
G1 X-0.624
M05
G1 X-1.208
M03 P30 S76.5
G1 X-0.678
M05
G1 X0.019Y0.03
M03 P30 S76.5
G1 X0.695
M05
G1 X1.142
M03 P30 S76.5
G1 X0.653
M05
G1 Y0.03
M03 P30 S76.5
G1 X-0.685
M05
G1 X-1.072
M03 P30 S76.5
G1 X-0.712
M05
G1 X0.022Y0.03
M03 P30 S76.5
G1 X0.729
M05
G1 X0.996
M03 P30 S76.5
G1 X0.708
M05
G1 X-0.013Y0.03
M03 P30 S76.5
G1 X-0.734
M05
G1 X-0.908
M03 P30 S76.5
G1 X-0.756
M05
G1 X0.021Y0.03
M03 P30 S76.5
G1 X0.786
M05
G1 X0.811
M03 P30 S76.5
G1 X0.761
M05
G1 X-0.022Y0.03
M03 P30 S76.5
G1 X-0.792
M05
G1 X-0.696
M03 P30 S76.5
G1 X-0.826
M05
G1 X0.024Y0.03
M03 P30 S76.5
G1 X0.874
M05
G1 X0.563
M03 P30 S76.5
G1 X0.83
M05
G1 X-0.023Y0.03
M03 P30 S76.5
G1 X-0.899
M05
G1 X-0.363
M03 P30 S76.5
G1 X-0.956
M05
G1 X0.027Y0.03
M03 P30 S76.5
G1 X2.164
M05
G1 X-0.028Y0.03
M03 P30 S76.5
G1 X-2.11
M05
G1 X0.028Y0.03
M03 P30 S76.5
G1 X2.055
M05
G1 X-0.029Y0.03
M03 P30 S76.5
G1 X-1.995
M05
G1 X0.032Y0.03
M03 P30 S76.5
G1 X1.93
M05
G1 X-0.032Y0.03
M03 P30 S76.5
G1 X-1.867
M05
G1 X0.034Y0.03
M03 P30 S76.5
G1 X1.801
M05
G1 X-0.037Y0.03
M03 P30 S76.5
G1 X-1.725
M05
G1 X0.039Y0.03
M03 P30 S76.5
G1 X1.647
M05
G1 X-0.039Y0.03
M03 P30 S76.5
G1 X-1.569
M05
G1 X0.049Y0.03
M03 P30 S76.5
G1 X1.476
M05
G1 X-0.048Y0.03
M03 P30 S76.5
G1 X-1.378
M05
G1 X0.05Y0.03
M03 P30 S76.5
G1 X1.279
M05
G1 X-0.06Y0.03
M03 P30 S76.5
G1 X-1.152
M05
G1 X0.068Y0.03
M03 P30 S76.5
G1 X1.019
M05
G1 X-0.08Y0.03
M03 P30 S76.5
G1 X-0.851
M05
G1 X0.1Y0.03
M03 P30 S76.5
G1 X0.656
M05
G1 X-0.157Y0.03
M03 P30 S76.5
G1 X-0.311
M05
G1 X0.914Y-3.24
M03 P30 S76.5
G1 X0.362
M05
G1 X-0.037Y0.03
M03 P30 S76.5
G1 X-0.287
M05
G1 X0.067Y0.03
M03 P30 S76.5
G1 X0.148
M05
G1 X-0.038Y2.13
M03 P30 S76.5
G1 X-0.101
M05
G1 X-0.08Y0.03
M03 P30 S76.5
G1 X0.264
M05
G1 X0.043Y0.03
M03 P30 S76.5
G1 X-0.345
M05
G1 X0.441Y-2.488
M03 P30 S76.5
G1 Y0.092
M05
G1 X-0.03Y0.088
M03 P30 S76.5
G1 Y-0.262
M05
G1 X-0.03Y-0.05
M03 P30 S76.5
G1 Y0.355
M05
G1 X-0.03Y0.028
M03 P30 S76.5
G1 Y-0.423
M05
G1 X-0.03Y-0.035
M03 P30 S76.5
G1 Y0.479
M05
G1 X-0.03Y0.016
M03 P30 S76.5
G1 Y-0.53
M05
G1 X-0.03Y-0.035
M03 P30 S76.5
G1 Y0.574
M05
G1 X-0.03Y0.006
M03 P30 S76.5
G1 Y-0.613
M05
G1 X-0.03Y-0.029
M03 P30 S76.5
G1 Y0.645
M05
G1 X-0.03
M03 P30 S76.5
G1 Y-0.675
M05
G1 X-0.03Y-0.029
M03 P30 S76.5
G1 Y0.701
M05
G1 X-0.03
M03 P30 S76.5
G1 Y-0.726
M05
G1 X-0.03Y-0.025
M03 P30 S76.5
G1 Y0.735
M05
G1 X-0.03Y-0.012
M03 P30 S76.5
G1 Y-0.748
M05
G1 X-0.03Y-0.024
M03 P30 S76.5
G1 Y0.748
M05
G1 X-0.03Y-0.027
M03 P30 S76.5
G1 Y-0.741
M05
G1 X-0.03Y-0.02
M03 P30 S76.5
G1 Y0.724
M05
G1 X-0.03Y-0.036
M03 P30 S76.5
G1 Y-0.709
M05
G1 X-0.03Y-0.019
M03 P30 S76.5
G1 Y0.691
M05
G1 X-0.03Y-0.034
M03 P30 S76.5
G1 Y-0.673
M05
G1 X-0.03Y-0.015
M03 P30 S76.5
G1 Y0.655
M05
G1 X-0.03Y-0.032
M03 P30 S76.5
G1 Y-0.639
M05
G1 X-0.03Y-0.016
M03 P30 S76.5
G1 Y0.629
M05
G1 X-0.03Y-0.027
M03 P30 S76.5
G1 Y-0.614
M05
G1 X-0.03Y-0.011
M03 P30 S76.5
G1 Y0.6
M05
G1 X-0.03Y-0.022
M03 P30 S76.5
G1 Y-0.59
M05
G1 X-0.03Y-0.012
M03 P30 S76.5
G1 Y0.58
M05
G1 X-0.03Y-0.02
M03 P30 S76.5
G1 Y-0.57
M05
G1 X-0.03Y-0.008
M03 P30 S76.5
G1 Y0.561
M05
G1 X-0.03Y-0.017
M03 P30 S76.5
G1 Y-0.552
M05
G1 X-0.03Y-0.008
M03 P30 S76.5
G1 Y0.546
M05
G1 X-0.03Y-0.011
M03 P30 S76.5
G1 Y-0.543
M05
G1 X-0.03Y-0.006
M03 P30 S76.5
G1 Y0.537
M05
G1 X-0.03Y-0.011
M03 P30 S76.5
G1 Y-0.531
M05
G1 X-0.03
M03 P30 S76.5
G1 Y0.525
M05
G1 X-0.03Y-0.007
M03 P30 S76.5
G1 Y-0.527
M05
G1 X-0.03
M03 P30 S76.5
G1 Y0.52
M05
G1 X-0.03
M03 P30 S76.5
G1 Y-0.526
M05
G1 X-0.03
M03 P30 S76.5
G1 Y0.521
M05
G1 X-0.03
M03 P30 S76.5
G1 Y-0.524
M05
G1 X-0.03
M03 P30 S76.5
G1 Y0.522
M05
G1 X-0.03
M03 P30 S76.5
G1 Y-0.525
M05
G1 X-0.03
M03 P30 S76.5
G1 Y0.527
M05
G1 X-0.03
M03 P30 S76.5
G1 Y-0.524
M05
G1 X-0.03
M03 P30 S76.5
G1 Y0.528
M05
G1 X-0.03Y0.005
M03 P30 S76.5
G1 Y-0.53
M05
G1 X-0.03
M03 P30 S76.5
G1 Y0.535
M05
G1 X-0.03Y0.006
M03 P30 S76.5
G1 Y-0.536
M05
G1 X-0.03Y0.005
M03 P30 S76.5
G1 Y0.539
M05
G1 X-0.03Y0.009
M03 P30 S76.5
G1 Y-0.542
M05
G1 X-0.03Y0.005
M03 P30 S76.5
G1 Y0.545
M05
G1 X-0.03Y0.013
M03 P30 S76.5
G1 Y-0.552
M05
G1 X-0.03Y0.005
M03 P30 S76.5
G1 Y0.56
M05
G1 X-0.03Y0.013
M03 P30 S76.5
G1 Y-0.565
M05
G1 X-0.03Y0.01
M03 P30 S76.5
G1 Y0.571
M05
G1 X-0.03Y0.017
M03 P30 S76.5
G1 Y-0.579
M05
G1 X-0.03Y0.01
M03 P30 S76.5
G1 Y0.586
M05
G1 X-0.03Y0.021
M03 P30 S76.5
G1 Y-0.597
M05
G1 X-0.03Y0.009
M03 P30 S76.5
G1 Y0.61
M05
G1 X-0.03Y0.022
M03 P30 S76.5
G1 Y-0.617
M05
G1 X-0.03Y0.014
M03 P30 S76.5
G1 Y0.629
M05
G1 X-0.03Y0.027
M03 P30 S76.5
G1 Y-0.642
M05
G1 X-0.03Y0.015
M03 P30 S76.5
G1 Y0.655
M05
G1 X-0.03Y0.033
M03 P30 S76.5
G1 Y-0.674
M05
G1 X-0.03Y0.018
M03 P30 S76.5
G1 Y0.688
M05
G1 X-0.03Y0.038
M03 P30 S76.5
G1 Y-0.707
M05
G1 X-0.03Y0.019
M03 P30 S76.5
G1 Y0.727
M05
G1 X-0.03Y0.038
M03 P30 S76.5
G1 Y-0.745
M05
G1 X-0.03Y0.019
M03 P30 S76.5
G1 Y0.768
M05
G1 X-0.03Y0.047
M03 P30 S76.5
G1 Y-0.792
M05
G1 X-0.03Y0.025
M03 P30 S76.5
G1 Y0.814
M05
G1 X-0.03Y0.051
M03 P30 S76.5
G1 Y-0.84
M05
G1 X-0.03Y0.024
M03 P30 S76.5
G1 Y0.873
M05
G1 X-0.03Y0.058
M03 P30 S76.5
G1 Y-0.904
M05
G1 X-0.03Y0.03
M03 P30 S76.5
G1 Y0.941
M05
G1 X-0.03Y2.439
M03 P30 S76.5
G1 Y-0.946
M05
G1 Y-1.421
M03 P30 S76.5
G1 Y-0.983
M05
G1 X-0.03Y0.03
M03 P30 S76.5
G1 Y1.035
M05
G1 Y1.259
M03 P30 S76.5
G1 Y0.994
M05
G1 X-0.03Y-0.034
M03 P30 S76.5
G1 Y-1.053
M05
G1 Y-1.073
M03 P30 S76.5
G1 Y-1.096
M05
G1 X-0.03Y0.036
M03 P30 S76.5
G1 Y1.178
M05
G1 Y0.834
M03 P30 S76.5
G1 Y1.14
M05
G1 X-0.03Y-0.035
M03 P30 S76.5
G1 Y-1.274
M05
G1 Y-0.502
M03 P30 S76.5
G1 Y-1.305
M05
G1 X-0.03Y0.035
M03 P30 S76.5
G1 Y3.007
M05
G1 X-0.03Y-0.042
M03 P30 S76.5
G1 Y-2.925
M05
G1 X-0.03Y0.043
M03 P30 S76.5
G1 Y2.84
M05
G1 X-0.03Y-0.041
M03 P30 S76.5
G1 Y-2.756
M05
G1 X-0.03Y0.043
M03 P30 S76.5
G1 Y2.665
M05
G1 X-0.03Y-0.049
M03 P30 S76.5
G1 Y-2.567
M05
G1 X-0.03Y0.052
M03 P30 S76.5
G1 Y2.467
M05
G1 X-0.03Y-0.052
M03 P30 S76.5
G1 Y-2.362
M05
G1 X-0.03Y0.056
M03 P30 S76.5
G1 Y2.247
M05
G1 X-0.03Y-0.06
M03 P30 S76.5
G1 Y-2.122
M05
G1 X-0.03Y0.065
M03 P30 S76.5
G1 Y1.995
M05
G1 X-0.03Y-0.073
M03 P30 S76.5
G1 Y-1.851
M05
G1 X-0.03Y0.082
M03 P30 S76.5
G1 Y1.696
M05
G1 X-0.03Y-0.086
M03 P30 S76.5
G1 Y-1.527
M05
G1 X-0.03Y0.106
M03 P30 S76.5
G1 Y1.328
M05
G1 X-0.03Y-0.116
M03 P30 S76.5
G1 Y-1.095
M05
G1 X-0.03Y0.154
M03 P30 S76.5
G1 Y0.804
M05
G1 X-0.03Y-0.279
M03 P30 S76.5
G1 Y-0.23
M05
G1 X2.88Y1.305
M03 P30 S76.5
G1 Y0.239
M05
G1 X-0.03Y0.046
M03 P30 S76.5
G1 Y-0.334
M05
G1 X-0.03Y-0.033
M03 P30 S76.5
G1 Y0.407
M05
G1 X-0.03Y0.04
M03 P30 S76.5
G1 Y-0.472
M05
G1 X-0.03Y-0.017
M03 P30 S76.5
G1 Y0.521
M05
G1 X-0.03Y0.033
M03 P30 S76.5
G1 Y-0.566
M05
G1 X-0.03Y-0.01
M03 P30 S76.5
G1 Y0.608
M05
G1 X-0.03Y0.03
M03 P30 S76.5
G1 Y-0.641
M05
G1 X-0.03
M03 P30 S76.5
G1 Y0.669
M05
G1 X-0.03Y0.028
M03 P30 S76.5
G1 Y-0.698
M05
G1 X-0.03
M03 P30 S76.5
G1 Y0.725
M05
G1 X-0.03Y0.025
M03 P30 S76.5
G1 Y-0.738
M05
G1 X-0.03Y0.013
M03 P30 S76.5
G1 Y0.748
M05
G1 X-0.03Y0.023
M03 P30 S76.5
G1 Y-0.751
M05
G1 X-0.03Y0.027
M03 P30 S76.5
G1 Y0.747
M05
G1 X-0.03Y0.02
M03 P30 S76.5
G1 Y-0.737
M05
G1 X-0.03Y0.034
M03 P30 S76.5
G1 Y0.722
M05
G1 X-0.03Y0.018
M03 P30 S76.5
G1 Y-0.703
M05
G1 X-0.03Y0.036
M03 P30 S76.5
G1 Y0.686
M05
G1 X-0.03Y0.018
M03 P30 S76.5
G1 Y-0.67
M05
G1 X-0.03Y0.032
M03 P30 S76.5
G1 Y0.652
M05
G1 X-0.03Y0.014
M03 P30 S76.5
G1 Y-0.636
M05
G1 X-0.03Y0.028
M03 P30 S76.5
G1 Y0.622
M05
G1 X-0.03Y0.014
M03 P30 S76.5
G1 Y-0.612
M05
G1 X-0.03Y0.025
M03 P30 S76.5
G1 Y0.599
M05
G1 X-0.03Y0.009
M03 P30 S76.5
G1 Y-0.588
M05
G1 X-0.03Y0.019
M03 P30 S76.5
G1 Y0.579
M05
G1 X-0.03Y0.009
M03 P30 S76.5
G1 Y-0.568
M05
G1 X-0.03Y0.014
M03 P30 S76.5
G1 Y0.564
M05
G1 X-0.03Y0.008
M03 P30 S76.5
G1 Y-0.557
M05
G1 X-0.03Y0.014
M03 P30 S76.5
G1 Y0.548
M05
G1 X-0.03Y0.006
M03 P30 S76.5
G1 Y-0.544
M05
G1 X-0.03Y0.01
M03 P30 S76.5
G1 Y0.539
M05
G1 X-0.03Y0.006
M03 P30 S76.5
G1 Y-0.536
M05
G1 X-0.03Y0.006
M03 P30 S76.5
G1 Y0.534
M05
G1 X-0.03
M03 P30 S76.5
G1 Y-0.528
M05
G1 X-0.03Y0.006
M03 P30 S76.5
G1 Y0.526
M05
G1 X-0.03
M03 P30 S76.5
G1 Y-0.524
M05
G1 X-0.03
M03 P30 S76.5
G1 Y0.527
M05
G1 X-0.03
M03 P30 S76.5
G1 Y-0.523
M05
G1 X-0.03
M03 P30 S76.5
G1 Y0.523
M05
G1 X-0.03
M03 P30 S76.5
G1 Y-0.528
M05
G1 X-0.03
M03 P30 S76.5
G1 Y0.524
M05
G1 X-0.03
M03 P30 S76.5
G1 Y-0.531
M05
G1 X-0.03
M03 P30 S76.5
G1 Y0.528
M05
G1 X-0.03
M03 P30 S76.5
G1 Y-0.54
M05
G1 X-0.03Y-0.008
M03 P30 S76.5
G1 Y0.54
M05
G1 X-0.03Y-0.005
M03 P30 S76.5
G1 Y-0.543
M05
G1 X-0.03Y-0.007
M03 P30 S76.5
G1 Y0.545
M05
G1 X-0.03Y-0.005
M03 P30 S76.5
G1 Y-0.552
M05
G1 X-0.03Y-0.013
M03 P30 S76.5
G1 Y0.559
M05
G1 X-0.03Y-0.008
M03 P30 S76.5
G1 Y-0.563
M05
G1 X-0.03Y-0.012
M03 P30 S76.5
G1 Y0.566
M05
G1 X-0.03Y-0.009
M03 P30 S76.5
G1 Y-0.573
M05
G1 X-0.03Y-0.018
M03 P30 S76.5
G1 Y0.582
M05
G1 X-0.03Y-0.009
M03 P30 S76.5
G1 Y-0.591
M05
G1 X-0.03Y-0.017
M03 P30 S76.5
G1 Y0.598
M05
G1 X-0.03Y-0.013
M03 P30 S76.5
G1 Y-0.607
M05
G1 X-0.03Y-0.024
M03 P30 S76.5
G1 Y0.618
M05
G1 X-0.03Y-0.013
M03 P30 S76.5
G1 Y-0.628
M05
G1 X-0.03Y-0.025
M03 P30 S76.5
G1 Y0.64
M05
G1 X-0.03Y-0.014
M03 P30 S76.5
G1 Y-0.655
M05
G1 X-0.03Y-0.029
M03 P30 S76.5
G1 Y0.666
M05
G1 X-0.03Y-0.018
M03 P30 S76.5
G1 Y-0.678
M05
G1 X-0.03Y-0.035
M03 P30 S76.5
G1 Y0.695
M05
G1 X-0.03Y-0.018
M03 P30 S76.5
G1 Y-0.712
M05
G1 X-0.03Y-0.035
M03 P30 S76.5
G1 Y0.728
M05
G1 X-0.03Y-0.023
M03 P30 S76.5
G1 Y-0.747
M05
G1 X-0.03Y-0.042
M03 P30 S76.5
G1 Y0.766
M05
G1 X-0.03Y-0.023
M03 P30 S76.5
G1 Y-0.788
M05
G1 X-0.03Y-0.05
M03 P30 S76.5
G1 Y0.815
M05
G1 X-0.03Y-0.027
M03 P30 S76.5
G1 Y-0.838
M05
G1 X-0.03Y-0.06
M03 P30 S76.5
G1 Y0.87
M05
G1 X-0.03Y-0.029
M03 P30 S76.5
G1 Y-0.901
M05
G0 X4.342 Y3.438 F0
M03 P30 S76.5
G1 X0.146 F2300
M05
G1 X0.074Y0.03
M03 P30 S76.5
G1 X-0.292
M05
G1 X-0.036Y0.03
M03 P30 S76.5
G1 X0.366
M05
G1 X0.026Y0.03
M03 P30 S76.5
G1 X-0.421
M05
G1 X-0.02Y0.03
M03 P30 S76.5
G1 X0.459
M05
G1 X0.011Y0.03
M03 P30 S76.5
G1 X-0.486
M05
G1 X-0.009Y0.03
M03 P30 S76.5
G1 X0.505
M05
G1 X0.008Y0.03
M03 P30 S76.5
G1 X-0.517
M05
G1 Y0.03
M03 P30 S76.5
G1 X0.52
M05
G1 Y0.03
M03 P30 S76.5
G1 X-0.523
M05
G1 Y0.03
M03 P30 S76.5
G1 X0.524
M05
G1 Y0.03
M03 P30 S76.5
G1 X-0.524
M05
G1 Y0.03
M03 P30 S76.5
G1 X0.524
M05
G1 Y0.03
M03 P30 S76.5
G1 X-0.524
M05
G1 Y0.03
M03 P30 S76.5
G1 X0.524
M05
G1 Y0.03
M03 P30 S76.5
G1 X-0.524
M05
G1 Y0.03
M03 P30 S76.5
G1 X0.524
M05
G1 Y0.03
M03 P30 S76.5
G1 X-0.524
M05
G1 Y0.03
M03 P30 S76.5
G1 X0.524
M05
G1 Y0.03
M03 P30 S76.5
G1 X-0.524
M05
G1 Y0.03
M03 P30 S76.5
G1 X0.524
M05
G1 Y0.03
M03 P30 S76.5
G1 X-0.524
M05
G1 Y0.03
M03 P30 S76.5
G1 X0.524
M05
G1 Y0.03
M03 P30 S76.5
G1 X-0.524
M05
G1 Y0.03
M03 P30 S76.5
G1 X0.524
M05
G1 Y0.03
M03 P30 S76.5
G1 X-0.524
M05
G1 Y0.03
M03 P30 S76.5
G1 X0.524
M05
G1 Y0.03
M03 P30 S76.5
G1 X-0.524
M05
G1 Y0.03
M03 P30 S76.5
G1 X0.524
M05
G1 Y0.03
M03 P30 S76.5
G1 X-0.524
M05
G1 Y0.03
M03 P30 S76.5
G1 X0.524
M05
G1 Y0.03
M03 P30 S76.5
G1 X-0.524
M05
G1 Y0.03
M03 P30 S76.5
G1 X0.524
M05
G1 Y0.03
M03 P30 S76.5
G1 X-0.524
M05
G1 Y0.03
M03 P30 S76.5
G1 X0.524
M05
G1 Y0.03
M03 P30 S76.5
G1 X-0.524
M05
G1 Y0.03
M03 P30 S76.5
G1 X0.524
M05
G1 Y0.03
M03 P30 S76.5
G1 X-0.524
M05
G1 Y0.03
M03 P30 S76.5
G1 X0.524
M05
G1 Y0.03
M03 P30 S76.5
G1 X-0.524
M05
G1 Y0.03
M03 P30 S76.5
G1 X0.524
M05
G1 Y0.03
M03 P30 S76.5
G1 X-0.524
M05
G1 Y0.03
M03 P30 S76.5
G1 X0.524
M05
G1 Y0.03
M03 P30 S76.5
G1 X-0.524
M05
G1 Y0.03
M03 P30 S76.5
G1 X0.524
M05
G1 Y0.03
M03 P30 S76.5
G1 X-0.524
M05
G1 Y0.03
M03 P30 S76.5
G1 X0.524
M05
G1 Y0.03
M03 P30 S76.5
G1 X-0.524
M05
G1 Y0.03
M03 P30 S76.5
G1 X0.524
M05
G1 Y0.03
M03 P30 S76.5
G1 X-0.524
M05
G1 Y0.03
M03 P30 S76.5
G1 X0.524
M05
G1 Y0.03
M03 P30 S76.5
G1 X-0.524
M05
G1 Y0.03
M03 P30 S76.5
G1 X0.524
M05
G1 Y0.03
M03 P30 S76.5
G1 X-0.524
M05
G1 Y0.03
M03 P30 S76.5
G1 X0.524
M05
G1 Y0.03
M03 P30 S76.5
G1 X-0.524
M05
G1 Y0.03
M03 P30 S76.5
G1 X0.524
M05
G1 Y0.03
M03 P30 S76.5
G1 X-0.524
M05
G1 Y0.03
M03 P30 S76.5
G1 X0.524
M05
G1 Y0.03
M03 P30 S76.5
G1 X-0.524
M05
G1 Y0.03
M03 P30 S76.5
G1 X0.524
M05
G1 Y0.03
M03 P30 S76.5
G1 X-0.524
M05
G1 Y0.03
M03 P30 S76.5
G1 X0.524
M05
G1 Y0.03
M03 P30 S76.5
G1 X-0.524
M05
G1 Y0.03
M03 P30 S76.5
G1 X0.524
M05
G1 Y0.03
M03 P30 S76.5
G1 X-0.524
M05
G1 Y0.03
M03 P30 S76.5
G1 X0.524
M05
G1 Y0.03
M03 P30 S76.5
G1 X-0.524
M05
G1 Y0.03
M03 P30 S76.5
G1 X0.524
M05
G1 Y0.03
M03 P30 S76.5
G1 X-0.524
M05
G1 Y0.03
M03 P30 S76.5
G1 X0.524
M05
G1 X1.599Y0.03
M03 P30 S76.5
G1 X-2.123
M05
G1 Y0.03
M03 P30 S76.5
G1 X2.198
M05
G1 X0.044Y0.03
M03 P30 S76.5
G1 X-2.242
M05
G1 Y0.03
M03 P30 S76.5
G1 X2.269
M05
G1 X0.018Y0.03
M03 P30 S76.5
G1 X-2.287
M05
G1 Y0.03
M03 P30 S76.5
G1 X2.301
M05
G1 X0.008Y0.03
M03 P30 S76.5
G1 X-2.309
M05
G1 Y0.03
M03 P30 S76.5
G1 X2.314
M05
G1 Y0.03
M03 P30 S76.5
G1 X-2.314
M05
G1 Y0.03
M03 P30 S76.5
G1 X2.318
M05
G1 Y0.03
M03 P30 S76.5
G1 X-2.318
M05
G1 Y0.03
M03 P30 S76.5
G1 X2.309
M05
G1 X-0.009Y0.03
M03 P30 S76.5
G1 X-2.3
M05
G1 Y0.03
M03 P30 S76.5
G1 X2.284
M05
G1 X-0.021Y0.03
M03 P30 S76.5
G1 X-2.263
M05
G1 Y0.03
M03 P30 S76.5
G1 X2.228
M05
G1 X-0.055Y0.03
M03 P30 S76.5
G1 X-2.173
M05
G1 Y0.03
M03 P30 S76.5
G1 X2.002
M05
G1 X-1.478Y0.03
M03 P30 S76.5
G1 X-0.524
M05
G1 Y0.03
M03 P30 S76.5
G1 X0.524
M05
G1 Y0.03
M03 P30 S76.5
G1 X-0.524
M05
G1 Y0.03
M03 P30 S76.5
G1 X0.524
M05
G1 Y0.03
M03 P30 S76.5
G1 X-0.524
M05
G1 Y0.03
M03 P30 S76.5
G1 X0.524
M05
G1 Y0.03
M03 P30 S76.5
G1 X-0.524
M05
G1 Y0.03
M03 P30 S76.5
G1 X0.524
M05
G1 Y0.03
M03 P30 S76.5
G1 X-0.524
M05
G1 Y0.03
M03 P30 S76.5
G1 X0.524
M05
G1 Y0.03
M03 P30 S76.5
G1 X-0.524
M05
G1 Y0.03
M03 P30 S76.5
G1 X0.524
M05
G1 Y0.03
M03 P30 S76.5
G1 X-0.524
M05
G1 Y0.03
M03 P30 S76.5
G1 X0.524
M05
G1 Y0.03
M03 P30 S76.5
G1 X-0.524
M05
G1 Y0.03
M03 P30 S76.5
G1 X0.524
M05
G1 Y0.03
M03 P30 S76.5
G1 X-0.524
M05
G1 Y0.03
M03 P30 S76.5
G1 X0.524
M05
G1 Y0.03
M03 P30 S76.5
G1 X-0.524
M05
G1 Y0.03
M03 P30 S76.5
G1 X0.524
M05
G1 Y0.03
M03 P30 S76.5
G1 X-0.524
M05
G1 Y0.03
M03 P30 S76.5
G1 X0.524
M05
G1 Y0.03
M03 P30 S76.5
G1 X-0.524
M05
G1 Y0.03
M03 P30 S76.5
G1 X0.524
M05
G1 Y0.03
M03 P30 S76.5
G1 X-0.524
M05
G1 Y0.03
M03 P30 S76.5
G1 X0.524
M05
G1 Y0.03
M03 P30 S76.5
G1 X-0.524
M05
G1 Y0.03
M03 P30 S76.5
G1 X0.524
M05
G1 Y0.03
M03 P30 S76.5
G1 X-0.524
M05
G1 Y0.03
M03 P30 S76.5
G1 X0.524
M05
G1 Y0.03
M03 P30 S76.5
G1 X-0.524
M05
G1 Y0.03
M03 P30 S76.5
G1 X0.524
M05
G1 Y0.03
M03 P30 S76.5
G1 X-0.524
M05
G1 Y0.03
M03 P30 S76.5
G1 X0.524
M05
G1 Y0.03
M03 P30 S76.5
G1 X-0.524
M05
G1 Y0.03
M03 P30 S76.5
G1 X2.637
M05
G1 X0.106Y0.03
M03 P30 S76.5
G1 X-2.743
M05
G1 Y0.03
M03 P30 S76.5
G1 X2.793
M05
G1 X0.034Y0.03
M03 P30 S76.5
G1 X-2.827
M05
G1 Y0.03
M03 P30 S76.5
G1 X2.846
M05
G1 X0.015Y0.03
M03 P30 S76.5
G1 X-2.861
M05
G1 Y0.03
M03 P30 S76.5
G1 X2.87
M05
G1 X0.007Y0.03
M03 P30 S76.5
G1 X-2.875
M05
G1 Y0.03
M03 P30 S76.5
G1 X2.877
M05
G1 Y0.03
M03 P30 S76.5
G1 X-2.87
M05
G1 X0.006Y0.03
M03 P30 S76.5
G1 X2.861
M05
G1 X-0.007Y0.03
M03 P30 S76.5
G1 X-2.845
M05
G1 X0.012Y0.03
M03 P30 S76.5
G1 X2.823
M05
G1 X-0.016Y0.03
M03 P30 S76.5
G1 X-2.792
M05
G1 X0.022Y0.03
M03 P30 S76.5
G1 X2.751
M05
G1 X-0.034Y0.03
M03 P30 S76.5
G1 X-2.692
M05
G1 X0.043Y0.03
M03 P30 S76.5
G1 X2.599
M05
G1 X-0.122Y0.03
M03 P30 S76.5
G1 X-2.397
M05
G1 X2.644Y-0.347
M03 P30 S76.5
G1 Y0.179
M05
G1 X-0.03Y0.061
M03 P30 S76.5
G1 Y-0.3
M05
G1 X-0.03Y-0.033
M03 P30 S76.5
G1 Y0.368
M05
G1 X-0.03Y0.025
M03 P30 S76.5
G1 Y-0.418
M05
G1 X-0.03Y-0.014
M03 P30 S76.5
G1 Y0.446
M05
G1 X-0.03Y0.014
M03 P30 S76.5
G1 Y-0.473
M05
G1 X-0.03Y-0.008
M03 P30 S76.5
G1 Y0.489
M05
G1 X-0.03Y0.007
M03 P30 S76.5
G1 Y-0.504
M05
G1 X-0.03
M03 P30 S76.5
G1 Y0.507
M05
G1 X-0.03
M03 P30 S76.5
G1 Y-0.514
M05
G1 X-0.03
M03 P30 S76.5
G1 Y0.52
M05
G1 X-0.03
M03 P30 S76.5
G1 Y-0.521
M05
G1 X-0.03
M03 P30 S76.5
G1 Y0.524
M05
G1 X-0.03
M03 P30 S76.5
G1 Y-0.524
M05
G1 X-0.03
M03 P30 S76.5
G1 Y0.524
M05
G1 X-0.03
M03 P30 S76.5
G1 Y-0.524
M05
G1 X-0.03
M03 P30 S76.5
G1 Y0.524
M05
G1 X-0.03
M03 P30 S76.5
G1 Y-0.524
M05
G1 X-0.03
M03 P30 S76.5
G1 Y0.524
M05
G1 X-0.03
M03 P30 S76.5
G1 Y-0.524
M05
G1 Y-1.21
M03 P30 S76.5
G1 Y-0.24
M05
G1 X-0.03Y-0.048
M03 P30 S76.5
G1 Y0.331
M05
G1 Y1.167
M03 P30 S76.5
G1 Y0.524
M05
G1 X-0.03
M03 P30 S76.5
G1 Y-0.524
M05
G1 Y-1.14
M03 P30 S76.5
G1 Y-0.39
M05
G1 X-0.03Y-0.02
M03 P30 S76.5
G1 Y0.432
M05
G1 Y1.118
M03 P30 S76.5
G1 Y0.524
M05
G1 X-0.03
M03 P30 S76.5
G1 Y-0.524
M05
G1 Y-1.105
M03 P30 S76.5
G1 Y-0.461
M05
G1 X-0.03Y-0.013
M03 P30 S76.5
G1 Y0.486
M05
G1 Y1.093
M03 P30 S76.5
G1 Y0.524
M05
G1 X-0.03
M03 P30 S76.5
G1 Y-0.524
M05
G1 Y-1.086
M03 P30 S76.5
G1 Y-0.5
M05
G1 X-0.03
M03 P30 S76.5
G1 Y0.507
M05
G1 Y1.079
M03 P30 S76.5
G1 Y0.524
M05
G1 X-0.03
M03 P30 S76.5
G1 Y-0.524
M05
G1 Y-1.078
M03 P30 S76.5
G1 Y-0.515
M05
G1 X-0.03
M03 P30 S76.5
G1 Y0.517
M05
G1 Y1.076
M03 P30 S76.5
G1 Y0.524
M05
G1 X-0.03
M03 P30 S76.5
G1 Y-0.524
M05
G1 Y-1.074
M03 P30 S76.5
G1 Y-0.521
M05
G1 X-0.03
M03 P30 S76.5
G1 Y0.523
M05
G1 Y1.072
M03 P30 S76.5
G1 Y0.524
M05
G1 X-0.03
M03 P30 S76.5
G1 Y-0.524
M05
G1 Y-1.071
M03 P30 S76.5
G1 Y-0.525
M05
G1 X-0.03
M03 P30 S76.5
G1 Y0.525
M05
G1 Y1.071
M03 P30 S76.5
G1 Y0.524
M05
G1 X-0.03
M03 P30 S76.5
G1 Y-0.524
M05
G1 Y-1.071
M03 P30 S76.5
G1 Y-0.525
M05
G1 X-0.03
M03 P30 S76.5
G1 Y0.525
M05
G1 Y1.071
M03 P30 S76.5
G1 Y0.524
M05
G1 X-0.03
M03 P30 S76.5
G1 Y-0.524
M05
G1 Y-1.071
M03 P30 S76.5
G1 Y-0.525
M05
G1 X-0.03
M03 P30 S76.5
G1 Y0.525
M05
G1 Y1.071
M03 P30 S76.5
G1 Y0.524
M05
G1 X-0.03
M03 P30 S76.5
G1 Y-0.524
M05
G1 Y-1.071
M03 P30 S76.5
G1 Y-0.525
M05
G1 X-0.03
M03 P30 S76.5
G1 Y0.525
M05
G1 Y1.071
M03 P30 S76.5
G1 Y0.524
M05
G1 X-0.03
M03 P30 S76.5
G1 Y-0.524
M05
G1 Y-1.071
M03 P30 S76.5
G1 Y-0.525
M05
G1 X-0.03
M03 P30 S76.5
G1 Y0.525
M05
G1 Y1.071
M03 P30 S76.5
G1 Y0.524
M05
G1 X-0.03
M03 P30 S76.5
G1 Y-0.524
M05
G1 Y-1.071
M03 P30 S76.5
G1 Y-0.525
M05
G1 X-0.03
M03 P30 S76.5
G1 Y0.525
M05
G1 Y1.071
M03 P30 S76.5
G1 Y0.524
M05
G1 X-0.03
M03 P30 S76.5
G1 Y-0.524
M05
G1 Y-1.071
M03 P30 S76.5
G1 Y-0.525
M05
G1 X-0.03
M03 P30 S76.5
G1 Y0.525
M05
G1 Y1.071
M03 P30 S76.5
G1 Y0.524
M05
G1 X-0.03
M03 P30 S76.5
G1 Y-0.524
M05
G1 Y-1.071
M03 P30 S76.5
G1 Y-0.525
M05
G1 X-0.03
M03 P30 S76.5
G1 Y0.525
M05
G1 Y1.071
M03 P30 S76.5
G1 Y0.524
M05
G1 X-0.03
M03 P30 S76.5
G1 Y-0.524
M05
G1 Y-1.071
M03 P30 S76.5
G1 Y-0.525
M05
G1 X-0.03
M03 P30 S76.5
G1 Y0.525
M05
G1 Y1.071
M03 P30 S76.5
G1 Y0.524
M05
G1 X-0.03
M03 P30 S76.5
G1 Y-0.524
M05
G1 Y-1.071
M03 P30 S76.5
G1 Y-0.525
M05
G1 X-0.03
M03 P30 S76.5
G1 Y0.525
M05
G1 Y1.071
M03 P30 S76.5
G1 Y0.524
M05
G1 X-0.03
M03 P30 S76.5
G1 Y-0.524
M05
G1 Y-1.071
M03 P30 S76.5
G1 Y-0.525
M05
G1 X-0.03
M03 P30 S76.5
G1 Y0.525
M05
G1 Y1.071
M03 P30 S76.5
G1 Y0.524
M05
G1 X-0.03
M03 P30 S76.5
G1 Y-0.524
M05
G1 Y-1.071
M03 P30 S76.5
G1 Y-0.525
M05
G1 X-0.03
M03 P30 S76.5
G1 Y0.525
M05
G1 Y1.071
M03 P30 S76.5
G1 Y0.524
M05
G1 X-0.03
M03 P30 S76.5
G1 Y-0.524
M05
G1 Y-1.071
M03 P30 S76.5
G1 Y-0.525
M05
G1 X-0.03
M03 P30 S76.5
G1 Y0.525
M05
G1 Y1.071
M03 P30 S76.5
G1 Y0.524
M05
G1 X-0.03
M03 P30 S76.5
G1 Y-0.524
M05
G1 Y-1.071
M03 P30 S76.5
G1 Y-0.525
M05
G1 X-0.03
M03 P30 S76.5
G1 Y0.525
M05
G1 Y1.071
M03 P30 S76.5
G1 Y0.524
M05
G1 X-0.03
M03 P30 S76.5
G1 Y-0.524
M05
G1 Y-1.071
M03 P30 S76.5
G1 Y-0.525
M05
G1 X-0.03
M03 P30 S76.5
G1 Y0.525
M05
G1 Y1.071
M03 P30 S76.5
G1 Y0.524
M05
G1 X-0.03
M03 P30 S76.5
G1 Y-0.524
M05
G1 Y-1.071
M03 P30 S76.5
G1 Y-0.525
M05
G1 X-0.03
M03 P30 S76.5
G1 Y0.525
M05
G1 Y1.071
M03 P30 S76.5
G1 Y0.524
M05
G1 X-0.03
M03 P30 S76.5
G1 Y-0.524
M05
G1 Y-1.071
M03 P30 S76.5
G1 Y-0.525
M05
G1 X-0.03
M03 P30 S76.5
G1 Y0.525
M05
G1 Y1.071
M03 P30 S76.5
G1 Y0.525
M05
G1 X-0.03
M03 P30 S76.5
G1 Y-0.525
M05
G1 Y-1.071
M03 P30 S76.5
G1 Y-0.525
M05
G1 X-0.03
M03 P30 S76.5
G1 Y0.525
M05
G1 Y1.071
M03 P30 S76.5
G1 Y0.525
M05
G1 X-0.03
M03 P30 S76.5
G1 Y-0.525
M05
G1 Y-1.071
M03 P30 S76.5
G1 Y-0.525
M05
G1 X-0.03
M03 P30 S76.5
G1 Y0.525
M05
G1 Y1.071
M03 P30 S76.5
G1 Y0.525
M05
G1 X-0.03
M03 P30 S76.5
G1 Y-0.525
M05
G1 Y-1.071
M03 P30 S76.5
G1 Y-0.525
M05
G1 X-0.03
M03 P30 S76.5
G1 Y0.525
M05
G1 Y1.071
M03 P30 S76.5
G1 Y0.525
M05
G1 X-0.03
M03 P30 S76.5
G1 Y-0.525
M05
G1 Y-1.071
M03 P30 S76.5
G1 Y-0.525
M05
G1 X-0.03
M03 P30 S76.5
G1 Y0.525
M05
G1 Y1.071
M03 P30 S76.5
G1 Y0.525
M05
G1 X-0.03
M03 P30 S76.5
G1 Y-0.525
M05
G1 Y-1.071
M03 P30 S76.5
G1 Y-0.525
M05
G1 X-0.03
M03 P30 S76.5
G1 Y0.525
M05
G1 Y1.071
M03 P30 S76.5
G1 Y0.525
M05
G1 X-0.03
M03 P30 S76.5
G1 Y-0.525
M05
G1 Y-1.071
M03 P30 S76.5
G1 Y-0.525
M05
G1 X-0.03
M03 P30 S76.5
G1 Y0.525
M05
G1 Y1.071
M03 P30 S76.5
G1 Y0.525
M05
G1 X-0.03
M03 P30 S76.5
G1 Y-0.525
M05
G1 Y-1.071
M03 P30 S76.5
G1 Y-0.525
M05
G1 X-0.03
M03 P30 S76.5
G1 Y0.525
M05
G1 Y1.071
M03 P30 S76.5
G1 Y0.525
M05
G1 X-0.03
M03 P30 S76.5
G1 Y-4.108
M05
G1 X-0.03Y-0.051
M03 P30 S76.5
G1 Y4.159
M05
G1 X-0.03
M03 P30 S76.5
G1 Y-4.189
M05
G1 X-0.03Y-0.022
M03 P30 S76.5
G1 Y4.211
M05
G1 X-0.03
M03 P30 S76.5
G1 Y-4.226
M05
G1 X-0.03Y-0.011
M03 P30 S76.5
G1 Y4.237
M05
G1 X-0.03
M03 P30 S76.5
G1 Y-4.242
M05
G1 X-0.03
M03 P30 S76.5
G1 Y4.242
M05
G1 X-0.03
M03 P30 S76.5
G1 Y-4.248
M05
G1 X-0.03
M03 P30 S76.5
G1 Y4.24
M05
G1 X-0.03Y-0.01
M03 P30 S76.5
G1 Y-4.222
M05
G1 X-0.03Y0.011
M03 P30 S76.5
G1 Y4.201
M05
G1 X-0.03Y-0.014
M03 P30 S76.5
G1 Y-4.175
M05
G1 X-0.03Y0.018
M03 P30 S76.5
G1 Y4.136
M05
G1 X-0.03Y-0.033
M03 P30 S76.5
G1 Y-4.078
M05
G1 X-0.03Y0.035
M03 P30 S76.5
G1 Y4.001
M05
G1 X-0.03Y-0.079
M03 P30 S76.5
G1 Y-3.869
M05
G0 X5.053 Y-0.154 F0
M03 P30 S76.5
G1 X0.323 F2300
M05
G1 X0.167Y0.03
M03 P30 S76.5
G1 X-0.658
M05
G1 X-0.099Y0.03
M03 P30 S76.5
G1 X0.866
M05
G1 X0.077Y0.03
M03 P30 S76.5
G1 X-1.032
M05
G1 X-0.063Y0.03
M03 P30 S76.5
G1 X1.167
M05
G1 X0.057Y0.03
M03 P30 S76.5
G1 X-1.286
M05
G1 X-0.053Y0.03
M03 P30 S76.5
G1 X1.396
M05
G1 X0.044Y0.03
M03 P30 S76.5
G1 X-1.487
M05
G1 X-0.047Y0.03
M03 P30 S76.5
G1 X1.579
M05
G1 X0.041Y0.03
M03 P30 S76.5
G1 X-1.662
M05
G1 X-0.036Y0.03
M03 P30 S76.5
G1 X1.735
M05
G1 X0.036Y0.03
M03 P30 S76.5
G1 X-1.808
M05
G1 X-0.036Y0.03
M03 P30 S76.5
G1 X1.879
M05
G1 X0.03Y0.03
M03 P30 S76.5
G1 X-1.941
M05
G1 X-0.029Y0.03
M03 P30 S76.5
G1 X2.001
M05
G1 X0.03Y0.03
M03 P30 S76.5
G1 X-2.061
M05
G1 X-0.03Y0.03
M03 P30 S76.5
G1 X2.117
M05
G1 X0.026Y0.03
M03 P30 S76.5
G1 X-2.169
M05
G1 X-0.026Y0.03
M03 P30 S76.5
G1 X0.928
M05
G1 X0.411
M03 P30 S76.5
G1 X0.882
M05
G1 X0.025Y0.03
M03 P30 S76.5
G1 X-0.82
M05
G1 X-0.597
M03 P30 S76.5
G1 X-0.854
M05
G1 X-0.025Y0.03
M03 P30 S76.5
G1 X0.81
M05
G1 X0.73
M03 P30 S76.5
G1 X0.782
M05
G1 X0.019Y0.03
M03 P30 S76.5
G1 X-0.748
M05
G1 X-0.839
M03 P30 S76.5
G1 X-0.778
M05
G1 X-0.021Y0.03
M03 P30 S76.5
G1 X0.748
M05
G1 X0.933
M03 P30 S76.5
G1 X0.723
M05
G1 X0.018Y0.03
M03 P30 S76.5
G1 X-0.7
M05
G1 X-1.015
M03 P30 S76.5
G1 X-0.728
M05
G1 X-0.021Y0.03
M03 P30 S76.5
G1 X0.709
M05
G1 X1.09
M03 P30 S76.5
G1 X0.676
M05
G1 X0.007Y0.03
M03 P30 S76.5
G1 X-0.649
M05
G1 X-1.158
M03 P30 S76.5
G1 X-0.696
M05
G1 X-0.02Y0.03
M03 P30 S76.5
G1 X0.683
M05
G1 X1.222
M03 P30 S76.5
G1 X0.622
M05
G1 Y0.03
M03 P30 S76.5
G1 X-0.594
M05
G1 X-1.28
M03 P30 S76.5
G1 X-0.672
M05
G1 X-0.017Y0.03
M03 P30 S76.5
G1 X0.661
M05
G1 X1.336
M03 P30 S76.5
G1 X0.563
M05
G1 X-0.007Y0.03
M03 P30 S76.5
G1 X-0.531
M05
G1 X-1.388
M03 P30 S76.5
G1 X-0.651
M05
G1 X-0.017Y0.03
M03 P30 S76.5
G1 X0.644
M05
G1 X1.437
M03 P30 S76.5
G1 X0.498
M05
G1 X-0.015Y0.03
M03 P30 S76.5
G1 X-0.458
M05
G1 X-1.485
M03 P30 S76.5
G1 X-0.638
M05
G1 X-0.018Y0.03
M03 P30 S76.5
G1 X0.633
M05
G1 X1.532
M03 P30 S76.5
G1 X0.415
M05
G1 X-1.97Y0.03
M03 P30 S76.5
G1 X-0.624
M05
G1 X-0.014Y0.03
M03 P30 S76.5
G1 X0.617
M05
G1 X-0.019Y0.03
M03 P30 S76.5
G1 X-0.612
M05
G1 X-0.014Y0.03
M03 P30 S76.5
G1 X0.606
M05
G1 X-0.019Y0.03
M03 P30 S76.5
G1 X-0.601
M05
G1 X-0.013Y0.03
M03 P30 S76.5
G1 X0.595
M05
G1 X-0.016Y0.03
M03 P30 S76.5
G1 X-0.592
M05
G1 X-0.011Y0.03
M03 P30 S76.5
G1 X0.587
M05
G1 X-0.015Y0.03
M03 P30 S76.5
G1 X-0.583
M05
G1 X-0.011Y0.03
M03 P30 S76.5
G1 X0.578
M05
G1 X-0.016Y0.03
M03 P30 S76.5
G1 X-0.573
M05
G1 X-0.011Y0.03
M03 P30 S76.5
G1 X0.571
M05
G1 X-0.013Y0.03
M03 P30 S76.5
G1 X-0.569
M05
G1 X-0.008Y0.03
M03 P30 S76.5
G1 X0.565
M05
G1 X-0.013Y0.03
M03 P30 S76.5
G1 X-0.56
M05
G1 X-0.009Y0.03
M03 P30 S76.5
G1 X0.557
M05
G1 X-0.011Y0.03
M03 P30 S76.5
G1 X-0.554
M05
G1 X-0.009Y0.03
M03 P30 S76.5
G1 X0.553
M05
G1 X-0.01Y0.03
M03 P30 S76.5
G1 X-0.551
M05
G1 X-0.007Y0.03
M03 P30 S76.5
G1 X0.549
M05
G1 X-0.01Y0.03
M03 P30 S76.5
G1 X-0.545
M05
G1 X-0.006Y0.03
M03 P30 S76.5
G1 X0.542
M05
G1 X-0.008Y0.03
M03 P30 S76.5
G1 X-0.539
M05
G1 X-0.006Y0.03
M03 P30 S76.5
G1 X0.538
M05
G1 X-0.007Y0.03
M03 P30 S76.5
G1 X-0.537
M05
G1 X-0.006Y0.03
M03 P30 S76.5
G1 X0.536
M05
G1 X-0.007Y0.03
M03 P30 S76.5
G1 X-0.533
M05
G1 Y0.03
M03 P30 S76.5
G1 X0.527
M05
G1 Y0.03
M03 P30 S76.5
G1 X-0.534
M05
G1 Y0.03
M03 P30 S76.5
G1 X0.526
M05
G1 Y0.03
M03 P30 S76.5
G1 X-0.533
M05
G1 Y0.03
M03 P30 S76.5
G1 X0.524
M05
G1 Y0.03
M03 P30 S76.5
G1 X-0.531
M05
G1 Y0.03
M03 P30 S76.5
G1 X0.525
M05
G1 Y0.03
M03 P30 S76.5
G1 X-0.527
M05
G1 Y0.03
M03 P30 S76.5
G1 X0.524
M05
G1 Y0.03
M03 P30 S76.5
G1 X-0.526
M05
G1 Y0.03
M03 P30 S76.5
G1 X0.523
M05
G1 Y0.03
M03 P30 S76.5
G1 X-0.526
M05
G1 Y0.03
M03 P30 S76.5
G1 X0.526
M05
G1 Y0.03
M03 P30 S76.5
G1 X-0.524
M05
G1 Y0.03
M03 P30 S76.5
G1 X0.527
M05
G1 Y0.03
M03 P30 S76.5
G1 X-0.525
M05
G1 Y0.03
M03 P30 S76.5
G1 X0.53
M05
G1 Y0.03
M03 P30 S76.5
G1 X-0.527
M05
G1 Y0.03
M03 P30 S76.5
G1 X0.533
M05
G1 Y0.03
M03 P30 S76.5
G1 X-0.528
M05
G1 Y0.03
M03 P30 S76.5
G1 X0.535
M05
G1 X0.006Y0.03
M03 P30 S76.5
G1 X-0.533
M05
G1 Y0.03
M03 P30 S76.5
G1 X0.538
M05
G1 X0.005Y0.03
M03 P30 S76.5
G1 X-0.534
M05
G1 Y0.03
M03 P30 S76.5
G1 X0.54
M05
G1 X0.006Y0.03
M03 P30 S76.5
G1 X-0.538
M05
G1 X0.007Y0.03
M03 P30 S76.5
G1 X0.539
M05
G1 X0.007Y0.03
M03 P30 S76.5
G1 X-0.539
M05
G1 X0.007Y0.03
M03 P30 S76.5
G1 X0.539
M05
G1 X0.008Y0.03
M03 P30 S76.5
G1 X-0.54
M05
G1 X0.007Y0.03
M03 P30 S76.5
G1 X0.543
M05
G1 X0.01Y0.03
M03 P30 S76.5
G1 X-0.546
M05
G1 X0.008Y0.03
M03 P30 S76.5
G1 X0.547
M05
G1 X0.01Y0.03
M03 P30 S76.5
G1 X-0.548
M05
G1 X0.01Y0.03
M03 P30 S76.5
G1 X0.55
M05
G1 X0.013Y0.03
M03 P30 S76.5
G1 X-0.553
M05
G1 X0.009Y0.03
M03 P30 S76.5
G1 X0.556
M05
G1 X0.012Y0.03
M03 P30 S76.5
G1 X-0.558
M05
G1 X0.01Y0.03
M03 P30 S76.5
G1 X0.563
M05
G1 X0.015Y0.03
M03 P30 S76.5
G1 X-0.566
M05
G1 X0.013Y0.03
M03 P30 S76.5
G1 X0.568
M05
G1 X0.015Y0.03
M03 P30 S76.5
G1 X-0.571
M05
G1 X0.012Y0.03
M03 P30 S76.5
G1 X0.577
M05
G1 X0.018Y0.03
M03 P30 S76.5
G1 X-0.582
M05
G1 X0.012Y0.03
M03 P30 S76.5
G1 X0.588
M05
G1 X0.018Y0.03
M03 P30 S76.5
G1 X-0.592
M05
G1 X0.016Y0.03
M03 P30 S76.5
G1 X0.597
M05
G1 X0.021Y0.03
M03 P30 S76.5
G1 X-0.603
M05
G1 X0.015Y0.03
M03 P30 S76.5
G1 X0.61
M05
G1 X1.959Y0.03
M03 P30 S76.5
G1 X-0.404
M05
G1 X-1.533
M03 P30 S76.5
G1 X-0.617
M05
G1 X0.016Y0.03
M03 P30 S76.5
G1 X0.627
M05
G1 X1.478
M03 P30 S76.5
G1 X0.456
M05
G1 X0.015Y0.03
M03 P30 S76.5
G1 X-0.495
M05
G1 X-1.429
M03 P30 S76.5
G1 X-0.635
M05
G1 X0.019Y0.03
M03 P30 S76.5
G1 X0.642
M05
G1 X1.379
M03 P30 S76.5
G1 X0.531
M05
G1 X0.008Y0.03
M03 P30 S76.5
G1 X-0.565
M05
G1 X-1.324
M03 P30 S76.5
G1 X-0.653
M05
G1 X0.019Y0.03
M03 P30 S76.5
G1 X0.665
M05
G1 X1.267
M03 P30 S76.5
G1 X0.595
M05
G1 Y0.03
M03 P30 S76.5
G1 X-0.623
M05
G1 X-1.208
M03 P30 S76.5
G1 X-0.678
M05
G1 X0.018Y0.03
M03 P30 S76.5
G1 X0.696
M05
G1 X1.141
M03 P30 S76.5
G1 X0.653
M05
G1 Y0.03
M03 P30 S76.5
G1 X-0.684
M05
G1 X-1.072
M03 P30 S76.5
G1 X-0.712
M05
G1 X0.022Y0.03
M03 P30 S76.5
G1 X0.728
M05
G1 X0.997
M03 P30 S76.5
G1 X0.708
M05
G1 X-0.013Y0.03
M03 P30 S76.5
G1 X-0.734
M05
G1 X-0.909
M03 P30 S76.5
G1 X-0.756
M05
G1 X0.022Y0.03
M03 P30 S76.5
G1 X0.785
M05
G1 X0.811
M03 P30 S76.5
G1 X0.762
M05
G1 X-0.023Y0.03
M03 P30 S76.5
G1 X-0.791
M05
G1 X-0.696
M03 P30 S76.5
G1 X-0.826
M05
G1 X0.024Y0.03
M03 P30 S76.5
G1 X0.874
M05
G1 X0.562
M03 P30 S76.5
G1 X0.831
M05
G1 X-0.023Y0.03
M03 P30 S76.5
G1 X-0.9
M05
G1 X-0.362
M03 P30 S76.5
G1 X-0.956
M05
G1 X0.026Y0.03
M03 P30 S76.5
G1 X2.165
M05
G1 X-0.028Y0.03
M03 P30 S76.5
G1 X-2.11
M05
G1 X0.027Y0.03
M03 P30 S76.5
G1 X2.055
M05
G1 X-0.028Y0.03
M03 P30 S76.5
G1 X-1.995
M05
G1 X0.031Y0.03
M03 P30 S76.5
G1 X1.931
M05
G1 X-0.032Y0.03
M03 P30 S76.5
G1 X-1.867
M05
G1 X0.034Y0.03
M03 P30 S76.5
G1 X1.8
M05
G1 X-0.037Y0.03
M03 P30 S76.5
G1 X-1.724
M05
G1 X0.039Y0.03
M03 P30 S76.5
G1 X1.647
M05
G1 X-0.039Y0.03
M03 P30 S76.5
G1 X-1.569
M05
G1 X0.048Y0.03
M03 P30 S76.5
G1 X1.477
M05
G1 X-0.049Y0.03
M03 P30 S76.5
G1 X-1.378
M05
G1 X0.05Y0.03
M03 P30 S76.5
G1 X1.28
M05
G1 X-0.061Y0.03
M03 P30 S76.5
G1 X-1.152
M05
G1 X0.069Y0.03
M03 P30 S76.5
G1 X1.019
M05
G1 X-0.081Y0.03
M03 P30 S76.5
G1 X-0.85
M05
G1 X0.1Y0.03
M03 P30 S76.5
G1 X0.656
M05
G1 X-0.157Y0.03
M03 P30 S76.5
G1 X-0.312
M05
G1 X0.915Y-3.24
M03 P30 S76.5
G1 X0.362
M05
G1 X-0.037Y0.03
M03 P30 S76.5
G1 X-0.288
M05
G1 X0.068Y0.03
M03 P30 S76.5
G1 X0.148
M05
G1 X-0.038Y2.13
M03 P30 S76.5
G1 X-0.102
M05
G1 X-0.079Y0.03
M03 P30 S76.5
G1 X0.264
M05
G1 X0.042Y0.03
M03 P30 S76.5
G1 X-0.344
M05
G1 X0.441Y-2.488
M03 P30 S76.5
G1 Y0.092
M05
G1 X-0.03Y0.088
M03 P30 S76.5
G1 Y-0.262
M05
G1 X-0.03Y-0.05
M03 P30 S76.5
G1 Y0.355
M05
G1 X-0.03Y0.028
M03 P30 S76.5
G1 Y-0.423
M05
G1 X-0.03Y-0.035
M03 P30 S76.5
G1 Y0.479
M05
G1 X-0.03Y0.016
M03 P30 S76.5
G1 Y-0.53
M05
G1 X-0.03Y-0.035
M03 P30 S76.5
G1 Y0.574
M05
G1 X-0.03Y0.006
M03 P30 S76.5
G1 Y-0.613
M05
G1 X-0.03Y-0.029
M03 P30 S76.5
G1 Y0.645
M05
G1 X-0.03
M03 P30 S76.5
G1 Y-0.675
M05
G1 X-0.03Y-0.029
M03 P30 S76.5
G1 Y0.701
M05
G1 X-0.03
M03 P30 S76.5
G1 Y-0.726
M05
G1 X-0.03Y-0.025
M03 P30 S76.5
G1 Y0.735
M05
G1 X-0.03Y-0.012
M03 P30 S76.5
G1 Y-0.748
M05
G1 X-0.03Y-0.024
M03 P30 S76.5
G1 Y0.748
M05
G1 X-0.03Y-0.027
M03 P30 S76.5
G1 Y-0.741
M05
G1 X-0.03Y-0.02
M03 P30 S76.5
G1 Y0.724
M05
G1 X-0.03Y-0.036
M03 P30 S76.5
G1 Y-0.709
M05
G1 X-0.03Y-0.019
M03 P30 S76.5
G1 Y0.691
M05
G1 X-0.03Y-0.034
M03 P30 S76.5
G1 Y-0.673
M05
G1 X-0.03Y-0.015
M03 P30 S76.5
G1 Y0.655
M05
G1 X-0.03Y-0.032
M03 P30 S76.5
G1 Y-0.639
M05
G1 X-0.03Y-0.016
M03 P30 S76.5
G1 Y0.629
M05
G1 X-0.03Y-0.027
M03 P30 S76.5
G1 Y-0.614
M05
G1 X-0.03Y-0.011
M03 P30 S76.5
G1 Y0.6
M05
G1 X-0.03Y-0.022
M03 P30 S76.5
G1 Y-0.59
M05
G1 X-0.03Y-0.012
M03 P30 S76.5
G1 Y0.58
M05
G1 X-0.03Y-0.02
M03 P30 S76.5
G1 Y-0.57
M05
G1 X-0.03Y-0.008
M03 P30 S76.5
G1 Y0.561
M05
G1 X-0.03Y-0.017
M03 P30 S76.5
G1 Y-0.552
M05
G1 X-0.03Y-0.008
M03 P30 S76.5
G1 Y0.546
M05
G1 X-0.03Y-0.011
M03 P30 S76.5
G1 Y-0.543
M05
G1 X-0.03Y-0.006
M03 P30 S76.5
G1 Y0.537
M05
G1 X-0.03Y-0.011
M03 P30 S76.5
G1 Y-0.531
M05
G1 X-0.03
M03 P30 S76.5
G1 Y0.525
M05
G1 X-0.03Y-0.007
M03 P30 S76.5
G1 Y-0.527
M05
G1 X-0.03
M03 P30 S76.5
G1 Y0.52
M05
G1 X-0.03
M03 P30 S76.5
G1 Y-0.526
M05
G1 X-0.03
M03 P30 S76.5
G1 Y0.521
M05
G1 X-0.03
M03 P30 S76.5
G1 Y-0.524
M05
G1 X-0.03
M03 P30 S76.5
G1 Y0.522
M05
G1 X-0.03
M03 P30 S76.5
G1 Y-0.525
M05
G1 X-0.03
M03 P30 S76.5
G1 Y0.527
M05
G1 X-0.03
M03 P30 S76.5
G1 Y-0.524
M05
G1 X-0.03
M03 P30 S76.5
G1 Y0.528
M05
G1 X-0.03Y0.005
M03 P30 S76.5
G1 Y-0.53
M05
G1 X-0.03
M03 P30 S76.5
G1 Y0.535
M05
G1 X-0.03Y0.006
M03 P30 S76.5
G1 Y-0.536
M05
G1 X-0.03Y0.005
M03 P30 S76.5
G1 Y0.539
M05
G1 X-0.03Y0.009
M03 P30 S76.5
G1 Y-0.542
M05
G1 X-0.03Y0.005
M03 P30 S76.5
G1 Y0.545
M05
G1 X-0.03Y0.013
M03 P30 S76.5
G1 Y-0.552
M05
G1 X-0.03Y0.005
M03 P30 S76.5
G1 Y0.56
M05
G1 X-0.03Y0.013
M03 P30 S76.5
G1 Y-0.565
M05
G1 X-0.03Y0.01
M03 P30 S76.5
G1 Y0.571
M05
G1 X-0.03Y0.017
M03 P30 S76.5
G1 Y-0.579
M05
G1 X-0.03Y0.01
M03 P30 S76.5
G1 Y0.586
M05
G1 X-0.03Y0.021
M03 P30 S76.5
G1 Y-0.597
M05
G1 X-0.03Y0.009
M03 P30 S76.5
G1 Y0.61
M05
G1 X-0.03Y0.022
M03 P30 S76.5
G1 Y-0.617
M05
G1 X-0.03Y0.014
M03 P30 S76.5
G1 Y0.629
M05
G1 X-0.03Y0.027
M03 P30 S76.5
G1 Y-0.642
M05
G1 X-0.03Y0.015
M03 P30 S76.5
G1 Y0.655
M05
G1 X-0.03Y0.033
M03 P30 S76.5
G1 Y-0.674
M05
G1 X-0.03Y0.018
M03 P30 S76.5
G1 Y0.688
M05
G1 X-0.03Y0.038
M03 P30 S76.5
G1 Y-0.707
M05
G1 X-0.03Y0.019
M03 P30 S76.5
G1 Y0.727
M05
G1 X-0.03Y0.038
M03 P30 S76.5
G1 Y-0.745
M05
G1 X-0.03Y0.019
M03 P30 S76.5
G1 Y0.768
M05
G1 X-0.03Y0.047
M03 P30 S76.5
G1 Y-0.792
M05
G1 X-0.03Y0.025
M03 P30 S76.5
G1 Y0.814
M05
G1 X-0.03Y0.051
M03 P30 S76.5
G1 Y-0.84
M05
G1 X-0.03Y0.024
M03 P30 S76.5
G1 Y0.873
M05
G1 X-0.03Y0.058
M03 P30 S76.5
G1 Y-0.904
M05
G1 X-0.03Y0.03
M03 P30 S76.5
G1 Y0.941
M05
G1 X-0.03Y2.439
M03 P30 S76.5
G1 Y-0.946
M05
G1 Y-1.421
M03 P30 S76.5
G1 Y-0.983
M05
G1 X-0.03Y0.03
M03 P30 S76.5
G1 Y1.035
M05
G1 Y1.259
M03 P30 S76.5
G1 Y0.994
M05
G1 X-0.03Y-0.034
M03 P30 S76.5
G1 Y-1.053
M05
G1 Y-1.073
M03 P30 S76.5
G1 Y-1.096
M05
G1 X-0.03Y0.036
M03 P30 S76.5
G1 Y1.178
M05
G1 Y0.834
M03 P30 S76.5
G1 Y1.14
M05
G1 X-0.03Y-0.035
M03 P30 S76.5
G1 Y-1.274
M05
G1 Y-0.502
M03 P30 S76.5
G1 Y-1.305
M05
G1 X-0.03Y0.035
M03 P30 S76.5
G1 Y3.007
M05
G1 X-0.03Y-0.042
M03 P30 S76.5
G1 Y-2.925
M05
G1 X-0.03Y0.043
M03 P30 S76.5
G1 Y2.84
M05
G1 X-0.03Y-0.041
M03 P30 S76.5
G1 Y-2.756
M05
G1 X-0.03Y0.043
M03 P30 S76.5
G1 Y2.665
M05
G1 X-0.03Y-0.049
M03 P30 S76.5
G1 Y-2.567
M05
G1 X-0.03Y0.052
M03 P30 S76.5
G1 Y2.467
M05
G1 X-0.03Y-0.052
M03 P30 S76.5
G1 Y-2.362
M05
G1 X-0.03Y0.056
M03 P30 S76.5
G1 Y2.247
M05
G1 X-0.03Y-0.06
M03 P30 S76.5
G1 Y-2.122
M05
G1 X-0.03Y0.065
M03 P30 S76.5
G1 Y1.995
M05
G1 X-0.03Y-0.073
M03 P30 S76.5
G1 Y-1.851
M05
G1 X-0.03Y0.082
M03 P30 S76.5
G1 Y1.696
M05
G1 X-0.03Y-0.086
M03 P30 S76.5
G1 Y-1.527
M05
G1 X-0.03Y0.106
M03 P30 S76.5
G1 Y1.328
M05
G1 X-0.03Y-0.116
M03 P30 S76.5
G1 Y-1.095
M05
G1 X-0.03Y0.154
M03 P30 S76.5
G1 Y0.804
M05
G1 X-0.03Y-0.279
M03 P30 S76.5
G1 Y-0.23
M05
G1 X2.88Y1.305
M03 P30 S76.5
G1 Y0.239
M05
G1 X-0.03Y0.046
M03 P30 S76.5
G1 Y-0.334
M05
G1 X-0.03Y-0.033
M03 P30 S76.5
G1 Y0.407
M05
G1 X-0.03Y0.04
M03 P30 S76.5
G1 Y-0.472
M05
G1 X-0.03Y-0.017
M03 P30 S76.5
G1 Y0.521
M05
G1 X-0.03Y0.033
M03 P30 S76.5
G1 Y-0.566
M05
G1 X-0.03Y-0.01
M03 P30 S76.5
G1 Y0.608
M05
G1 X-0.03Y0.03
M03 P30 S76.5
G1 Y-0.641
M05
G1 X-0.03
M03 P30 S76.5
G1 Y0.669
M05
G1 X-0.03Y0.028
M03 P30 S76.5
G1 Y-0.698
M05
G1 X-0.03
M03 P30 S76.5
G1 Y0.725
M05
G1 X-0.03Y0.025
M03 P30 S76.5
G1 Y-0.738
M05
G1 X-0.03Y0.013
M03 P30 S76.5
G1 Y0.748
M05
G1 X-0.03Y0.023
M03 P30 S76.5
G1 Y-0.751
M05
G1 X-0.03Y0.027
M03 P30 S76.5
G1 Y0.747
M05
G1 X-0.03Y0.02
M03 P30 S76.5
G1 Y-0.737
M05
G1 X-0.03Y0.034
M03 P30 S76.5
G1 Y0.722
M05
G1 X-0.03Y0.018
M03 P30 S76.5
G1 Y-0.703
M05
G1 X-0.03Y0.036
M03 P30 S76.5
G1 Y0.686
M05
G1 X-0.03Y0.018
M03 P30 S76.5
G1 Y-0.67
M05
G1 X-0.03Y0.032
M03 P30 S76.5
G1 Y0.652
M05
G1 X-0.03Y0.014
M03 P30 S76.5
G1 Y-0.636
M05
G1 X-0.03Y0.028
M03 P30 S76.5
G1 Y0.622
M05
G1 X-0.03Y0.014
M03 P30 S76.5
G1 Y-0.612
M05
G1 X-0.03Y0.025
M03 P30 S76.5
G1 Y0.599
M05
G1 X-0.03Y0.009
M03 P30 S76.5
G1 Y-0.588
M05
G1 X-0.03Y0.019
M03 P30 S76.5
G1 Y0.579
M05
G1 X-0.03Y0.009
M03 P30 S76.5
G1 Y-0.568
M05
G1 X-0.03Y0.014
M03 P30 S76.5
G1 Y0.564
M05
G1 X-0.03Y0.008
M03 P30 S76.5
G1 Y-0.557
M05
G1 X-0.03Y0.014
M03 P30 S76.5
G1 Y0.548
M05
G1 X-0.03Y0.006
M03 P30 S76.5
G1 Y-0.544
M05
G1 X-0.03Y0.01
M03 P30 S76.5
G1 Y0.539
M05
G1 X-0.03Y0.006
M03 P30 S76.5
G1 Y-0.536
M05
G1 X-0.03Y0.006
M03 P30 S76.5
G1 Y0.534
M05
G1 X-0.03
M03 P30 S76.5
G1 Y-0.528
M05
G1 X-0.03Y0.006
M03 P30 S76.5
G1 Y0.526
M05
G1 X-0.03
M03 P30 S76.5
G1 Y-0.524
M05
G1 X-0.03
M03 P30 S76.5
G1 Y0.527
M05
G1 X-0.03
M03 P30 S76.5
G1 Y-0.523
M05
G1 X-0.03
M03 P30 S76.5
G1 Y0.523
M05
G1 X-0.03
M03 P30 S76.5
G1 Y-0.528
M05
G1 X-0.03
M03 P30 S76.5
G1 Y0.524
M05
G1 X-0.03
M03 P30 S76.5
G1 Y-0.531
M05
G1 X-0.03
M03 P30 S76.5
G1 Y0.528
M05
G1 X-0.03
M03 P30 S76.5
G1 Y-0.54
M05
G1 X-0.03Y-0.008
M03 P30 S76.5
G1 Y0.54
M05
G1 X-0.03Y-0.005
M03 P30 S76.5
G1 Y-0.543
M05
G1 X-0.03Y-0.007
M03 P30 S76.5
G1 Y0.545
M05
G1 X-0.03Y-0.005
M03 P30 S76.5
G1 Y-0.552
M05
G1 X-0.03Y-0.013
M03 P30 S76.5
G1 Y0.559
M05
G1 X-0.03Y-0.008
M03 P30 S76.5
G1 Y-0.563
M05
G1 X-0.03Y-0.012
M03 P30 S76.5
G1 Y0.566
M05
G1 X-0.03Y-0.009
M03 P30 S76.5
G1 Y-0.573
M05
G1 X-0.03Y-0.018
M03 P30 S76.5
G1 Y0.582
M05
G1 X-0.03Y-0.009
M03 P30 S76.5
G1 Y-0.591
M05
G1 X-0.03Y-0.017
M03 P30 S76.5
G1 Y0.598
M05
G1 X-0.03Y-0.013
M03 P30 S76.5
G1 Y-0.607
M05
G1 X-0.03Y-0.024
M03 P30 S76.5
G1 Y0.618
M05
G1 X-0.03Y-0.013
M03 P30 S76.5
G1 Y-0.628
M05
G1 X-0.03Y-0.025
M03 P30 S76.5
G1 Y0.64
M05
G1 X-0.03Y-0.014
M03 P30 S76.5
G1 Y-0.655
M05
G1 X-0.03Y-0.029
M03 P30 S76.5
G1 Y0.666
M05
G1 X-0.03Y-0.018
M03 P30 S76.5
G1 Y-0.678
M05
G1 X-0.03Y-0.035
M03 P30 S76.5
G1 Y0.695
M05
G1 X-0.03Y-0.018
M03 P30 S76.5
G1 Y-0.712
M05
G1 X-0.03Y-0.035
M03 P30 S76.5
G1 Y0.728
M05
G1 X-0.03Y-0.023
M03 P30 S76.5
G1 Y-0.747
M05
G1 X-0.03Y-0.042
M03 P30 S76.5
G1 Y0.766
M05
G1 X-0.03Y-0.023
M03 P30 S76.5
G1 Y-0.788
M05
G1 X-0.03Y-0.05
M03 P30 S76.5
G1 Y0.815
M05
G1 X-0.03Y-0.027
M03 P30 S76.5
G1 Y-0.838
M05
G1 X-0.03Y-0.06
M03 P30 S76.5
G1 Y0.87
M05
G1 X-0.03Y-0.029
M03 P30 S76.5
G1 Y-0.901
M05
G0 X3.953 Y-2.913 F0
M03 P30 S76.5
G1 X0.73 F2300
M05
G1 X0.19Y0.03
M03 P30 S76.5
G1 X-1.113
M05
G1 X-0.117Y0.03
M03 P30 S76.5
G1 X1.34
M05
G1 X0.084Y0.03
M03 P30 S76.5
G1 X-1.504
M05
G1 X-0.058Y0.03
M03 P30 S76.5
G1 X1.634
M05
G1 X0.058Y0.03
M03 P30 S76.5
G1 X-1.75
M05
G1 X-0.045Y0.03
M03 P30 S76.5
G1 X1.85
M05
G1 X0.045Y0.03
M03 P30 S76.5
G1 X-1.936
M05
G1 X-0.038Y0.03
M03 P30 S76.5
G1 X2.019
M05
G1 X0.036Y0.03
M03 P30 S76.5
G1 X-2.089
M05
G1 X-0.033Y0.03
M03 P30 S76.5
G1 X2.159
M05
G1 X0.033Y0.03
M03 P30 S76.5
G1 X-2.22
M05
G1 X-0.029Y0.03
M03 P30 S76.5
G1 X2.278
M05
G1 X0.03Y0.03
M03 P30 S76.5
G1 X-2.331
M05
G1 X-0.022Y0.03
M03 P30 S76.5
G1 X2.379
M05
G1 X0.023Y0.03
M03 P30 S76.5
G1 X-2.425
M05
G1 X-0.022Y0.03
M03 P30 S76.5
G1 X2.471
M05
G1 X0.022Y0.03
M03 P30 S76.5
G1 X-0.975
M05
G1 X-0.652
M03 P30 S76.5
G1 X-0.885
M05
G1 X-0.017Y0.03
M03 P30 S76.5
G1 X0.772
M05
G1 X0.967
M03 P30 S76.5
G1 X0.808
M05
G1 X0.019Y0.03
M03 P30 S76.5
G1 X-0.745
M05
G1 X-1.119
M03 P30 S76.5
G1 X-0.718
M05
G1 X-0.017Y0.03
M03 P30 S76.5
G1 X0.686
M05
G1 X1.22
M03 P30 S76.5
G1 X0.711
M05
G1 X0.014Y0.03
M03 P30 S76.5
G1 X-0.677
M05
G1 X-1.31
M03 P30 S76.5
G1 X-0.661
M05
G1 X-0.013Y0.03
M03 P30 S76.5
G1 X0.64
M05
G1 X1.38
M03 P30 S76.5
G1 X0.655
M05
G1 X0.014Y0.03
M03 P30 S76.5
G1 X-0.633
M05
G1 X-1.447
M03 P30 S76.5
G1 X-0.62
M05
G1 X-0.012Y0.03
M03 P30 S76.5
G1 X0.605
M05
G1 X1.5
M03 P30 S76.5
G1 X0.62
M05
G1 X0.011Y0.03
M03 P30 S76.5
G1 X-0.606
M05
G1 X0.025Y0.03
M03 P30 S76.5
G1 X0.591
M05
G1 X0.01Y0.03
M03 P30 S76.5
G1 X-0.583
M05
G1 X0.018Y0.03
M03 P30 S76.5
G1 X0.574
M05
G1 X0.007Y0.03
M03 P30 S76.5
G1 X-0.562
M05
G1 X0.012Y0.03
M03 P30 S76.5
G1 X0.557
M05
G1 X0.007Y0.03
M03 P30 S76.5
G1 X-0.551
M05
G1 X0.012Y0.03
M03 P30 S76.5
G1 X0.545
M05
G1 Y0.03
M03 P30 S76.5
G1 X-0.535
M05
G1 X0.007Y0.03
M03 P30 S76.5
G1 X0.536
M05
G1 Y0.03
M03 P30 S76.5
G1 X-0.529
M05
G1 X0.007Y0.03
M03 P30 S76.5
G1 X0.529
M05
G1 Y0.03
M03 P30 S76.5
G1 X-0.526
M05
G1 Y0.03
M03 P30 S76.5
G1 X0.53
M05
G1 Y0.03
M03 P30 S76.5
G1 X-0.525
M05
G1 Y0.03
M03 P30 S76.5
G1 X0.526
M05
G1 Y0.03
M03 P30 S76.5
G1 X-0.526
M05
G1 Y0.03
M03 P30 S76.5
G1 X0.524
M05
G1 Y0.03
M03 P30 S76.5
G1 X-0.529
M05
G1 X-0.007Y0.03
M03 P30 S76.5
G1 X0.531
M05
G1 Y0.03
M03 P30 S76.5
G1 X-0.537
M05
G1 X-0.006Y0.03
M03 P30 S76.5
G1 X0.536
M05
G1 Y0.03
M03 P30 S76.5
G1 X-0.547
M05
G1 X-0.011Y0.03
M03 P30 S76.5
G1 X0.547
M05
G1 X-0.006Y0.03
M03 P30 S76.5
G1 X-0.552
M05
G1 X-0.015Y0.03
M03 P30 S76.5
G1 X0.561
M05
G1 X-0.009Y0.03
M03 P30 S76.5
G1 X-0.567
M05
G1 X-0.017Y0.03
M03 P30 S76.5
G1 X0.576
M05
G1 X-0.009Y0.03
M03 P30 S76.5
G1 X-0.588
M05
G1 X-0.021Y0.03
M03 P30 S76.5
G1 X0.599
M05
G1 X-0.012Y0.03
M03 P30 S76.5
G1 X-0.612
M05
G1 X-0.028Y0.03
M03 P30 S76.5
G1 X0.628
M05
G1 X-0.013Y0.03
M03 P30 S76.5
G1 X-0.646
M05
G1 X-0.036Y0.03
M03 P30 S76.5
G1 X0.667
M05
G1 X-0.015Y0.03
M03 P30 S76.5
G1 X-0.694
M05
G1 X-0.049Y0.03
M03 P30 S76.5
G1 X0.728
M05
G1 X-0.018Y0.03
M03 P30 S76.5
G1 X-0.787
M05
G1 X-0.102Y0.03
M03 P30 S76.5
G1 X0.87
M05
G1 X-0.019Y0.03
M03 P30 S76.5
G1 X-0.987
M05
G1 X-0.14Y0.03
M03 P30 S76.5
G1 X1.104
M05
G1 X-0.023Y0.03
M03 P30 S76.5
G1 X-1.222
M05
G1 X-0.141Y0.03
M03 P30 S76.5
G1 X1.34
M05
G1 X-0.028Y0.03
M03 P30 S76.5
G1 X-1.452
M05
G1 X-0.135Y0.03
M03 P30 S76.5
G1 X1.56
M05
G1 X-0.03Y0.03
M03 P30 S76.5
G1 X-1.641
M05
G1 X-0.089Y0.03
M03 P30 S76.5
G1 X1.697
M05
G1 X-0.033Y0.03
M03 P30 S76.5
G1 X-1.734
M05
G1 X-0.058Y0.03
M03 P30 S76.5
G1 X1.753
M05
G1 X-0.04Y0.03
M03 P30 S76.5
G1 X-1.763
M05
G1 X-0.045Y0.03
M03 P30 S76.5
G1 X1.761
M05
G1 X-0.048Y0.03
M03 P30 S76.5
G1 X-1.752
M05
G1 X-0.039Y0.03
M03 P30 S76.5
G1 X1.733
M05
G1 X-0.063Y0.03
M03 P30 S76.5
G1 X-1.702
M05
G1 X-0.03Y0.03
M03 P30 S76.5
G1 X1.66
M05
G1 X-0.091Y0.03
M03 P30 S76.5
G1 X-1.598
M05
G1 X-0.025Y0.03
M03 P30 S76.5
G1 X1.512
M05
G1 X-0.145Y0.03
M03 P30 S76.5
G1 X-1.39
M05
G1 X-0.023Y0.03
M03 P30 S76.5
G1 X1.268
M05
G1 X-0.145Y0.03
M03 P30 S76.5
G1 X-1.145
M05
G1 X-0.018Y0.03
M03 P30 S76.5
G1 X1.017
M05
G1 X-0.145Y0.03
M03 P30 S76.5
G1 X-0.889
M05
G1 X-0.018Y0.03
M03 P30 S76.5
G1 X0.783
M05
G1 X-0.084Y0.03
M03 P30 S76.5
G1 X-0.715
M05
G1 X-0.013Y0.03
M03 P30 S76.5
G1 X0.672
M05
G1 X-0.039Y0.03
M03 P30 S76.5
G1 X-0.646
M05
G1 X-0.013Y0.03
M03 P30 S76.5
G1 X0.623
M05
G1 X-0.029Y0.03
M03 P30 S76.5
G1 X-0.606
M05
G1 X-0.01Y0.03
M03 P30 S76.5
G1 X0.59
M05
G1 X-0.021Y0.03
M03 P30 S76.5
G1 X-0.578
M05
G1 X-0.009Y0.03
M03 P30 S76.5
G1 X0.567
M05
G1 X-0.015Y0.03
M03 P30 S76.5
G1 X-0.561
M05
G1 X-0.006Y0.03
M03 P30 S76.5
G1 X0.551
M05
G1 X-0.012Y0.03
M03 P30 S76.5
G1 X-0.544
M05
G1 X-0.006Y0.03
M03 P30 S76.5
G1 X0.54
M05
G1 X-0.01Y0.03
M03 P30 S76.5
G1 X-0.535
M05
G1 Y0.03
M03 P30 S76.5
G1 X0.529
M05
G1 X-0.007Y0.03
M03 P30 S76.5
G1 X-0.527
M05
G1 Y0.03
M03 P30 S76.5
G1 X0.523
M05
G1 Y0.03
M03 P30 S76.5
G1 X-0.527
M05
G1 Y0.03
M03 P30 S76.5
G1 X0.523
M05
G1 Y0.03
M03 P30 S76.5
G1 X-0.523
M05
G1 Y0.03
M03 P30 S76.5
G1 X0.528
M05
G1 Y0.03
M03 P30 S76.5
G1 X-0.524
M05
G1 Y0.03
M03 P30 S76.5
G1 X0.53
M05
G1 X0.006Y0.03
M03 P30 S76.5
G1 X-0.529
M05
G1 Y0.03
M03 P30 S76.5
G1 X0.536
M05
G1 X2.092Y0.03
M03 P30 S76.5
G1 X-0.554
M05
G1 X-1.527
M03 P30 S76.5
G1 X-0.538
M05
G1 X0.007Y0.03
M03 P30 S76.5
G1 X0.542
M05
G1 X1.504
M03 P30 S76.5
G1 X0.563
M05
G1 X-0.009Y0.03
M03 P30 S76.5
G1 X-0.567
M05
G1 X-1.477
M03 P30 S76.5
G1 X-0.549
M05
G1 X0.008Y0.03
M03 P30 S76.5
G1 X0.557
M05
G1 X1.444
M03 P30 S76.5
G1 X0.575
M05
G1 X-0.008Y0.03
M03 P30 S76.5
G1 X-0.587
M05
G1 X-1.406
M03 P30 S76.5
G1 X-0.567
M05
G1 X0.011Y0.03
M03 P30 S76.5
G1 X0.579
M05
G1 X1.364
M03 P30 S76.5
G1 X0.596
M05
G1 X-0.012Y0.03
M03 P30 S76.5
G1 X-0.608
M05
G1 X-1.316
M03 P30 S76.5
G1 X-0.593
M05
G1 X0.011Y0.03
M03 P30 S76.5
G1 X0.612
M05
G1 X1.258
M03 P30 S76.5
G1 X0.623
M05
G1 X-0.012Y0.03
M03 P30 S76.5
G1 X-0.64
M05
G1 X-1.195
M03 P30 S76.5
G1 X-0.632
M05
G1 X0.014Y0.03
M03 P30 S76.5
G1 X0.658
M05
G1 X1.119
M03 P30 S76.5
G1 X0.661
M05
G1 X-0.016Y0.03
M03 P30 S76.5
G1 X-0.691
M05
G1 X-1.02
M03 P30 S76.5
G1 X-0.697
M05
G1 X0.017Y0.03
M03 P30 S76.5
G1 X0.743
M05
G1 X0.893
M03 P30 S76.5
G1 X0.739
M05
G1 X-0.017Y0.03
M03 P30 S76.5
G1 X-0.804
M05
G1 X-0.711
M03 P30 S76.5
G1 X-0.825
M05
G1 X0.018Y0.03
M03 P30 S76.5
G1 X2.302
M05
G1 X-0.02Y0.03
M03 P30 S76.5
G1 X-2.261
M05
G1 X0.023Y0.03
M03 P30 S76.5
G1 X2.217
M05
G1 X-0.021Y0.03
M03 P30 S76.5
G1 X-2.174
M05
G1 X0.027Y0.03
M03 P30 S76.5
G1 X2.121
M05
G1 X-0.026Y0.03
M03 P30 S76.5
G1 X-2.067
M05
G1 X0.029Y0.03
M03 P30 S76.5
G1 X2.012
M05
G1 X-0.03Y0.03
M03 P30 S76.5
G1 X-1.948
M05
G1 X0.033Y0.03
M03 P30 S76.5
G1 X1.881
M05
G1 X-0.034Y0.03
M03 P30 S76.5
G1 X-1.807
M05
G1 X0.041Y0.03
M03 P30 S76.5
G1 X1.728
M05
G1 X-0.045Y0.03
M03 P30 S76.5
G1 X-1.635
M05
G1 X0.05Y0.03
M03 P30 S76.5
G1 X1.54
M05
G1 X-0.055Y0.03
M03 P30 S76.5
G1 X-1.422
M05
G1 X0.073Y0.03
M03 P30 S76.5
G1 X1.288
M05
G1 X-0.074Y0.03
M03 P30 S76.5
G1 X-1.121
M05
G1 X0.136Y0.03
M03 P30 S76.5
G1 X0.897
M05
G1 X-0.157Y0.03
M03 P30 S76.5
G1 X-0.368
M05
G1 X-1.365Y-3.48
M03 P30 S76.5
G1 X0.59
M05
G1 X-0.02Y0.03
M03 P30 S76.5
G1 X-0.582
M05
G1 X-0.009Y0.03
M03 P30 S76.5
G1 X0.571
M05
G1 X-0.018Y0.03
M03 P30 S76.5
G1 X-0.561
M05
G1 X-0.008Y0.03
M03 P30 S76.5
G1 X0.555
M05
G1 X-0.014Y0.03
M03 P30 S76.5
G1 X-0.546
M05
G1 X-0.006Y0.03
M03 P30 S76.5
G1 X0.541
M05
G1 X-0.009Y0.03
M03 P30 S76.5
G1 X-0.536
M05
G1 Y0.03
M03 P30 S76.5
G1 X0.527
M05
G1 X-0.006Y0.03
M03 P30 S76.5
G1 X-0.526
M05
G1 Y0.03
M03 P30 S76.5
G1 X0.522
M05
G1 Y0.03
M03 P30 S76.5
G1 X-0.527
M05
G1 Y0.03
M03 P30 S76.5
G1 X0.522
M05
G1 Y0.03
M03 P30 S76.5
G1 X-0.524
M05
G1 Y0.03
M03 P30 S76.5
G1 X0.53
M05
G1 Y0.03
M03 P30 S76.5
G1 X-0.524
M05
G1 X0.005Y0.03
M03 P30 S76.5
G1 X0.517
M05
G1 Y0.03
M03 P30 S76.5
G1 X-0.509
M05
G1 X0.01Y0.03
M03 P30 S76.5
G1 X0.49
M05
G1 X-0.009Y0.03
M03 P30 S76.5
G1 X-0.468
M05
G1 X0.016Y0.03
M03 P30 S76.5
G1 X0.438
M05
G1 X-0.019Y0.03
M03 P30 S76.5
G1 X-0.397
M05
G1 X0.025Y0.03
M03 P30 S76.5
G1 X0.346
M05
G1 X-0.037Y0.03
M03 P30 S76.5
G1 X-0.269
M05
G1 X0.068Y0.03
M03 P30 S76.5
G1 X0.136
M05
G1 X2.202Y1.5
M03 P30 S76.5
G1 X-0.106
M05
G1 X-0.077Y0.03
M03 P30 S76.5
G1 X0.269
M05
G1 X0.042Y0.03
M03 P30 S76.5
G1 X-0.347
M05
G1 X-0.025Y0.03
M03 P30 S76.5
G1 X0.401
M05
G1 X0.022Y0.03
M03 P30 S76.5
G1 X-0.441
M05
G1 X-0.014Y0.03
M03 P30 S76.5
G1 X0.468
M05
G1 X0.011Y0.03
M03 P30 S76.5
G1 X-0.49
M05
G1 X-0.012Y0.03
M03 P30 S76.5
G1 X0.509
M05
G1 Y0.03
M03 P30 S76.5
G1 X-0.518
M05
G1 X-0.008Y0.03
M03 P30 S76.5
G1 X0.533
M05
G1 Y0.03
M03 P30 S76.5
G1 X-0.542
M05
G1 X-0.009Y0.03
M03 P30 S76.5
G1 X0.544
M05
G1 X0.107Y-2.328
M03 P30 S76.5
G1 Y0.436
M05
G1 X-0.03Y0.132
M03 P30 S76.5
G1 Y-0.707
M05
G1 X-0.03Y-0.089
M03 P30 S76.5
G1 Y0.89
M05
G1 X-0.03Y0.074
M03 P30 S76.5
G1 Y-1.037
M05
G1 X-0.03Y-0.064
M03 P30 S76.5
G1 Y1.161
M05
G1 Y1.364
M03 P30 S76.5
G1 Y0.249
M05
G1 X-0.03Y0.101
M03 P30 S76.5
G1 Y-0.408
M05
G1 Y-1.251
M03 P30 S76.5
G1 Y-1.266
M05
G1 X-0.03Y-0.049
M03 P30 S76.5
G1 Y1.362
M05
G1 Y1.168
M03 P30 S76.5
G1 Y0.516
M05
G1 X-0.03Y0.062
M03 P30 S76.5
G1 Y-0.604
M05
G1 Y-1.099
M03 P30 S76.5
G1 Y-1.445
M05
G1 X-0.03Y-0.038
M03 P30 S76.5
G1 Y1.522
M05
G1 Y1.043
M03 P30 S76.5
G1 Y0.677
M05
G1 X-0.03Y0.047
M03 P30 S76.5
G1 Y-0.737
M05
G1 Y-0.993
M03 P30 S76.5
G1 Y-1.595
M05
G1 X-0.03Y-0.03
M03 P30 S76.5
G1 Y1.658
M05
G1 Y0.952
M03 P30 S76.5
G1 Y0.79
M05
G1 X-0.03Y0.044
M03 P30 S76.5
G1 Y-0.839
M05
G1 Y-0.914
M03 P30 S76.5
G1 Y-1.722
M05
G1 X-0.03Y-0.028
M03 P30 S76.5
G1 Y1.778
M05
G1 Y0.883
M03 P30 S76.5
G1 Y0.876
M05
G1 X-0.03Y0.035
M03 P30 S76.5
G1 Y-0.91
M05
G1 Y-0.857
M03 P30 S76.5
G1 Y-1.83
M05
G1 X-0.03Y-0.025
M03 P30 S76.5
G1 Y1.881
M05
G1 Y0.833
M03 P30 S76.5
G1 Y0.942
M05
G1 X-0.03Y0.028
M03 P30 S76.5
G1 Y-0.963
M05
G1 Y-0.817
M03 P30 S76.5
G1 Y-1.927
M05
G1 X-0.03Y-0.02
M03 P30 S76.5
G1 Y1.97
M05
G1 Y0.807
M03 P30 S76.5
G1 Y0.976
M05
G1 X-0.03Y0.026
M03 P30 S76.5
G1 Y-0.983
M05
G1 Y-0.806
M03 P30 S76.5
G1 Y-0.943
M05
G1 Y-0.121
M03 P30 S76.5
G1 Y-0.946
M05
G1 X-0.03Y-0.019
M03 P30 S76.5
G1 Y0.802
M05
G1 Y0.428
M03 P30 S76.5
G1 Y0.818
M05
G1 Y0.814
M03 P30 S76.5
G1 Y0.981
M05
G1 X-0.03Y0.02
M03 P30 S76.5
G1 Y-0.962
M05
G1 Y-0.834
M03 P30 S76.5
G1 Y-0.759
M05
G1 Y-0.578
M03 P30 S76.5
G1 Y-0.746
M05
G1 X-0.03Y-0.015
M03 P30 S76.5
G1 Y0.702
M05
G1 Y0.696
M03 P30 S76.5
G1 Y0.717
M05
G1 Y0.881
M03 P30 S76.5
G1 Y0.918
M05
G1 X-0.03Y0.02
M03 P30 S76.5
G1 Y-0.848
M05
G1 Y-0.955
M03 P30 S76.5
G1 Y-0.686
M05
G1 Y-0.793
M03 P30 S76.5
G1 Y-0.668
M05
G1 X-0.03Y-0.014
M03 P30 S76.5
G1 Y0.642
M05
G1 Y0.875
M03 P30 S76.5
G1 Y0.659
M05
G1 Y1.033
M03 P30 S76.5
G1 Y0.774
M05
G1 X-0.03Y0.014
M03 P30 S76.5
G1 Y-0.718
M05
G1 Y-1.088
M03 P30 S76.5
G1 Y-0.64
M05
G1 Y-0.945
M03 P30 S76.5
G1 Y-0.618
M05
G1 X-0.03Y-0.012
M03 P30 S76.5
G1 Y0.598
M05
G1 Y1.01
M03 P30 S76.5
G1 Y0.619
M05
G1 Y1.126
M03 P30 S76.5
G1 Y0.683
M05
G1 X-0.03Y0.015
M03 P30 S76.5
G1 Y-0.652
M05
G1 Y-1.159
M03 P30 S76.5
G1 Y-0.607
M05
G1 Y-1.06
M03 P30 S76.5
G1 Y-0.585
M05
G1 X-0.03Y-0.011
M03 P30 S76.5
G1 Y0.571
M05
G1 Y1.11
M03 P30 S76.5
G1 Y0.595
M05
G1 Y1.181
M03 P30 S76.5
G1 Y0.632
M05
G1 X-0.03Y0.01
M03 P30 S76.5
G1 Y-0.611
M05
G1 Y-1.203
M03 P30 S76.5
G1 Y-0.583
M05
G1 Y-1.153
M03 P30 S76.5
G1 Y-0.558
M05
G1 X-0.03Y-0.009
M03 P30 S76.5
G1 Y0.55
M05
G1 Y1.188
M03 P30 S76.5
G1 Y0.575
M05
G1 Y1.223
M03 P30 S76.5
G1 Y0.592
M05
G1 X-0.03Y0.01
M03 P30 S76.5
G1 Y-0.579
M05
G1 Y-1.236
M03 P30 S76.5
G1 Y-0.566
M05
G1 Y-1.224
M03 P30 S76.5
G1 Y-0.542
M05
G1 X-0.03Y-0.006
M03 P30 S76.5
G1 Y0.532
M05
G1 Y1.251
M03 P30 S76.5
G1 Y0.564
M05
G1 Y1.246
M03 P30 S76.5
G1 Y0.57
M05
G1 X-0.03Y0.009
M03 P30 S76.5
G1 Y-0.561
M05
G1 Y-1.256
M03 P30 S76.5
G1 Y-0.561
M05
G1 Y-1.273
M03 P30 S76.5
G1 Y-0.527
M05
G1 X-0.03Y-0.006
M03 P30 S76.5
G1 Y0.523
M05
G1 Y1.294
M03 P30 S76.5
G1 Y0.558
M05
G1 Y1.26
M03 P30 S76.5
G1 Y0.555
M05
G1 X-0.03Y0.006
M03 P30 S76.5
G1 Y-0.549
M05
G1 Y-1.265
M03 P30 S76.5
G1 Y-0.554
M05
G1 Y-1.315
M03 P30 S76.5
G1 Y-0.519
M05
G1 X-0.03
M03 P30 S76.5
G1 Y0.513
M05
G1 Y1.328
M03 P30 S76.5
G1 Y0.553
M05
G1 Y1.271
M03 P30 S76.5
G1 Y0.543
M05
G1 X-0.03Y0.005
M03 P30 S76.5
G1 Y-0.538
M05
G1 Y-1.275
M03 P30 S76.5
G1 Y-0.552
M05
G1 Y-1.339
M03 P30 S76.5
G1 Y-0.517
M05
G1 X-0.03
M03 P30 S76.5
G1 Y0.513
M05
G1 Y1.35
M03 P30 S76.5
G1 Y0.552
M05
G1 Y1.275
M03 P30 S76.5
G1 Y0.535
M05
G1 X-0.03
M03 P30 S76.5
G1 Y-0.529
M05
G1 Y-1.275
M03 P30 S76.5
G1 Y-0.552
M05
G1 Y-1.36
M03 P30 S76.5
G1 Y-0.516
M05
G1 X-0.03
M03 P30 S76.5
G1 Y0.512
M05
G1 Y1.371
M03 P30 S76.5
G1 Y0.551
M05
G1 Y1.275
M03 P30 S76.5
G1 Y0.527
M05
G1 X-0.03
M03 P30 S76.5
G1 Y-0.523
M05
G1 Y-1.273
M03 P30 S76.5
G1 Y-0.551
M05
G1 Y-1.379
M03 P30 S76.5
G1 Y-0.514
M05
G1 X-0.03
M03 P30 S76.5
G1 Y0.512
M05
G1 Y1.388
M03 P30 S76.5
G1 Y0.55
M05
G1 Y1.269
M03 P30 S76.5
G1 Y0.525
M05
G1 X-0.03
M03 P30 S76.5
G1 Y-0.523
M05
G1 Y-1.264
M03 P30 S76.5
G1 Y-0.551
M05
G1 Y-1.395
M03 P30 S76.5
G1 Y-0.515
M05
G1 X-0.03
M03 P30 S76.5
G1 Y0.513
M05
G1 Y1.403
M03 P30 S76.5
G1 Y0.551
M05
G1 Y1.259
M03 P30 S76.5
G1 Y0.522
M05
G1 X-0.03
M03 P30 S76.5
G1 Y-0.521
M05
G1 Y-1.254
M03 P30 S76.5
G1 Y-0.55
M05
G1 Y-1.411
M03 P30 S76.5
G1 Y-0.512
M05
G1 X-0.03
M03 P30 S76.5
G1 Y0.512
M05
G1 Y1.417
M03 P30 S76.5
G1 Y0.55
M05
G1 Y1.247
M03 P30 S76.5
G1 Y0.519
M05
G1 X-0.03
M03 P30 S76.5
G1 Y-0.52
M05
G1 Y-1.24
M03 P30 S76.5
G1 Y-0.549
M05
G1 Y-1.424
M03 P30 S76.5
G1 Y-0.512
M05
G1 X-0.03
M03 P30 S76.5
G1 Y0.512
M05
G1 Y1.43
M03 P30 S76.5
G1 Y0.55
M05
G1 Y1.233
M03 P30 S76.5
G1 Y0.517
M05
G1 X-0.03
M03 P30 S76.5
G1 Y-0.518
M05
G1 Y-1.226
M03 P30 S76.5
G1 Y-0.55
M05
G1 Y-1.435
M03 P30 S76.5
G1 Y-0.513
M05
G1 X-0.03
M03 P30 S76.5
G1 Y0.513
M05
G1 Y1.442
M03 P30 S76.5
G1 Y0.549
M05
G1 Y1.22
M03 P30 S76.5
G1 Y0.515
M05
G1 X-0.03
M03 P30 S76.5
G1 Y-0.516
M05
G1 Y-1.213
M03 P30 S76.5
G1 Y-0.549
M05
G1 Y-1.448
M03 P30 S76.5
G1 Y-0.513
M05
G1 X-0.03
M03 P30 S76.5
G1 Y0.513
M05
G1 Y1.455
M03 P30 S76.5
G1 Y0.548
M05
G1 Y1.207
M03 P30 S76.5
G1 Y0.513
M05
G1 X-0.03
M03 P30 S76.5
G1 Y-0.514
M05
G1 Y-1.199
M03 P30 S76.5
G1 Y-0.549
M05
G1 Y-1.461
M03 P30 S76.5
G1 Y-0.513
M05
G1 X-0.03
M03 P30 S76.5
G1 Y0.513
M05
G1 Y1.467
M03 P30 S76.5
G1 Y0.549
M05
G1 Y1.193
M03 P30 S76.5
G1 Y0.511
M05
G1 X-0.03
M03 P30 S76.5
G1 Y-0.512
M05
G1 Y-1.186
M03 P30 S76.5
G1 Y-0.548
M05
G1 Y-1.474
M03 P30 S76.5
G1 Y-0.513
M05
G1 X-0.03
M03 P30 S76.5
G1 Y0.513
M05
G1 Y1.48
M03 P30 S76.5
G1 Y0.548
M05
G1 Y1.179
M03 P30 S76.5
G1 Y0.51
M05
G1 X-0.03
M03 P30 S76.5
G1 Y-0.513
M05
G1 Y-1.17
M03 P30 S76.5
G1 Y-0.547
M05
G1 Y-1.487
M03 P30 S76.5
G1 Y-0.513
M05
G1 X-0.03
M03 P30 S76.5
G1 Y0.514
M05
G1 Y1.492
M03 P30 S76.5
G1 Y0.548
M05
G1 Y1.16
M03 P30 S76.5
G1 Y0.512
M05
G1 X-0.03
M03 P30 S76.5
G1 Y-0.516
M05
G1 Y-1.15
M03 P30 S76.5
G1 Y-0.548
M05
G1 Y-1.498
M03 P30 S76.5
G1 Y-0.512
M05
G1 X-0.03
M03 P30 S76.5
G1 Y0.513
M05
G1 Y1.504
M03 P30 S76.5
G1 Y0.547
M05
G1 Y1.14
M03 P30 S76.5
G1 Y0.514
M05
G1 X-0.03
M03 P30 S76.5
G1 Y-0.522
M05
G1 Y-1.126
M03 P30 S76.5
G1 Y-0.547
M05
G1 Y-1.509
M03 P30 S76.5
G1 Y-0.512
M05
G1 X-0.03
M03 P30 S76.5
G1 Y0.515
M05
G1 Y1.513
M03 P30 S76.5
G1 Y0.548
M05
G1 Y1.11
M03 P30 S76.5
G1 Y0.521
M05
G1 X-0.03Y-0.005
M03 P30 S76.5
G1 Y-0.524
M05
G1 Y-1.093
M03 P30 S76.5
G1 Y-0.55
M05
G1 Y-1.517
M03 P30 S76.5
G1 Y-0.512
M05
G1 X-0.03
M03 P30 S76.5
G1 Y0.517
M05
G1 Y1.518
M03 P30 S76.5
G1 Y0.553
M05
G1 Y1.074
M03 P30 S76.5
G1 Y0.529
M05
G1 X-0.03Y-0.007
M03 P30 S76.5
G1 Y-0.536
M05
G1 Y-1.051
M03 P30 S76.5
G1 Y-0.555
M05
G1 Y-1.518
M03 P30 S76.5
G1 Y-0.518
M05
G1 X-0.03
M03 P30 S76.5
G1 Y0.527
M05
G1 Y1.516
M03 P30 S76.5
G1 Y0.562
M05
G1 Y1.022
M03 P30 S76.5
G1 Y0.543
M05
G1 X-0.03Y-0.007
M03 P30 S76.5
G1 Y-0.55
M05
G1 Y-0.992
M03 P30 S76.5
G1 Y-0.569
M05
G1 Y-1.513
M03 P30 S76.5
G1 Y-0.53
M05
G1 X-0.03Y0.006
M03 P30 S76.5
G1 Y0.536
M05
G1 Y1.51
M03 P30 S76.5
G1 Y0.579
M05
G1 Y0.954
M03 P30 S76.5
G1 Y0.56
M05
G1 X-0.03Y-0.01
M03 P30 S76.5
G1 Y-0.571
M05
G1 Y-0.91
M03 P30 S76.5
G1 Y-0.593
M05
G1 Y-1.504
M03 P30 S76.5
G1 Y-0.545
M05
G1 X-0.03Y0.006
M03 P30 S76.5
G1 Y0.558
M05
G1 Y1.494
M03 P30 S76.5
G1 Y0.608
M05
G1 Y0.861
M03 P30 S76.5
G1 Y0.585
M05
G1 X-0.03Y-0.01
M03 P30 S76.5
G1 Y-0.604
M05
G1 Y-0.801
M03 P30 S76.5
G1 Y-0.627
M05
G1 Y-1.488
M03 P30 S76.5
G1 Y-0.569
M05
G1 X-0.03Y0.009
M03 P30 S76.5
G1 Y0.584
M05
G1 Y1.476
M03 P30 S76.5
G1 Y0.648
M05
G1 Y0.735
M03 P30 S76.5
G1 Y0.623
M05
G1 X-0.03Y-0.013
M03 P30 S76.5
G1 Y-0.649
M05
G1 Y-0.653
M03 P30 S76.5
G1 Y-0.678
M05
G1 Y-1.463
M03 P30 S76.5
G1 Y-0.602
M05
G1 X-0.03Y0.009
M03 P30 S76.5
G1 Y0.621
M05
G1 Y1.448
M03 P30 S76.5
G1 Y0.719
M05
G1 Y0.549
M03 P30 S76.5
G1 Y0.685
M05
G1 X-0.03Y-0.017
M03 P30 S76.5
G1 Y-0.737
M05
G1 Y-0.411
M03 P30 S76.5
G1 Y-0.772
M05
G1 Y-1.43
M03 P30 S76.5
G1 Y-0.646
M05
G1 X-0.03Y0.016
M03 P30 S76.5
G1 Y0.667
M05
G1 Y1.411
M03 P30 S76.5
G1 Y0.87
M05
G1 Y0.157
M03 P30 S76.5
G1 Y0.857
M05
G1 X-0.03Y-0.018
M03 P30 S76.5
G1 Y-1.848
M05
G1 Y-1.384
M03 P30 S76.5
G1 Y-0.697
M05
G1 X-0.03Y0.016
M03 P30 S76.5
G1 Y0.734
M05
G1 Y1.349
M03 P30 S76.5
G1 Y1.81
M05
G1 X-0.03Y-0.022
M03 P30 S76.5
G1 Y-1.766
M05
G1 Y-1.304
M03 P30 S76.5
G1 Y-0.786
M05
G1 X-0.03Y0.017
M03 P30 S76.5
G1 Y0.904
M05
G1 Y0.089
M03 P30 S76.5
G1 Y0.079
M05
G1 Y1.024
M03 P30 S76.5
G1 Y1.721
M05
G1 X-0.03Y-0.025
M03 P30 S76.5
G1 Y-1.673
M05
G1 Y-0.928
M03 P30 S76.5
G1 Y-1.171
M05
G1 X-0.03Y0.02
M03 P30 S76.5
G1 Y1.197
M05
G1 Y0.908
M03 P30 S76.5
G1 Y1.62
M05
G1 X-0.03Y-0.027
M03 P30 S76.5
G1 Y-1.562
M05
G1 Y-0.909
M03 P30 S76.5
G1 Y-1.203
M05
G1 X-0.03Y0.023
M03 P30 S76.5
G1 Y1.202
M05
G1 Y0.918
M03 P30 S76.5
G1 Y1.499
M05
G1 X-0.03Y-0.033
M03 P30 S76.5
G1 Y-1.433
M05
G1 Y-0.934
M03 P30 S76.5
G1 Y-1.192
M05
G1 X-0.03Y0.027
M03 P30 S76.5
G1 Y1.174
M05
G1 Y0.965
M03 P30 S76.5
G1 Y1.357
M05
G1 X-0.03Y-0.041
M03 P30 S76.5
G1 Y-1.277
M05
G1 Y-0.997
M03 P30 S76.5
G1 Y-1.15
M05
G1 X-0.03Y0.032
M03 P30 S76.5
G1 Y1.121
M05
G1 Y1.042
M03 P30 S76.5
G1 Y1.186
M05
G1 X-0.03Y-0.051
M03 P30 S76.5
G1 Y-1.084
M05
G1 Y-1.095
M03 P30 S76.5
G1 Y-1.08
M05
G1 X-0.03Y0.04
M03 P30 S76.5
G1 Y1.036
M05
G1 Y1.158
M03 P30 S76.5
G1 Y0.968
M05
G1 X-0.03Y-0.065
M03 P30 S76.5
G1 Y-0.834
M05
G1 Y-1.236
M03 P30 S76.5
G1 Y-0.987
M05
G1 X-0.03Y0.049
M03 P30 S76.5
G1 Y0.926
M05
G1 Y1.336
M03 P30 S76.5
G1 Y0.658
M05
G1 X-0.03Y-0.118
M03 P30 S76.5
G1 Y-0.417
M05
G1 Y-1.477
M03 P30 S76.5
G1 Y-0.854
M05
G1 X-0.03Y0.054
M03 P30 S76.5
G1 Y0.779
M05
G1 X-0.03Y-0.035
M03 P30 S76.5
G1 Y-0.667
M05
G1 X-0.03Y0.078
M03 P30 S76.5
G1 Y0.542
M05
G1 X-0.03Y-0.073
M03 P30 S76.5
G1 Y-0.341
M05
G0 X-1.781 Y-7.268 F0
M03 P30 S76.5
G1 X0.156 F2300
M05
G1 X0.079Y0.03
M03 P30 S76.5
G1 X-0.295
M05
G1 X-0.036Y0.03
M03 P30 S76.5
G1 X0.373
M05
G1 X0.03Y0.03
M03 P30 S76.5
G1 X-0.429
M05
G1 X-0.021Y0.03
M03 P30 S76.5
G1 X0.47
M05
G1 X0.015Y0.03
M03 P30 S76.5
G1 X-0.499
M05
G1 X-0.015Y0.03
M03 P30 S76.5
G1 X0.525
M05
G1 Y0.03
M03 P30 S76.5
G1 X-0.539
M05
G1 X-0.011Y0.03
M03 P30 S76.5
G1 X0.557
M05
G1 Y0.03
M03 P30 S76.5
G1 X-0.568
M05
G1 X-0.011Y0.03
M03 P30 S76.5
G1 X0.572
M05
G1 X-0.007Y0.03
M03 P30 S76.5
G1 X-0.576
M05
G1 X-0.012Y0.03
M03 P30 S76.5
G1 X0.581
M05
G1 X-0.009Y0.03
M03 P30 S76.5
G1 X-0.583
M05
G1 X-0.011Y0.03
M03 P30 S76.5
G1 X0.583
M05
G1 X-0.012Y0.03
M03 P30 S76.5
G1 X-0.582
M05
G1 X-0.011Y0.03
M03 P30 S76.5
G1 X0.582
M05
G1 X-0.012Y0.03
M03 P30 S76.5
G1 X-0.581
M05
G1 X-0.012Y0.03
M03 P30 S76.5
G1 X0.582
M05
G1 X-0.012Y0.03
M03 P30 S76.5
G1 X-0.581
M05
G1 X-0.011Y0.03
M03 P30 S76.5
G1 X0.581
M05
G1 X-0.012Y0.03
M03 P30 S76.5
G1 X-0.58
M05
G1 X-0.011Y0.03
M03 P30 S76.5
G1 X0.58
M05
G1 X-0.012Y0.03
M03 P30 S76.5
G1 X-0.579
M05
G1 X-2.497Y0.03
M03 P30 S76.5
G1 X3.065
M05
G1 X-0.012Y0.03
M03 P30 S76.5
G1 X-3.042
M05
G1 X0.012Y0.03
M03 P30 S76.5
G1 X3.019
M05
G1 X-0.012Y0.03
M03 P30 S76.5
G1 X-2.996
M05
G1 X0.011Y0.03
M03 P30 S76.5
G1 X2.974
M05
G1 X-0.012Y0.03
M03 P30 S76.5
G1 X-2.95
M05
G1 X0.011Y0.03
M03 P30 S76.5
G1 X2.928
M05
G1 X-0.012Y0.03
M03 P30 S76.5
G1 X-2.905
M05
G1 X0.012Y0.03
M03 P30 S76.5
G1 X2.882
M05
G1 X-0.012Y0.03
M03 P30 S76.5
G1 X-2.859
M05
G1 X0.011Y0.03
M03 P30 S76.5
G1 X2.837
M05
G1 X-0.012Y0.03
M03 P30 S76.5
G1 X-2.813
M05
G1 X0.011Y0.03
M03 P30 S76.5
G1 X2.791
M05
G1 X-0.012Y0.03
M03 P30 S76.5
G1 X-2.767
M05
G1 X0.011Y0.03
M03 P30 S76.5
G1 X2.745
M05
G1 X-0.011Y0.03
M03 P30 S76.5
G1 X-2.723
M05
G1 X0.012Y0.03
M03 P30 S76.5
G1 X2.699
M05
G1 X-0.011Y0.03
M03 P30 S76.5
G1 X-0.59
M05
G1 X-1.503
M03 P30 S76.5
G1 X-0.584
M05
G1 X0.011Y0.03
M03 P30 S76.5
G1 X0.584
M05
G1 X1.481
M03 P30 S76.5
G1 X0.589
M05
G1 X-0.011Y0.03
M03 P30 S76.5
G1 X-0.589
M05
G1 X-1.458
M03 P30 S76.5
G1 X-0.584
M05
G1 X0.011Y0.03
M03 P30 S76.5
G1 X0.584
M05
G1 X1.435
M03 P30 S76.5
G1 X0.589
M05
G1 X-0.011Y0.03
M03 P30 S76.5
G1 X-0.589
M05
G1 X-1.413
M03 P30 S76.5
G1 X-0.584
M05
G1 X0.012Y0.03
M03 P30 S76.5
G1 X0.584
M05
G1 X1.39
M03 P30 S76.5
G1 X0.588
M05
G1 X-0.011Y0.03
M03 P30 S76.5
G1 X-0.589
M05
G1 X-1.367
M03 P30 S76.5
G1 X-0.584
M05
G1 X0.011Y0.03
M03 P30 S76.5
G1 X0.584
M05
G1 X1.345
M03 P30 S76.5
G1 X0.588
M05
G1 X-0.011Y0.03
M03 P30 S76.5
G1 X-0.588
M05
G1 X-1.322
M03 P30 S76.5
G1 X-0.584
M05
G1 X0.011Y0.03
M03 P30 S76.5
G1 X0.584
M05
G1 X1.299
M03 P30 S76.5
G1 X0.588
M05
G1 X-0.011Y0.03
M03 P30 S76.5
G1 X-0.588
M05
G1 X-1.277
M03 P30 S76.5
G1 X-0.584
M05
G1 X0.012Y0.03
M03 P30 S76.5
G1 X0.584
M05
G1 X1.254
M03 P30 S76.5
G1 X0.587
M05
G1 X-0.011Y0.03
M03 P30 S76.5
G1 X-0.588
M05
G1 X-1.231
M03 P30 S76.5
G1 X-0.584
M05
G1 X0.011Y0.03
M03 P30 S76.5
G1 X0.584
M05
G1 X1.209
M03 P30 S76.5
G1 X0.587
M05
G1 X-0.011Y0.03
M03 P30 S76.5
G1 X-0.587
M05
G1 X-1.186
M03 P30 S76.5
G1 X-0.584
M05
G1 X0.011Y0.03
M03 P30 S76.5
G1 X0.584
M05
G1 X1.163
M03 P30 S76.5
G1 X0.587
M05
G1 X-0.011Y0.03
M03 P30 S76.5
G1 X-0.587
M05
G1 X-1.141
M03 P30 S76.5
G1 X-0.584
M05
G1 X0.012Y0.03
M03 P30 S76.5
G1 X0.584
M05
G1 X1.118
M03 P30 S76.5
G1 X0.586
M05
G1 X-0.011Y0.03
M03 P30 S76.5
G1 X-0.587
M05
G1 X-1.095
M03 P30 S76.5
G1 X-0.584
M05
G1 X0.012Y0.03
M03 P30 S76.5
G1 X0.583
M05
G1 X1.073
M03 P30 S76.5
G1 X0.586
M05
G1 X-0.011Y0.03
M03 P30 S76.5
G1 X-0.586
M05
G1 X-1.05
M03 P30 S76.5
G1 X-0.584
M05
G1 X0.011Y0.03
M03 P30 S76.5
G1 X0.584
M05
G1 X1.027
M03 P30 S76.5
G1 X0.586
M05
G1 X-0.011Y0.03
M03 P30 S76.5
G1 X-0.586
M05
G1 X-1.005
M03 P30 S76.5
G1 X-0.583
M05
G1 X0.011Y0.03
M03 P30 S76.5
G1 X0.584
M05
G1 X0.982
M03 P30 S76.5
G1 X0.585
M05
G1 X-0.011Y0.03
M03 P30 S76.5
G1 X-0.586
M05
G1 X-0.959
M03 P30 S76.5
G1 X-0.584
M05
G1 X0.012Y0.03
M03 P30 S76.5
G1 X0.583
M05
G1 X0.937
M03 P30 S76.5
G1 X0.585
M05
G1 X-0.011Y0.03
M03 P30 S76.5
G1 X-0.585
M05
G1 X-0.914
M03 P30 S76.5
G1 X-0.584
M05
G1 X0.011Y0.03
M03 P30 S76.5
G1 X0.584
M05
G1 X0.891
M03 P30 S76.5
G1 X0.585
M05
G1 X-0.011Y0.03
M03 P30 S76.5
G1 X-0.585
M05
G1 X-0.869
M03 P30 S76.5
G1 X-0.583
M05
G1 X0.011Y0.03
M03 P30 S76.5
G1 X0.584
M05
G1 X0.846
M03 P30 S76.5
G1 X0.584
M05
G1 X-0.011Y0.03
M03 P30 S76.5
G1 X-0.585
M05
G1 X-0.823
M03 P30 S76.5
G1 X-0.584
M05
G1 X0.012Y0.03
M03 P30 S76.5
G1 X0.583
M05
G1 X0.801
M03 P30 S76.5
G1 X0.584
M05
G1 X-0.011Y0.03
M03 P30 S76.5
G1 X-0.584
M05
G1 X-0.778
M03 P30 S76.5
G1 X-0.584
M05
G1 X0.011Y0.03
M03 P30 S76.5
G1 X0.584
M05
G1 X0.755
M03 P30 S76.5
G1 X0.584
M05
G1 X-0.011Y0.03
M03 P30 S76.5
G1 X-0.584
M05
G1 X-0.733
M03 P30 S76.5
G1 X-0.583
M05
G1 X0.011Y0.03
M03 P30 S76.5
G1 X0.584
M05
G1 X0.71
M03 P30 S76.5
G1 X0.583
M05
G1 X-0.011Y0.03
M03 P30 S76.5
G1 X-0.584
M05
G1 X-0.687
M03 P30 S76.5
G1 X-0.584
M05
G1 X0.012Y0.03
M03 P30 S76.5
G1 X0.583
M05
G1 X0.665
M03 P30 S76.5
G1 X0.583
M05
G1 X-0.011Y0.03
M03 P30 S76.5
G1 X-0.583
M05
G1 X-0.642
M03 P30 S76.5
G1 X-0.584
M05
G1 X0.011Y0.03
M03 P30 S76.5
G1 X0.584
M05
G1 X0.619
M03 P30 S76.5
G1 X0.583
M05
G1 X-0.011Y0.03
M03 P30 S76.5
G1 X-0.583
M05
G1 X-0.597
M03 P30 S76.5
G1 X-0.583
M05
G1 X0.011Y0.03
M03 P30 S76.5
G1 X0.584
M05
G1 X0.574
M03 P30 S76.5
G1 X0.582
M05
G1 X-0.011Y0.03
M03 P30 S76.5
G1 X-0.583
M05
G1 X-0.551
M03 P30 S76.5
G1 X-0.584
M05
G1 X0.012Y0.03
M03 P30 S76.5
G1 X0.583
M05
G1 X0.529
M03 P30 S76.5
G1 X0.582
M05
G1 X-0.011Y0.03
M03 P30 S76.5
G1 X-0.582
M05
G1 X-0.506
M03 P30 S76.5
G1 X-0.584
M05
G1 X0.012Y0.03
M03 P30 S76.5
G1 X0.583
M05
G1 X0.483
M03 P30 S76.5
G1 X0.582
M05
G1 X-0.011Y0.03
M03 P30 S76.5
G1 X-0.582
M05
G1 X-0.461
M03 P30 S76.5
G1 X-0.583
M05
G1 X0.011Y0.03
M03 P30 S76.5
G1 X0.584
M05
G1 X0.438
M03 P30 S76.5
G1 X0.581
M05
G1 X-0.011Y0.03
M03 P30 S76.5
G1 X-0.582
M05
G1 X-0.415
M03 P30 S76.5
G1 X-0.583
M05
G1 X0.011Y0.03
M03 P30 S76.5
G1 X0.583
M05
G1 X0.393
M03 P30 S76.5
G1 X0.581
M05
G1 X-0.011Y0.03
M03 P30 S76.5
G1 X-0.581
M05
G1 X-0.37
M03 P30 S76.5
G1 X-0.584
M05
G1 X0.012Y0.03
M03 P30 S76.5
G1 X0.583
M05
G1 X0.347
M03 P30 S76.5
G1 X0.581
M05
G1 X-0.011Y0.03
M03 P30 S76.5
G1 X-0.581
M05
G1 X-0.325
M03 P30 S76.5
G1 X-0.583
M05
G1 X0.011Y0.03
M03 P30 S76.5
G1 X0.584
M05
G1 X0.302
M03 P30 S76.5
G1 X0.58
M05
G1 X-0.011Y0.03
M03 P30 S76.5
G1 X-0.581
M05
G1 X-0.279
M03 P30 S76.5
G1 X-0.583
M05
G1 X0.011Y0.03
M03 P30 S76.5
G1 X0.583
M05
G1 X0.257
M03 P30 S76.5
G1 X0.58
M05
G1 X-0.011Y0.03
M03 P30 S76.5
G1 X-0.58
M05
G1 X-0.234
M03 P30 S76.5
G1 X-0.584
M05
G1 X0.012Y0.03
M03 P30 S76.5
G1 X0.583
M05
G1 X0.211
M03 P30 S76.5
G1 X0.58
M05
G1 X-0.011Y0.03
M03 P30 S76.5
G1 X-0.58
M05
G1 X-0.189
M03 P30 S76.5
G1 X-0.583
M05
G1 X0.011Y0.03
M03 P30 S76.5
G1 X0.584
M05
G1 X0.166
M03 P30 S76.5
G1 X0.579
M05
G1 X-0.011Y0.03
M03 P30 S76.5
G1 X-0.58
M05
G1 X-0.143
M03 P30 S76.5
G1 X-0.583
M05
G1 X0.011Y0.03
M03 P30 S76.5
G1 X0.583
M05
G1 X0.121
M03 P30 S76.5
G1 X0.579
M05
G1 X-0.011Y0.03
M03 P30 S76.5
G1 X-0.579
M05
G1 X-0.098
M03 P30 S76.5
G1 X-0.584
M05
G1 X0.012Y0.03
M03 P30 S76.5
G1 X0.583
M05
G1 X0.075
M03 P30 S76.5
G1 X0.579
M05
G1 X-0.011Y0.03
M03 P30 S76.5
G1 X-0.579
M05
G1 X-0.053
M03 P30 S76.5
G1 X-0.583
M05
G1 X0.011Y0.03
M03 P30 S76.5
G1 X0.584
M05
G1 X0.03
M03 P30 S76.5
G1 X0.578
M05
G1 X-0.011Y0.03
M03 P30 S76.5
G1 X-0.579
G1 X-0.59
M05
G1 X0.011Y0.03
M03 P30 S76.5
G1 X1.146
M05
G1 X-0.011Y0.03
M03 P30 S76.5
G1 X-1.123
M05
G1 X0.011Y0.03
M03 P30 S76.5
G1 X1.1
M05
G1 X-0.011Y0.03
M03 P30 S76.5
G1 X-1.078
M05
G1 X0.012Y0.03
M03 P30 S76.5
G1 X1.054
M05
G1 X-0.011Y0.03
M03 P30 S76.5
G1 X-1.032
M05
G1 X0.011Y0.03
M03 P30 S76.5
G1 X1.009
M05
G1 X-0.011Y0.03
M03 P30 S76.5
G1 X-0.986
M05
G1 X0.011Y0.03
M03 P30 S76.5
G1 X0.963
M05
G1 X-0.011Y0.03
M03 P30 S76.5
G1 X-0.941
M05
G1 X0.012Y0.03
M03 P30 S76.5
G1 X0.917
M05
G1 X-0.011Y0.03
M03 P30 S76.5
G1 X-0.895
M05
G1 X0.011Y0.03
M03 P30 S76.5
G1 X0.872
M05
G1 X-0.011Y0.03
M03 P30 S76.5
G1 X-0.849
M05
G1 X0.011Y0.03
M03 P30 S76.5
G1 X0.826
M05
G1 X-0.011Y0.03
M03 P30 S76.5
G1 X-0.804
M05
G1 X0.012Y0.03
M03 P30 S76.5
G1 X0.78
M05
G1 X-0.011Y0.03
M03 P30 S76.5
G1 X-0.758
M05
G1 X0.011Y0.03
M03 P30 S76.5
G1 X0.735
M05
G1 X-0.011Y0.03
M03 P30 S76.5
G1 X-0.712
M05
G1 X0.011Y0.03
M03 P30 S76.5
G1 X0.689
M05
G1 X-0.011Y0.03
M03 P30 S76.5
G1 X-0.667
M05
G1 X0.012Y0.03
M03 P30 S76.5
G1 X0.643
M05
G1 X-0.011Y0.03
M03 P30 S76.5
G1 X-0.621
M05
G1 X0.011Y0.03
M03 P30 S76.5
G1 X0.598
M05
G1 X-0.012Y0.03
M03 P30 S76.5
G1 X-0.574
M05
G1 X0.011Y0.03
M03 P30 S76.5
G1 X0.55
M05
G1 X-0.013Y0.03
M03 P30 S76.5
G1 X-0.524
M05
G1 X0.014Y0.03
M03 P30 S76.5
G1 X0.497
M05
G1 X-0.017Y0.03
M03 P30 S76.5
G1 X-0.465
M05
G1 X0.019Y0.03
M03 P30 S76.5
G1 X0.426
M05
G1 X-0.023Y0.03
M03 P30 S76.5
G1 X-0.377
M05
G1 X0.035Y0.03
M03 P30 S76.5
G1 X0.307
M05
G1 X-0.073Y0.03
M03 P30 S76.5
G1 X-0.176
M05
G1 X-1.388Y-4.23
M03 P30 S76.5
G1 X0.151
M05
G1 X0.069Y0.03
M03 P30 S76.5
G1 X-0.3
M05
G1 X-0.042Y0.03
M03 P30 S76.5
G1 X0.382
M05
G1 X0.026Y0.03
M03 P30 S76.5
G1 X-0.437
M05
G1 X-0.02Y0.03
M03 P30 S76.5
G1 X0.476
M05
G1 X0.017Y0.03
M03 P30 S76.5
G1 X-0.508
M05
G1 X-0.01Y0.03
M03 P30 S76.5
G1 X0.533
M05
G1 X0.012Y0.03
M03 P30 S76.5
G1 X-0.549
M05
G1 Y0.03
M03 P30 S76.5
G1 X0.56
M05
G1 X0.012Y0.03
M03 P30 S76.5
G1 X-0.572
M05
G1 X0.006Y0.03
M03 P30 S76.5
G1 X0.577
M05
G1 X0.012Y0.03
M03 P30 S76.5
G1 X-0.58
M05
G1 X0.01Y0.03
M03 P30 S76.5
G1 X0.581
M05
G1 X0.012Y0.03
M03 P30 S76.5
G1 X-0.582
M05
G1 X0.011Y0.03
M03 P30 S76.5
G1 X0.582
M05
G1 X0.012Y0.03
M03 P30 S76.5
G1 X-0.583
M05
G1 X0.011Y0.03
M03 P30 S76.5
G1 X0.584
M05
G1 X0.011Y0.03
M03 P30 S76.5
G1 X-0.583
M05
G1 X0.011Y0.03
M03 P30 S76.5
G1 X0.584
M05
G1 X0.011Y0.03
M03 P30 S76.5
G1 X-0.584
M05
G1 X0.012Y0.03
M03 P30 S76.5
G1 X0.584
M05
G1 X0.011Y0.03
M03 P30 S76.5
G1 X-0.584
M05
G1 X0.011Y0.03
M03 P30 S76.5
G1 X0.585
M05
G1 X0.011Y0.03
M03 P30 S76.5
G1 X-0.584
M05
G1 X3.205Y-0.561
M03 P30 S76.5
G1 Y0.253
M05
G1 X-0.03Y0.079
M03 P30 S76.5
G1 Y-0.375
M05
G1 X-0.03Y-0.03
M03 P30 S76.5
G1 Y0.483
M05
G1 X-0.03Y0.078
M03 P30 S76.5
G1 Y-0.582
M05
G1 X-0.03Y-0.015
M03 P30 S76.5
G1 Y0.675
M05
G1 X-0.03Y0.079
M03 P30 S76.5
G1 Y-0.767
M05
G1 X-0.03Y-0.008
M03 P30 S76.5
G1 Y0.853
M05
G1 X-0.03Y0.078
M03 P30 S76.5
G1 Y-0.936
M05
G1 X-0.03
M03 P30 S76.5
G1 Y1.015
M05
G1 X-0.03Y0.078
M03 P30 S76.5
G1 Y-1.096
M05
G1 X-0.03
M03 P30 S76.5
G1 Y1.174
M05
G1 X-0.03Y0.079
M03 P30 S76.5
G1 Y-1.245
M05
G1 X-0.03Y0.012
M03 P30 S76.5
G1 Y1.311
M05
G1 X-0.03Y0.078
M03 P30 S76.5
G1 Y-1.373
M05
G1 X-0.03Y0.023
M03 P30 S76.5
G1 Y1.428
M05
G1 X-0.03Y0.079
M03 P30 S76.5
G1 Y-1.476
M05
G1 X-0.03Y0.047
M03 P30 S76.5
G1 Y1.507
M05
G1 X-0.03Y0.078
M03 P30 S76.5
G1 Y-1.524
M05
G1 X-0.03Y0.077
M03 P30 S76.5
G1 Y1.526
M05
G1 X-0.03Y0.078
M03 P30 S76.5
G1 Y-1.523
M05
G1 X-0.03Y0.08
M03 P30 S76.5
G1 Y1.521
M05
G1 X-0.03Y0.078
M03 P30 S76.5
G1 Y-1.518
M05
G1 X-0.03Y0.081
M03 P30 S76.5
G1 Y1.516
M05
G1 X-0.03Y0.078
M03 P30 S76.5
G1 Y-1.514
M05
G1 X-0.03Y0.031
M03 P30 S76.5
G1 Y1.561
M05
G1 X-0.03Y0.079
M03 P30 S76.5
G1 Y-1.64
M05
G1 X-0.03
M03 P30 S76.5
G1 Y1.718
M05
G1 X-0.03Y0.078
M03 P30 S76.5
G1 Y-1.796
M05
G1 X-0.03
M03 P30 S76.5
G1 Y1.875
M05
G1 X-0.03Y0.078
M03 P30 S76.5
G1 Y-1.953
M05
G1 X-0.03
M03 P30 S76.5
G1 Y2.031
M05
G1 X-0.03Y0.078
M03 P30 S76.5
G1 Y-1.537
M05
G1 Y-0.047
M03 P30 S76.5
G1 Y-0.525
M05
G1 X-0.03
M03 P30 S76.5
G1 Y0.525
M05
G1 Y0.126
M03 P30 S76.5
G1 Y1.537
M05
G1 X-0.03Y0.078
M03 P30 S76.5
G1 Y-1.535
M05
G1 Y-0.206
M03 P30 S76.5
G1 Y-0.525
M05
G1 X-0.03
M03 P30 S76.5
G1 Y0.525
M05
G1 Y0.285
M03 P30 S76.5
G1 Y1.534
M05
G1 X-0.03Y0.079
M03 P30 S76.5
G1 Y-1.533
M05
G1 Y-0.365
M03 P30 S76.5
G1 Y-0.525
M05
G1 X-0.03
M03 P30 S76.5
G1 Y0.525
M05
G1 Y0.444
M03 P30 S76.5
G1 Y1.532
M05
G1 X-0.03Y0.078
M03 P30 S76.5
G1 Y-1.531
M05
G1 Y-0.523
M03 P30 S76.5
G1 Y-0.525
M05
G1 X-0.03
M03 P30 S76.5
G1 Y0.525
M05
G1 Y0.603
M03 P30 S76.5
G1 Y1.529
M05
G1 X-0.03Y0.079
M03 P30 S76.5
G1 Y-1.529
M05
G1 Y-0.682
M03 P30 S76.5
G1 Y-0.525
M05
G1 X-0.03
M03 P30 S76.5
G1 Y0.525
M05
G1 Y0.762
M03 P30 S76.5
G1 Y1.527
M05
G1 X-0.03Y0.078
M03 P30 S76.5
G1 Y-1.526
M05
G1 Y-0.841
M03 P30 S76.5
G1 Y-0.525
M05
G1 X-0.03
M03 P30 S76.5
G1 Y0.525
M05
G1 Y0.921
M03 P30 S76.5
G1 Y1.525
M05
G1 X-0.03Y0.078
M03 P30 S76.5
G1 Y-1.524
M05
G1 Y-1
M03 P30 S76.5
G1 Y-0.525
M05
G1 X-0.03
M03 P30 S76.5
G1 Y0.525
M05
G1 Y1.079
M03 P30 S76.5
G1 Y1.523
M05
G1 X-0.03Y0.079
M03 P30 S76.5
G1 Y-1.522
M05
G1 Y-1.159
M03 P30 S76.5
G1 Y-0.525
M05
G1 X-0.03
M03 P30 S76.5
G1 Y0.525
M05
G1 Y1.238
M03 P30 S76.5
G1 Y1.52
M05
G1 X-0.03Y0.069
M03 P30 S76.5
G1 Y-1.509
M05
G1 Y-1.318
M03 P30 S76.5
G1 Y-0.525
M05
G1 X-0.03
M03 P30 S76.5
G1 Y0.525
M05
G1 Y1.397
M03 P30 S76.5
G1 Y1.488
M05
G1 X-0.03Y0.044
M03 P30 S76.5
G1 Y-1.453
M05
G1 Y-1.476
M03 P30 S76.5
G1 Y-0.525
M05
G1 X-0.03Y2.081
M03 P30 S76.5
G1 Y1.404
M05
G1 X-0.03Y0.022
M03 P30 S76.5
G1 Y-1.347
M05
G1 X-0.03Y0.08
M03 P30 S76.5
G1 Y1.281
M05
G1 X-0.03Y0.009
M03 P30 S76.5
G1 Y-1.211
M05
G1 X-0.03Y0.08
M03 P30 S76.5
G1 Y1.137
M05
G1 X-0.03
M03 P30 S76.5
G1 Y-1.058
M05
G1 X-0.03
M03 P30 S76.5
G1 Y1.06
M05
G1 X-0.03
M03 P30 S76.5
G1 Y-1.136
M05
G1 X-0.03Y-0.08
M03 P30 S76.5
G1 Y1.213
M05
G1 X-0.03Y-0.007
M03 P30 S76.5
G1 Y-1.285
M05
G1 X-0.03Y-0.08
M03 P30 S76.5
G1 Y1.352
M05
G1 X-0.03Y-0.019
M03 P30 S76.5
G1 Y-1.412
M05
G1 X-0.03Y-2.084
M03 P30 S76.5
G1 Y0.525
M05
G1 Y1.48
M03 P30 S76.5
G1 Y1.464
M05
G1 X-0.03Y-0.036
M03 P30 S76.5
G1 Y-1.508
M05
G1 Y-1.4
M03 P30 S76.5
G1 Y-0.525
M05
G1 X-0.03
M03 P30 S76.5
G1 Y0.525
M05
G1 Y1.321
M03 P30 S76.5
G1 Y1.532
M05
G1 X-0.03Y-0.069
M03 P30 S76.5
G1 Y-1.543
M05
G1 Y-1.241
M03 P30 S76.5
G1 Y-0.525
M05
G1 X-0.03
M03 P30 S76.5
G1 Y0.525
M05
G1 Y1.162
M03 P30 S76.5
G1 Y1.543
M05
G1 X-0.03Y-0.079
M03 P30 S76.5
G1 Y-1.544
M05
G1 Y-1.082
M03 P30 S76.5
G1 Y-0.525
M05
G1 X-0.03
M03 P30 S76.5
G1 Y0.525
M05
G1 Y1.003
M03 P30 S76.5
G1 Y1.543
M05
G1 X-0.03Y-0.079
M03 P30 S76.5
G1 Y-1.543
M05
G1 Y-0.924
M03 P30 S76.5
G1 Y-0.525
M05
G1 X-0.03
M03 P30 S76.5
G1 Y0.525
M05
G1 Y0.844
M03 P30 S76.5
G1 Y1.544
M05
G1 X-0.03Y-0.08
M03 P30 S76.5
G1 Y-1.543
M05
G1 Y-0.765
M03 P30 S76.5
G1 Y-0.525
M05
G1 X-0.03
M03 P30 S76.5
G1 Y0.525
M05
G1 Y0.685
M03 P30 S76.5
G1 Y1.544
M05
G1 X-0.03Y-0.079
M03 P30 S76.5
G1 Y-1.544
M05
G1 Y-0.606
M03 P30 S76.5
G1 Y-0.525
M05
G1 X-0.03
M03 P30 S76.5
G1 Y0.525
M05
G1 Y0.527
M03 P30 S76.5
G1 Y1.543
M05
G1 X-0.03Y-0.079
M03 P30 S76.5
G1 Y-1.544
M05
G1 Y-0.447
M03 P30 S76.5
G1 Y-0.525
M05
G1 X-0.03
M03 P30 S76.5
G1 Y0.525
M05
G1 Y0.368
M03 P30 S76.5
G1 Y1.544
M05
G1 X-0.03Y-0.08
M03 P30 S76.5
G1 Y-1.544
M05
G1 Y-0.288
M03 P30 S76.5
G1 Y-0.525
M05
G1 X-0.03
M03 P30 S76.5
G1 Y0.525
M05
G1 Y0.209
M03 P30 S76.5
G1 Y1.544
M05
G1 X-0.03Y-0.079
M03 P30 S76.5
G1 Y-1.545
M05
G1 Y-0.129
M03 P30 S76.5
G1 Y-0.525
M05
G1 X-0.03
M03 P30 S76.5
G1 Y0.525
M05
G1 Y0.05
M03 P30 S76.5
G1 Y1.545
M05
G1 X-0.03Y-0.08
M03 P30 S76.5
G1 Y-2.04
M05
G1 X-0.03
M03 P30 S76.5
G1 Y1.961
M05
G1 X-0.03Y-0.079
M03 P30 S76.5
G1 Y-1.882
M05
G1 X-0.03
M03 P30 S76.5
G1 Y1.802
M05
G1 X-0.03Y-0.079
M03 P30 S76.5
G1 Y-1.723
M05
G1 X-0.03
M03 P30 S76.5
G1 Y1.644
M05
G1 X-0.03Y-0.08
M03 P30 S76.5
G1 Y-1.564
M05
G1 X-0.03Y-0.06
M03 P30 S76.5
G1 Y1.545
M05
G1 X-0.03Y-0.079
M03 P30 S76.5
G1 Y-1.544
M05
G1 X-0.03Y-0.078
M03 P30 S76.5
G1 Y1.542
M05
G1 X-0.03Y-0.079
M03 P30 S76.5
G1 Y-1.541
M05
G1 X-0.03Y-0.078
M03 P30 S76.5
G1 Y1.54
M05
G1 X-0.03Y-0.08
M03 P30 S76.5
G1 Y-1.538
M05
G1 X-0.03Y-0.078
M03 P30 S76.5
G1 Y1.537
M05
G1 X-0.03Y-0.079
M03 P30 S76.5
G1 Y-1.512
M05
G1 X-0.03Y-0.043
M03 P30 S76.5
G1 Y1.475
M05
G1 X-0.03Y-0.079
M03 P30 S76.5
G1 Y-1.424
M05
G1 X-0.03Y-0.021
M03 P30 S76.5
G1 Y1.366
M05
G1 X-0.03Y-0.079
M03 P30 S76.5
G1 Y-1.302
M05
G1 X-0.03Y-0.011
M03 P30 S76.5
G1 Y1.233
M05
G1 X-0.03Y-0.079
M03 P30 S76.5
G1 Y-1.16
M05
G1 X-0.03
M03 P30 S76.5
G1 Y1.081
M05
G1 X-0.03Y-0.08
M03 P30 S76.5
G1 Y-1.004
M05
G1 X-0.03
M03 P30 S76.5
G1 Y0.925
M05
G1 X-0.03Y-0.079
M03 P30 S76.5
G1 Y-0.838
M05
G1 X-0.03Y0.007
M03 P30 S76.5
G1 Y0.751
M05
G1 X-0.03Y-0.079
M03 P30 S76.5
G1 Y-0.66
M05
G1 X-0.03Y0.016
M03 P30 S76.5
G1 Y0.565
M05
G1 X-0.03Y-0.08
M03 P30 S76.5
G1 Y-0.465
M05
G1 X-0.03Y0.03
M03 P30 S76.5
G1 Y0.356
M05
G1 X-0.03Y-0.084
M03 P30 S76.5
G1 Y-0.229
M05
G1 X1.83Y0.573
M03 P30 S76.5
G1 Y0.525
M05
G1 X-0.03
M03 P30 S76.5
G1 Y-0.525
M05
G1 X-0.03
M03 P30 S76.5
G1 Y0.525
M05
G1 X-0.03
M03 P30 S76.5
G1 Y-0.525
M05
G1 X-0.03
M03 P30 S76.5
G1 Y0.525
M05
G1 X-0.03
M03 P30 S76.5
G1 Y-0.525
M05
G1 X-0.03
M03 P30 S76.5
G1 Y0.525
M05
G1 X-0.03
M03 P30 S76.5
G1 Y-0.525
M05
G1 X-0.03
M03 P30 S76.5
G1 Y0.525
M05
G1 X-0.03
M03 P30 S76.5
G1 Y-0.525
M05
G1 X-0.03
M03 P30 S76.5
G1 Y0.525
M05
G1 X-0.03
M03 P30 S76.5
G1 Y-0.525
M05
G0 X-2.489 Y-0.7 F0
M03 P30 S76.5
G1 X0.145 F2300
M05
G1 X0.069Y0.03
M03 P30 S76.5
G1 X-0.285
M05
G1 X-0.034Y0.03
M03 P30 S76.5
G1 X0.35
M05
G1 X0.02Y0.03
M03 P30 S76.5
G1 X-0.392
M05
G1 X-0.013Y0.03
M03 P30 S76.5
G1 X0.417
M05
G1 X0.009Y0.03
M03 P30 S76.5
G1 X-0.438
M05
G1 X-0.007Y0.03
M03 P30 S76.5
G1 X0.452
M05
G1 Y0.03
M03 P30 S76.5
G1 X-0.455
M05
G1 Y0.03
M03 P30 S76.5
G1 X0.46
M05
G1 Y0.03
M03 P30 S76.5
G1 X-0.462
M05
G1 Y0.03
M03 P30 S76.5
G1 X0.465
M05
G1 Y0.03
M03 P30 S76.5
G1 X-0.465
M05
G1 Y0.03
M03 P30 S76.5
G1 X0.466
M05
G1 Y0.03
M03 P30 S76.5
G1 X-0.466
M05
G1 Y0.03
M03 P30 S76.5
G1 X0.466
M05
G1 Y0.03
M03 P30 S76.5
G1 X-0.466
M05
G1 Y0.03
M03 P30 S76.5
G1 X0.466
M05
G1 Y0.03
M03 P30 S76.5
G1 X-0.466
M05
G1 Y0.03
M03 P30 S76.5
G1 X0.466
M05
G1 Y0.03
M03 P30 S76.5
G1 X-0.466
M05
G1 Y0.03
M03 P30 S76.5
G1 X0.466
M05
G1 Y0.03
M03 P30 S76.5
G1 X-0.466
M05
G1 Y0.03
M03 P30 S76.5
G1 X0.466
M05
G1 Y0.03
M03 P30 S76.5
G1 X-0.466
M05
G1 Y0.03
M03 P30 S76.5
G1 X0.466
M05
G1 Y0.03
M03 P30 S76.5
G1 X-0.466
M05
G1 Y0.03
M03 P30 S76.5
G1 X0.466
M05
G1 Y0.03
M03 P30 S76.5
G1 X-0.466
M05
G1 Y0.03
M03 P30 S76.5
G1 X0.466
M05
G1 Y0.03
M03 P30 S76.5
G1 X-0.466
M05
G1 Y0.03
M03 P30 S76.5
G1 X0.466
M05
G1 Y0.03
M03 P30 S76.5
G1 X-0.466
M05
G1 Y0.03
M03 P30 S76.5
G1 X0.466
M05
G1 Y0.03
M03 P30 S76.5
G1 X-0.466
M05
G1 Y0.03
M03 P30 S76.5
G1 X0.466
M05
G1 Y0.03
M03 P30 S76.5
G1 X-0.466
M05
G1 Y0.03
M03 P30 S76.5
G1 X0.466
M05
G1 Y0.03
M03 P30 S76.5
G1 X-0.466
M05
G1 Y0.03
M03 P30 S76.5
G1 X0.466
M05
G1 Y0.03
M03 P30 S76.5
G1 X-0.466
M05
G1 Y0.03
M03 P30 S76.5
G1 X0.466
M05
G1 Y0.03
M03 P30 S76.5
G1 X-0.466
M05
G1 Y0.03
M03 P30 S76.5
G1 X0.466
M05
G1 Y0.03
M03 P30 S76.5
G1 X-0.466
M05
G1 Y0.03
M03 P30 S76.5
G1 X0.466
M05
G1 Y0.03
M03 P30 S76.5
G1 X-0.466
M05
G1 Y0.03
M03 P30 S76.5
G1 X0.466
M05
G1 Y0.03
M03 P30 S76.5
G1 X-0.466
M05
G1 Y0.03
M03 P30 S76.5
G1 X0.466
M05
G1 Y0.03
M03 P30 S76.5
G1 X-0.466
M05
G1 Y0.03
M03 P30 S76.5
G1 X0.466
M05
G1 Y0.03
M03 P30 S76.5
G1 X-0.466
M05
G1 Y0.03
M03 P30 S76.5
G1 X0.466
M05
G1 Y0.03
M03 P30 S76.5
G1 X-0.466
M05
G1 Y0.03
M03 P30 S76.5
G1 X0.466
M05
G1 Y0.03
M03 P30 S76.5
G1 X-0.466
M05
G1 Y0.03
M03 P30 S76.5
G1 X0.466
M05
G1 Y0.03
M03 P30 S76.5
G1 X-0.466
M05
G1 Y0.03
M03 P30 S76.5
G1 X0.466
M05
G1 Y0.03
M03 P30 S76.5
G1 X-0.466
M05
G1 Y0.03
M03 P30 S76.5
G1 X0.466
M05
G1 Y0.03
M03 P30 S76.5
G1 X-0.466
M05
G1 Y0.03
M03 P30 S76.5
G1 X0.466
M05
G1 Y0.03
M03 P30 S76.5
G1 X-0.466
M05
G1 Y0.03
M03 P30 S76.5
G1 X0.466
M05
G1 Y0.03
M03 P30 S76.5
G1 X-0.466
M05
G1 Y0.03
M03 P30 S76.5
G1 X0.466
M05
G1 Y0.03
M03 P30 S76.5
G1 X-0.466
M05
G1 Y0.03
M03 P30 S76.5
G1 X0.466
M05
G1 Y0.03
M03 P30 S76.5
G1 X-0.466
M05
G1 Y0.03
M03 P30 S76.5
G1 X0.466
M05
G1 Y0.03
M03 P30 S76.5
G1 X-2.949
M05
G1 Y0.03
M03 P30 S76.5
G1 X2.949
M05
G1 Y0.03
M03 P30 S76.5
G1 X-2.949
M05
G1 Y0.03
M03 P30 S76.5
G1 X2.949
M05
G1 Y0.03
M03 P30 S76.5
G1 X-2.949
M05
G1 Y0.03
M03 P30 S76.5
G1 X2.949
M05
G1 Y0.03
M03 P30 S76.5
G1 X-2.949
M05
G1 Y0.03
M03 P30 S76.5
G1 X2.949
M05
G1 Y0.03
M03 P30 S76.5
G1 X-2.949
M05
G1 Y0.03
M03 P30 S76.5
G1 X2.949
M05
G1 Y0.03
M03 P30 S76.5
G1 X-2.949
M05
G1 Y0.03
M03 P30 S76.5
G1 X2.949
M05
G1 Y0.03
M03 P30 S76.5
G1 X-2.949
M05
G1 Y0.03
M03 P30 S76.5
G1 X2.949
M05
G1 Y0.03
M03 P30 S76.5
G1 X-2.949
M05
G1 Y0.03
M03 P30 S76.5
G1 X2.949
M05
G1 Y0.03
M03 P30 S76.5
G1 X-0.466
M05
G1 Y0.03
M03 P30 S76.5
G1 X0.466
M05
G1 Y0.03
M03 P30 S76.5
G1 X-0.466
M05
G1 Y0.03
M03 P30 S76.5
G1 X0.466
M05
G1 Y0.03
M03 P30 S76.5
G1 X-0.466
M05
G1 Y0.03
M03 P30 S76.5
G1 X0.466
M05
G1 Y0.03
M03 P30 S76.5
G1 X-0.466
M05
G1 Y0.03
M03 P30 S76.5
G1 X0.466
M05
G1 Y0.03
M03 P30 S76.5
G1 X-0.466
M05
G1 Y0.03
M03 P30 S76.5
G1 X0.466
M05
G1 Y0.03
M03 P30 S76.5
G1 X-0.466
M05
G1 Y0.03
M03 P30 S76.5
G1 X0.466
M05
G1 Y0.03
M03 P30 S76.5
G1 X-0.466
M05
G1 Y0.03
M03 P30 S76.5
G1 X0.466
M05
G1 Y0.03
M03 P30 S76.5
G1 X-0.466
M05
G1 Y0.03
M03 P30 S76.5
G1 X0.466
M05
G1 Y0.03
M03 P30 S76.5
G1 X-0.466
M05
G1 Y0.03
M03 P30 S76.5
G1 X0.466
M05
G1 Y0.03
M03 P30 S76.5
G1 X-0.466
M05
G1 Y0.03
M03 P30 S76.5
G1 X0.466
M05
G1 Y0.03
M03 P30 S76.5
G1 X-0.466
M05
G1 Y0.03
M03 P30 S76.5
G1 X0.466
M05
G1 Y0.03
M03 P30 S76.5
G1 X-0.466
M05
G1 Y0.03
M03 P30 S76.5
G1 X0.466
M05
G1 Y0.03
M03 P30 S76.5
G1 X-0.466
M05
G1 Y0.03
M03 P30 S76.5
G1 X0.466
M05
G1 Y0.03
M03 P30 S76.5
G1 X-0.466
M05
G1 Y0.03
M03 P30 S76.5
G1 X0.466
M05
G1 Y0.03
M03 P30 S76.5
G1 X-0.466
M05
G1 Y0.03
M03 P30 S76.5
G1 X0.466
M05
G1 Y0.03
M03 P30 S76.5
G1 X-0.466
M05
G1 Y0.03
M03 P30 S76.5
G1 X0.466
M05
G1 Y0.03
M03 P30 S76.5
G1 X-0.466
M05
G1 Y0.03
M03 P30 S76.5
G1 X0.466
M05
G1 Y0.03
M03 P30 S76.5
G1 X-0.466
M05
G1 Y0.03
M03 P30 S76.5
G1 X0.466
M05
G1 Y0.03
M03 P30 S76.5
G1 X-0.466
M05
G1 Y0.03
M03 P30 S76.5
G1 X0.466
M05
G1 Y0.03
M03 P30 S76.5
G1 X-0.466
M05
G1 Y0.03
M03 P30 S76.5
G1 X0.466
M05
G1 Y0.03
M03 P30 S76.5
G1 X-0.466
M05
G1 Y0.03
M03 P30 S76.5
G1 X0.466
M05
G1 Y0.03
M03 P30 S76.5
G1 X-0.466
M05
G1 Y0.03
M03 P30 S76.5
G1 X0.466
M05
G1 Y0.03
M03 P30 S76.5
G1 X-0.466
M05
G1 Y0.03
M03 P30 S76.5
G1 X0.464
M05
G1 Y0.03
M03 P30 S76.5
G1 X-0.465
M05
G1 Y0.03
M03 P30 S76.5
G1 X0.461
M05
G1 Y0.03
M03 P30 S76.5
G1 X-0.457
M05
G1 X0.006Y0.03
M03 P30 S76.5
G1 X0.441
M05
G1 X-0.009Y0.03
M03 P30 S76.5
G1 X-0.42
M05
G1 X0.018Y0.03
M03 P30 S76.5
G1 X0.389
M05
G1 X-0.021Y0.03
M03 P30 S76.5
G1 X-0.344
M05
G1 X0.037Y0.03
M03 P30 S76.5
G1 X0.277
M05
G1 X-0.064Y0.03
M03 P30 S76.5
G1 X-0.141
M05
G1 X-2.503Y-4.23
M03 P30 S76.5
G1 X0.166
M05
G1 X0.062Y0.03
M03 P30 S76.5
G1 X-0.292
M05
G1 X-0.03Y0.03
M03 P30 S76.5
G1 X0.351
M05
G1 X0.02Y0.03
M03 P30 S76.5
G1 X-0.391
M05
G1 X-0.015Y0.03
M03 P30 S76.5
G1 X0.42
M05
G1 X0.009Y0.03
M03 P30 S76.5
G1 X-0.438
M05
G1 X-0.007Y0.03
M03 P30 S76.5
G1 X0.451
M05
G1 Y0.03
M03 P30 S76.5
G1 X-0.453
M05
G1 Y0.03
M03 P30 S76.5
G1 X0.458
M05
G1 Y0.03
M03 P30 S76.5
G1 X-0.462
M05
G1 Y0.03
M03 P30 S76.5
G1 X0.465
M05
G1 Y0.03
M03 P30 S76.5
G1 X-0.466
M05
G1 Y0.03
M03 P30 S76.5
G1 X0.466
M05
G1 Y0.03
M03 P30 S76.5
G1 X-0.466
M05
G1 Y0.03
M03 P30 S76.5
G1 X0.466
M05
G1 Y0.03
M03 P30 S76.5
G1 X-0.466
M05
G1 Y0.03
M03 P30 S76.5
G1 X0.466
M05
G1 Y0.03
M03 P30 S76.5
G1 X-0.466
M05
G1 Y0.03
M03 P30 S76.5
G1 X0.466
M05
G1 Y0.03
M03 P30 S76.5
G1 X-0.466
M05
G1 Y0.03
M03 P30 S76.5
G1 X0.466
M05
G1 Y0.03
M03 P30 S76.5
G1 X-0.466
M05
G1 Y0.03
M03 P30 S76.5
G1 X0.466
M05
G1 Y0.03
M03 P30 S76.5
G1 X-0.466
M05
G1 Y0.03
M03 P30 S76.5
G1 X0.466
M05
G1 Y0.03
M03 P30 S76.5
G1 X-0.466
M05
G1 Y0.03
M03 P30 S76.5
G1 X0.466
M05
G1 Y0.03
M03 P30 S76.5
G1 X-0.466
M05
G1 Y0.03
M03 P30 S76.5
G1 X0.466
M05
G1 Y0.03
M03 P30 S76.5
G1 X-0.466
M05
G1 Y0.03
M03 P30 S76.5
G1 X0.466
M05
G1 Y0.03
M03 P30 S76.5
G1 X-0.466
M05
G1 Y0.03
M03 P30 S76.5
G1 X0.466
M05
G1 Y0.03
M03 P30 S76.5
G1 X-0.466
M05
G1 Y0.03
M03 P30 S76.5
G1 X0.466
M05
G1 Y0.03
M03 P30 S76.5
G1 X-0.466
M05
G1 Y0.03
M03 P30 S76.5
G1 X0.466
M05
G1 Y0.03
M03 P30 S76.5
G1 X-0.466
M05
G1 Y0.03
M03 P30 S76.5
G1 X0.466
M05
G1 Y0.03
M03 P30 S76.5
G1 X-0.466
M05
G1 Y0.03
M03 P30 S76.5
G1 X0.466
M05
G1 Y0.03
M03 P30 S76.5
G1 X-0.466
M05
G1 Y0.03
M03 P30 S76.5
G1 X0.466
M05
G1 Y0.03
M03 P30 S76.5
G1 X-0.466
M05
G1 Y0.03
M03 P30 S76.5
G1 X0.466
M05
G1 Y0.03
M03 P30 S76.5
G1 X-0.466
M05
G1 Y0.03
M03 P30 S76.5
G1 X0.466
M05
G1 Y0.03
M03 P30 S76.5
G1 X-0.466
M05
G1 Y0.03
M03 P30 S76.5
G1 X0.466
M05
G1 Y0.03
M03 P30 S76.5
G1 X-0.466
M05
G1 Y0.03
M03 P30 S76.5
G1 X0.466
M05
G1 Y0.03
M03 P30 S76.5
G1 X-0.466
M05
G1 Y0.03
M03 P30 S76.5
G1 X0.466
M05
G1 Y0.03
M03 P30 S76.5
G1 X-0.466
M05
G1 Y0.03
M03 P30 S76.5
G1 X0.466
M05
G1 Y0.03
M03 P30 S76.5
G1 X-0.466
M05
G1 Y0.03
M03 P30 S76.5
G1 X0.466
M05
G1 Y0.03
M03 P30 S76.5
G1 X-0.466
M05
G1 Y0.03
M03 P30 S76.5
G1 X0.466
M05
G1 Y0.03
M03 P30 S76.5
G1 X-0.466
M05
G1 Y0.03
M03 P30 S76.5
G1 X0.466
M05
G1 Y0.03
M03 P30 S76.5
G1 X-0.466
M05
G1 Y0.03
M03 P30 S76.5
G1 X0.466
M05
G1 Y0.03
M03 P30 S76.5
G1 X-0.466
M05
G1 Y0.03
M03 P30 S76.5
G1 X0.466
M05
G1 Y0.03
M03 P30 S76.5
G1 X-0.466
M05
G1 Y0.03
M03 P30 S76.5
G1 X0.466
M05
G1 Y0.03
M03 P30 S76.5
G1 X-0.466
M05
G1 Y0.03
M03 P30 S76.5
G1 X0.466
M05
G1 Y0.03
M03 P30 S76.5
G1 X-0.466
M05
G1 Y0.03
M03 P30 S76.5
G1 X0.466
M05
G1 Y0.51
M03 P30 S76.5
G1 X-0.466
M05
G1 Y0.03
M03 P30 S76.5
G1 X0.466
M05
G1 Y0.03
M03 P30 S76.5
G1 X-0.466
M05
G1 Y0.03
M03 P30 S76.5
G1 X0.466
M05
G1 Y0.03
M03 P30 S76.5
G1 X-0.466
M05
G1 Y0.03
M03 P30 S76.5
G1 X0.466
M05
G1 Y0.03
M03 P30 S76.5
G1 X-0.465
M05
G1 Y0.03
M03 P30 S76.5
G1 X0.465
M05
G1 Y0.03
M03 P30 S76.5
G1 X-0.465
M05
G1 Y0.03
M03 P30 S76.5
G1 X0.465
M05
G1 Y0.03
M03 P30 S76.5
G1 X-0.465
M05
G1 Y0.03
M03 P30 S76.5
G1 X0.465
M05
G1 Y0.03
M03 P30 S76.5
G1 X-0.465
M05
G1 Y0.03
M03 P30 S76.5
G1 X0.465
M05
G1 Y0.03
M03 P30 S76.5
G1 X-0.465
M05
G1 Y0.03
M03 P30 S76.5
G1 X0.465
M05
G1 Y0.03
M03 P30 S76.5
G1 X-0.465
M05
G1 Y0.03
M03 P30 S76.5
G1 X0.465
M05
G1 Y0.03
M03 P30 S76.5
G1 X-0.465
M05
G1 Y0.03
M03 P30 S76.5
G1 X0.465
M05
G1 Y0.03
M03 P30 S76.5
G1 X-0.465
M05
G1 Y0.03
M03 P30 S76.5
G1 X0.465
M05
G1 Y0.03
M03 P30 S76.5
G1 X-0.465
M05
G1 Y0.03
M03 P30 S76.5
G1 X0.465
M05
G1 Y0.03
M03 P30 S76.5
G1 X-0.465
M05
G1 Y0.03
M03 P30 S76.5
G1 X0.465
M05
G1 Y0.03
M03 P30 S76.5
G1 X-0.465
M05
G1 Y0.03
M03 P30 S76.5
G1 X0.465
M05
G1 Y0.03
M03 P30 S76.5
G1 X-0.465
M05
G1 Y0.03
M03 P30 S76.5
G1 X0.465
M05
G1 Y0.03
M03 P30 S76.5
G1 X-0.465
M05
G1 Y0.03
M03 P30 S76.5
G1 X0.465
M05
G1 Y0.03
M03 P30 S76.5
G1 X-0.465
M05
G1 Y0.03
M03 P30 S76.5
G1 X0.465
M05
G1 Y0.03
M03 P30 S76.5
G1 X-0.465
M05
G1 Y0.03
M03 P30 S76.5
G1 X0.465
M05
G1 Y0.03
M03 P30 S76.5
G1 X-0.465
M05
G1 Y0.03
M03 P30 S76.5
G1 X0.465
M05
G1 Y0.03
M03 P30 S76.5
G1 X-0.465
M05
G1 Y0.03
M03 P30 S76.5
G1 X0.465
M05
G1 Y0.03
M03 P30 S76.5
G1 X-0.465
M05
G1 Y0.03
M03 P30 S76.5
G1 X0.465
M05
G1 Y0.03
M03 P30 S76.5
G1 X-0.465
M05
G1 Y0.03
M03 P30 S76.5
G1 X0.465
M05
G1 Y0.03
M03 P30 S76.5
G1 X-0.465
M05
G1 Y0.03
M03 P30 S76.5
G1 X0.463
M05
G1 Y0.03
M03 P30 S76.5
G1 X-0.463
M05
G1 Y0.03
M03 P30 S76.5
G1 X0.457
M05
G1 Y0.03
M03 P30 S76.5
G1 X-0.451
M05
G1 Y0.03
M03 P30 S76.5
G1 X0.44
M05
G1 X-0.01Y0.03
M03 P30 S76.5
G1 X-0.413
M05
G1 X0.015Y0.03
M03 P30 S76.5
G1 X0.383
M05
G1 X-0.022Y0.03
M03 P30 S76.5
G1 X-0.339
M05
G1 X0.034Y0.03
M03 P30 S76.5
G1 X0.274
M05
G1 X-0.066Y0.03
M03 P30 S76.5
G1 X-0.135
M05
G1 X2.761Y-4.098
M03 P30 S76.5
G1 Y3.964
M05
G1 X-0.03Y0.063
M03 P30 S76.5
G1 Y-4.09
M05
G1 X-0.03Y-0.034
M03 P30 S76.5
G1 Y4.159
M05
G1 X-0.03Y0.019
M03 P30 S76.5
G1 Y-4.196
M05
G1 X-0.03Y-0.013
M03 P30 S76.5
G1 Y4.222
M05
G1 X-0.03Y0.008
M03 P30 S76.5
G1 Y-4.237
M05
G1 X-0.03
M03 P30 S76.5
G1 Y4.24
M05
G1 X-0.03
M03 P30 S76.5
G1 Y-4.246
M05
G1 X-0.03
M03 P30 S76.5
G1 Y4.245
M05
G1 X-0.03
M03 P30 S76.5
G1 Y-4.238
M05
G1 X-0.03Y0.007
M03 P30 S76.5
G1 Y4.218
M05
G1 X-0.03Y-0.014
M03 P30 S76.5
G1 Y-4.192
M05
G1 X-0.03Y0.018
M03 P30 S76.5
G1 Y4.155
M05
G1 X-0.03Y-0.027
M03 P30 S76.5
G1 Y-4.101
M05
G1 X-0.03Y0.053
M03 P30 S76.5
G1 Y4.006
M05
G1 X-0.03Y-1.537
M03 P30 S76.5
G1 Y-0.465
M05
G1 X-0.03
M03 P30 S76.5
G1 Y0.465
M05
G1 X-0.03
M03 P30 S76.5
G1 Y-0.465
M05
G1 X-0.03
M03 P30 S76.5
G1 Y0.465
M05
G1 X-0.03
M03 P30 S76.5
G1 Y-0.465
M05
G1 X-0.03
M03 P30 S76.5
G1 Y0.465
M05
G1 X-0.03
M03 P30 S76.5
G1 Y-0.465
M05
G1 X-0.03
M03 P30 S76.5
G1 Y0.465
M05
G1 X-0.03
M03 P30 S76.5
G1 Y-0.465
M05
G1 X-0.03
M03 P30 S76.5
G1 Y0.465
M05
G1 X-0.03
M03 P30 S76.5
G1 Y-0.465
M05
G1 X-0.03
M03 P30 S76.5
G1 Y0.465
M05
G1 X-0.03
M03 P30 S76.5
G1 Y-0.465
M05
G1 X-0.03
M03 P30 S76.5
G1 Y0.465
M05
G1 X-0.03
M03 P30 S76.5
G1 Y-0.465
M05
G1 X-0.03
M03 P30 S76.5
G1 Y0.465
M05
G1 X-0.03
M03 P30 S76.5
G1 Y-0.465
M05
G1 X-0.03
M03 P30 S76.5
G1 Y0.465
M05
G1 X-0.03
M03 P30 S76.5
G1 Y-0.465
M05
G1 X-0.03
M03 P30 S76.5
G1 Y0.465
M05
G1 X-0.03
M03 P30 S76.5
G1 Y-0.465
M05
G1 X-0.03
M03 P30 S76.5
G1 Y0.465
M05
G1 X-0.03
M03 P30 S76.5
G1 Y-0.465
M05
G1 X-0.03
M03 P30 S76.5
G1 Y0.465
M05
G1 X-0.03
M03 P30 S76.5
G1 Y-0.465
M05
G1 X-0.03
M03 P30 S76.5
G1 Y0.465
M05
G1 X-0.03
M03 P30 S76.5
G1 Y-0.465
M05
G1 X-0.03
M03 P30 S76.5
G1 Y0.465
M05
G1 X-0.03
M03 P30 S76.5
G1 Y-0.465
M05
G1 X-0.03
M03 P30 S76.5
G1 Y0.465
M05
G1 X-0.03
M03 P30 S76.5
G1 Y-0.465
M05
G1 X-0.03
M03 P30 S76.5
G1 Y0.465
M05
G1 X-0.03
M03 P30 S76.5
G1 Y-0.465
M05
G1 X-0.03
M03 P30 S76.5
G1 Y0.465
M05
G1 X-0.03
M03 P30 S76.5
G1 Y-0.465
M05
G1 X-0.03
M03 P30 S76.5
G1 Y0.465
M05
G1 X-0.03
M03 P30 S76.5
G1 Y-0.465
M05
G1 X-0.03
M03 P30 S76.5
G1 Y0.465
M05
G1 X-0.03
M03 P30 S76.5
G1 Y-0.465
M05
G1 X-0.03
M03 P30 S76.5
G1 Y0.465
M05
G1 X-0.03
M03 P30 S76.5
G1 Y-0.465
M05
G1 X-0.03
M03 P30 S76.5
G1 Y0.465
M05
G1 X-0.03
M03 P30 S76.5
G1 Y-0.465
M05
G1 X-0.03
M03 P30 S76.5
G1 Y0.465
M05
G1 X-0.03
M03 P30 S76.5
G1 Y-0.465
M05
G1 X-0.03
M03 P30 S76.5
G1 Y0.465
M05
G1 X-0.03
M03 P30 S76.5
G1 Y-0.465
M05
G1 X-0.03
M03 P30 S76.5
G1 Y0.465
M05
G1 X-0.03
M03 P30 S76.5
G1 Y-0.465
M05
G1 X-0.03
M03 P30 S76.5
G1 Y0.465
M05
G1 X-0.03
M03 P30 S76.5
G1 Y-0.465
M05
G1 X-0.03
M03 P30 S76.5
G1 Y0.465
M05
G1 X-0.03
M03 P30 S76.5
G1 Y-0.465
M05
G1 X-0.03
M03 P30 S76.5
G1 Y0.465
M05
G1 X-0.03
M03 P30 S76.5
G1 Y-0.465
M05
G1 X-0.03
M03 P30 S76.5
G1 Y0.465
M05
G1 X-0.03
M03 P30 S76.5
G1 Y-0.465
M05
G1 X-0.03
M03 P30 S76.5
G1 Y0.465
M05
G1 X-0.03
M03 P30 S76.5
G1 Y-0.465
M05
G1 X-0.03
M03 P30 S76.5
G1 Y0.465
M05
G1 X-0.03
M03 P30 S76.5
G1 Y-0.465
M05
G1 X-0.03
M03 P30 S76.5
G1 Y0.465
M05
G1 X-0.03
M03 P30 S76.5
G1 Y-0.465
M05
G1 X-0.03
M03 P30 S76.5
G1 Y0.465
M05
G1 X-0.03
M03 P30 S76.5
G1 Y-0.465
M05
G1 X-0.03
M03 P30 S76.5
G1 Y0.465
M05
G1 X-0.03
M03 P30 S76.5
G1 Y-0.465
M05
G1 X-0.03
M03 P30 S76.5
G1 Y0.465
M05
G1 X-0.03Y1.521
M03 P30 S76.5
G1 Y-3.994
M05
G1 X-0.03Y-0.051
M03 P30 S76.5
G1 Y4.099
M05
G1 X-0.03Y0.034
M03 P30 S76.5
G1 Y-4.164
M05
G1 X-0.03Y-0.018
M03 P30 S76.5
G1 Y4.201
M05
G1 X-0.03Y0.013
M03 P30 S76.5
G1 Y-4.225
M05
G1 X-0.03Y-0.008
M03 P30 S76.5
G1 Y4.242
M05
G1 X-0.03
M03 P30 S76.5
G1 Y-4.243
M05
G1 X-0.03
M03 P30 S76.5
G1 Y4.248
M05
G1 X-0.03
M03 P30 S76.5
G1 Y-4.247
M05
G1 X-0.03
M03 P30 S76.5
G1 Y4.238
M05
G1 X-0.03Y-0.01
M03 P30 S76.5
G1 Y-4.217
M05
G1 X-0.03Y0.014
M03 P30 S76.5
G1 Y4.189
M05
G1 X-0.03Y-0.019
M03 P30 S76.5
G1 Y-4.15
M05
G1 X-0.03Y0.033
M03 P30 S76.5
G1 Y4.087
M05
G1 X-0.03Y-0.056
M03 P30 S76.5
G1 Y-3.97
M05
G0 X10.232 Y-0.131 F0
M03 P30 S76.5
G1 X0.144 F2300
M05
G1 X0.072Y0.03
M03 P30 S76.5
G1 X-0.288
M05
G1 X-0.039Y0.03
M03 P30 S76.5
G1 X0.361
M05
G1 X0.024Y0.03
M03 P30 S76.5
G1 X-0.42
M05
G1 X-0.024Y0.03
M03 P30 S76.5
G1 X0.461
M05
G1 X0.011Y0.03
M03 P30 S76.5
G1 X-0.495
M05
G1 X-0.021Y0.03
M03 P30 S76.5
G1 X0.525
M05
G1 Y0.03
M03 P30 S76.5
G1 X-0.545
M05
G1 X-0.019Y0.03
M03 P30 S76.5
G1 X0.571
M05
G1 Y0.03
M03 P30 S76.5
G1 X-0.59
M05
G1 X-0.02Y0.03
M03 P30 S76.5
G1 X0.616
M05
G1 Y0.03
M03 P30 S76.5
G1 X-0.635
M05
G1 X-0.02Y0.03
M03 P30 S76.5
G1 X0.655
M05
G1 Y0.03
M03 P30 S76.5
G1 X-0.674
M05
G1 X-0.019Y0.03
M03 P30 S76.5
G1 X0.693
M05
G1 Y0.03
M03 P30 S76.5
G1 X-0.713
M05
G1 X-0.019Y0.03
M03 P30 S76.5
G1 X0.732
M05
G1 Y0.03
M03 P30 S76.5
G1 X-0.752
M05
G1 X-0.019Y0.03
M03 P30 S76.5
G1 X0.771
M05
G1 Y0.03
M03 P30 S76.5
G1 X-0.791
M05
G1 X-0.019Y0.03
M03 P30 S76.5
G1 X0.81
M05
G1 Y0.03
M03 P30 S76.5
G1 X-0.829
M05
G1 X-0.02Y0.03
M03 P30 S76.5
G1 X0.849
M05
G1 Y0.03
M03 P30 S76.5
G1 X-0.868
M05
G1 X-0.02Y0.03
M03 P30 S76.5
G1 X0.888
M05
G1 Y0.03
M03 P30 S76.5
G1 X-0.907
M05
G1 X-1.517
M03 P30 S76.5
G1 X-0.525
M05
G1 Y0.03
M03 P30 S76.5
G1 X0.525
M05
G1 X1.497
M03 P30 S76.5
G1 X0.927
M05
G1 Y0.03
M03 P30 S76.5
G1 X-0.946
M05
G1 X-1.478
M03 P30 S76.5
G1 X-0.525
M05
G1 Y0.03
M03 P30 S76.5
G1 X0.525
M05
G1 X1.459
M03 P30 S76.5
G1 X0.965
M05
G1 Y0.03
M03 P30 S76.5
G1 X-0.985
M05
G1 X-1.439
M03 P30 S76.5
G1 X-0.525
M05
G1 Y0.03
M03 P30 S76.5
G1 X0.525
M05
G1 X1.42
M03 P30 S76.5
G1 X1.004
M05
G1 Y0.03
M03 P30 S76.5
G1 X-1.024
M05
G1 X-1.4
M03 P30 S76.5
G1 X-0.525
M05
G1 Y0.03
M03 P30 S76.5
G1 X0.525
M05
G1 X1.381
M03 P30 S76.5
G1 X1.043
M05
G1 Y0.03
M03 P30 S76.5
G1 X-1.062
M05
G1 X-1.362
M03 P30 S76.5
G1 X-0.525
M05
G1 Y0.03
M03 P30 S76.5
G1 X0.525
M05
G1 X1.342
M03 P30 S76.5
G1 X1.082
M05
G1 Y0.03
M03 P30 S76.5
G1 X-1.101
M05
G1 X-1.323
M03 P30 S76.5
G1 X-0.525
M05
G1 Y0.03
M03 P30 S76.5
G1 X0.525
M05
G1 X1.303
M03 P30 S76.5
G1 X1.121
M05
G1 Y0.03
M03 P30 S76.5
G1 X-1.14
M05
G1 X-1.284
M03 P30 S76.5
G1 X-0.525
M05
G1 Y0.03
M03 P30 S76.5
G1 X0.525
M05
G1 X1.264
M03 P30 S76.5
G1 X1.16
M05
G1 Y0.03
M03 P30 S76.5
G1 X-0.525
M05
G1 X-0.017
M03 P30 S76.5
G1 X-0.637
M05
G1 X-1.245
M03 P30 S76.5
G1 X-0.525
M05
G1 Y0.03
M03 P30 S76.5
G1 X0.525
M05
G1 X1.226
M03 P30 S76.5
G1 X0.636
M05
G1 X0.037
M03 P30 S76.5
G1 X0.525
M05
G1 Y0.03
M03 P30 S76.5
G1 X-0.525
M05
G1 X-0.056
M03 P30 S76.5
G1 X-0.637
M05
G1 X-1.206
M03 P30 S76.5
G1 X-0.525
M05
G1 Y0.03
M03 P30 S76.5
G1 X0.525
M05
G1 X1.187
M03 P30 S76.5
G1 X0.636
M05
G1 X0.076
M03 P30 S76.5
G1 X0.525
M05
G1 Y0.03
M03 P30 S76.5
G1 X-0.525
M05
G1 X-0.095
M03 P30 S76.5
G1 X-0.637
M05
G1 X-1.167
M03 P30 S76.5
G1 X-0.525
M05
G1 Y0.03
M03 P30 S76.5
G1 X0.525
M05
G1 X1.148
M03 P30 S76.5
G1 X0.636
M05
G1 X0.115
M03 P30 S76.5
G1 X0.525
M05
G1 Y0.03
M03 P30 S76.5
G1 X-0.525
M05
G1 X-0.135
M03 P30 S76.5
G1 X-0.636
M05
G1 X-1.128
M03 P30 S76.5
G1 X-0.525
M05
G1 Y0.03
M03 P30 S76.5
G1 X0.525
M05
G1 X1.109
M03 P30 S76.5
G1 X0.636
M05
G1 X0.154
M03 P30 S76.5
G1 X0.525
M05
G1 Y0.03
M03 P30 S76.5
G1 X-0.525
M05
G1 X-0.174
M03 P30 S76.5
G1 X-0.635
M05
G1 X-1.09
M03 P30 S76.5
G1 X-0.525
M05
G1 Y0.03
M03 P30 S76.5
G1 X0.525
M05
G1 X1.07
M03 P30 S76.5
G1 X0.636
M05
G1 X0.193
M03 P30 S76.5
G1 X0.525
M05
G1 Y0.03
M03 P30 S76.5
G1 X-0.525
M05
G1 X-0.213
M03 P30 S76.5
G1 X-0.635
M05
G1 X-1.051
M03 P30 S76.5
G1 X-0.525
M05
G1 Y0.03
M03 P30 S76.5
G1 X0.525
M05
G1 X1.031
M03 P30 S76.5
G1 X0.635
M05
G1 X0.233
M03 P30 S76.5
G1 X0.525
M05
G1 Y0.03
M03 P30 S76.5
G1 X-0.525
M05
G1 X-0.252
M03 P30 S76.5
G1 X-0.635
M05
G1 X-1.012
M03 P30 S76.5
G1 X-0.525
M05
G1 Y0.03
M03 P30 S76.5
G1 X0.525
M05
G1 X0.993
M03 P30 S76.5
G1 X0.634
M05
G1 X0.272
M03 P30 S76.5
G1 X0.525
M05
G1 Y0.03
M03 P30 S76.5
G1 X-0.525
M05
G1 X-0.292
M03 P30 S76.5
G1 X-0.634
M05
G1 X-0.973
M03 P30 S76.5
G1 X-0.525
M05
G1 Y0.03
M03 P30 S76.5
G1 X0.525
M05
G1 X0.954
M03 P30 S76.5
G1 X0.634
M05
G1 X0.311
M03 P30 S76.5
G1 X0.525
M05
G1 Y0.03
M03 P30 S76.5
G1 X-0.525
M05
G1 X-0.331
M03 P30 S76.5
G1 X-0.634
M05
G1 X-0.934
M03 P30 S76.5
G1 X-0.525
M05
G1 Y0.03
M03 P30 S76.5
G1 X0.525
M05
G1 X0.915
M03 P30 S76.5
G1 X0.634
M05
G1 X0.35
M03 P30 S76.5
G1 X0.525
M05
G1 Y0.03
M03 P30 S76.5
G1 X-0.525
M05
G1 X-0.37
M03 P30 S76.5
G1 X-0.634
M05
G1 X-0.895
M03 P30 S76.5
G1 X-0.525
M05
G1 Y0.03
M03 P30 S76.5
G1 X0.525
M05
G1 X0.876
M03 P30 S76.5
G1 X0.633
M05
G1 X0.39
M03 P30 S76.5
G1 X0.525
M05
G1 Y0.03
M03 P30 S76.5
G1 X-0.525
M05
G1 X-0.409
M03 P30 S76.5
G1 X-0.633
M05
G1 X-0.857
M03 P30 S76.5
G1 X-0.525
M05
G1 Y0.03
M03 P30 S76.5
G1 X0.525
M05
G1 X0.837
M03 P30 S76.5
G1 X0.633
M05
G1 X0.429
M03 P30 S76.5
G1 X0.525
M05
G1 Y0.03
M03 P30 S76.5
G1 X-0.525
M05
G1 X-0.448
M03 P30 S76.5
G1 X-0.633
M05
G1 X-0.818
M03 P30 S76.5
G1 X-0.525
M05
G1 Y0.03
M03 P30 S76.5
G1 X0.525
M05
G1 X0.798
M03 P30 S76.5
G1 X0.633
M05
G1 X0.468
M03 P30 S76.5
G1 X0.525
M05
G1 Y0.03
M03 P30 S76.5
G1 X-0.525
M05
G1 X-0.488
M03 P30 S76.5
G1 X-0.632
M05
G1 X-0.779
M03 P30 S76.5
G1 X-0.525
M05
G1 Y0.03
M03 P30 S76.5
G1 X0.525
M05
G1 X0.759
M03 P30 S76.5
G1 X0.633
M05
G1 X0.507
M03 P30 S76.5
G1 X0.525
M05
G1 Y0.03
M03 P30 S76.5
G1 X-0.525
M05
G1 X-0.527
M03 P30 S76.5
G1 X-0.632
M05
G1 X-0.74
M03 P30 S76.5
G1 X-0.525
M05
G1 Y0.03
M03 P30 S76.5
G1 X0.525
M05
G1 X0.721
M03 P30 S76.5
G1 X0.631
M05
G1 X0.547
M03 P30 S76.5
G1 X0.525
M05
G1 Y0.03
M03 P30 S76.5
G1 X-0.525
M05
G1 X-0.566
M03 P30 S76.5
G1 X-0.632
M05
G1 X-0.701
M03 P30 S76.5
G1 X-0.525
M05
G1 Y0.03
M03 P30 S76.5
G1 X0.525
M05
G1 X0.682
M03 P30 S76.5
G1 X0.631
M05
G1 X0.586
M03 P30 S76.5
G1 X0.525
M05
G1 Y0.03
M03 P30 S76.5
G1 X-0.525
M05
G1 X-0.605
M03 P30 S76.5
G1 X-0.632
M05
G1 X-0.662
M03 P30 S76.5
G1 X-0.525
M05
G1 Y0.03
M03 P30 S76.5
G1 X0.525
M05
G1 X0.643
M03 P30 S76.5
G1 X0.631
M05
G1 X0.625
M03 P30 S76.5
G1 X0.525
M05
G1 Y0.03
M03 P30 S76.5
G1 X-0.525
M05
G1 X-0.645
M03 P30 S76.5
G1 X-0.63
M05
G1 X-0.624
M03 P30 S76.5
G1 X-0.525
M05
G1 Y0.03
M03 P30 S76.5
G1 X0.525
M05
G1 X0.604
M03 P30 S76.5
G1 X0.631
M05
G1 X0.664
M03 P30 S76.5
G1 X0.525
M05
G1 Y0.03
M03 P30 S76.5
G1 X-0.525
M05
G1 X-0.684
M03 P30 S76.5
G1 X-0.63
M05
G1 X-0.585
M03 P30 S76.5
G1 X-0.525
M05
G1 Y0.03
M03 P30 S76.5
G1 X0.525
M05
G1 X0.565
M03 P30 S76.5
G1 X0.631
M05
G1 X0.703
M03 P30 S76.5
G1 X0.525
M05
G1 Y0.03
M03 P30 S76.5
G1 X-0.525
M05
G1 X-0.723
M03 P30 S76.5
G1 X-0.63
M05
G1 X-0.546
M03 P30 S76.5
G1 X-0.525
M05
G1 Y0.03
M03 P30 S76.5
G1 X0.525
M05
G1 X0.526
M03 P30 S76.5
G1 X0.63
M05
G1 X0.743
M03 P30 S76.5
G1 X0.525
M05
G1 Y0.03
M03 P30 S76.5
G1 X-0.525
M05
G1 X-0.762
M03 P30 S76.5
G1 X-0.63
M05
G1 X-0.507
M03 P30 S76.5
G1 X-0.525
M05
G1 Y0.03
M03 P30 S76.5
G1 X0.525
M05
G1 X0.488
M03 P30 S76.5
G1 X0.629
M05
G1 X0.782
M03 P30 S76.5
G1 X0.525
M05
G1 Y0.03
M03 P30 S76.5
G1 X-0.525
M05
G1 X-0.802
M03 P30 S76.5
G1 X-0.629
M05
G1 X-0.468
M03 P30 S76.5
G1 X-0.525
M05
G1 Y0.03
M03 P30 S76.5
G1 X0.525
M05
G1 X0.449
M03 P30 S76.5
G1 X0.629
M05
G1 X0.821
M03 P30 S76.5
G1 X0.525
M05
G1 Y0.03
M03 P30 S76.5
G1 X-0.525
M05
G1 X-0.841
M03 P30 S76.5
G1 X-0.629
M05
G1 X-0.429
M03 P30 S76.5
G1 X-0.525
M05
G1 Y0.03
M03 P30 S76.5
G1 X0.525
M05
G1 X0.41
M03 P30 S76.5
G1 X0.629
M05
G1 X0.86
M03 P30 S76.5
G1 X0.525
M05
G1 Y0.03
M03 P30 S76.5
G1 X-0.525
M05
G1 X-0.88
M03 P30 S76.5
G1 X-0.629
M05
G1 X-0.39
M03 P30 S76.5
G1 X-0.525
M05
G1 Y0.03
M03 P30 S76.5
G1 X0.525
M05
G1 X0.371
M03 P30 S76.5
G1 X0.628
M05
G1 X0.9
M03 P30 S76.5
G1 X0.525
M05
G1 Y0.03
M03 P30 S76.5
G1 X-0.525
M05
G1 X-0.919
M03 P30 S76.5
G1 X-0.628
M05
G1 X-0.352
M03 P30 S76.5
G1 X-0.525
M05
G1 Y0.03
M03 P30 S76.5
G1 X0.525
M05
G1 X0.332
M03 P30 S76.5
G1 X0.628
M05
G1 X0.939
M03 P30 S76.5
G1 X0.525
M05
G1 Y0.03
M03 P30 S76.5
G1 X-0.525
M05
G1 X-0.958
M03 P30 S76.5
G1 X-0.628
M05
G1 X-0.313
M03 P30 S76.5
G1 X-0.525
M05
G1 Y0.03
M03 P30 S76.5
G1 X0.525
M05
G1 X0.293
M03 P30 S76.5
G1 X0.628
M05
G1 X0.978
M03 P30 S76.5
G1 X0.525
M05
G1 Y0.03
M03 P30 S76.5
G1 X-0.525
M05
G1 X-0.998
M03 P30 S76.5
G1 X-0.627
M05
G1 X-0.274
M03 P30 S76.5
G1 X-0.525
M05
G1 Y0.03
M03 P30 S76.5
G1 X0.525
M05
G1 X0.255
M03 P30 S76.5
G1 X0.627
M05
G1 X1.017
M03 P30 S76.5
G1 X0.525
M05
G1 Y0.03
M03 P30 S76.5
G1 X-0.525
M05
G1 X-1.037
M03 P30 S76.5
G1 X-0.627
M05
G1 X-0.235
M03 P30 S76.5
G1 X-0.525
M05
G1 Y0.03
M03 P30 S76.5
G1 X0.525
M05
G1 X0.216
M03 P30 S76.5
G1 X0.626
M05
G1 X1.057
