;Header Start
;header_type: laser
;file_total_lines:40323
;max_x(mm): 59.24
;max_y(mm): 86.03
;max_z(mm): 0
;min_x(mm): 0.5
;min_y(mm): 57.65
;min_z(mm): 0
;Header End
; LightBurn 1.2.04
; SnapMaker device profile, user origin
; Bounds: X0.5 Y57.65 to X59.24 Y86.03

;USER START SCRIPT
M106 P0 S255
G28
G53
G0 Z45 F6000
G54
G92 Z0
G53
G0 X100 Y75 F6000
G54
G92 X0 Y0
M3 S0


;USER START SCRIPT

G21
G90
G0 X0 Y0 F0
G91
; Scan @ 2300 mm/min, 30% power
M106 P0 S255
M05
G0 X0 Y57.159 F0
; Layer C17
M03 P30 S76.5
G1 X2.056 F2300
M05
G1 X0.03Y0.03
M03 P30 S76.5
G1 X-2.086
M05
G1 Y0.03
M03 P30 S76.5
G1 X2.116
M05
G1 X0.03Y0.03
M03 P30 S76.5
G1 X-2.146
M05
G1 Y0.03
M03 P30 S76.5
G1 X2.176
M05
G1 X0.03Y0.03
M03 P30 S76.5
G1 X-2.206
M05
G1 Y0.03
M03 P30 S76.5
G1 X2.236
M05
G1 X0.03Y0.03
M03 P30 S76.5
G1 X-2.266
M05
G1 Y0.03
M03 P30 S76.5
G1 X2.296
M05
G1 X0.03Y0.03
M03 P30 S76.5
G1 X-2.326
M05
G1 Y0.03
M03 P30 S76.5
G1 X2.356
M05
G1 X0.03Y0.03
M03 P30 S76.5
G1 X-2.386
M05
G1 Y0.03
M03 P30 S76.5
G1 X2.416
M05
G1 X0.03Y0.03
M03 P30 S76.5
G1 X-2.446
M05
G1 Y0.03
M03 P30 S76.5
G1 X2.476
M05
G1 X0.03Y0.03
M03 P30 S76.5
G1 X-2.506
M05
G1 Y0.03
M03 P30 S76.5
G1 X2.536
M05
G1 X0.03Y0.03
M03 P30 S76.5
G1 X-2.566
M05
G1 Y0.03
M03 P30 S76.5
G1 X2.596
M05
G1 X0.03Y0.03
M03 P30 S76.5
G1 X-2.626
M05
G1 Y0.03
M03 P30 S76.5
G1 X2.656
M05
G1 X0.03Y0.03
M03 P30 S76.5
G1 X-2.686
M05
G1 Y0.03
M03 P30 S76.5
G1 X2.716
M05
G1 X0.03Y0.03
M03 P30 S76.5
G1 X-2.746
M05
G1 Y0.03
M03 P30 S76.5
G1 X2.776
M05
G1 X0.03Y0.03
M03 P30 S76.5
G1 X-2.806
M05
G1 Y0.03
M03 P30 S76.5
G1 X2.836
M05
G1 X0.03Y0.03
M03 P30 S76.5
G1 X-2.866
M05
G1 Y0.03
M03 P30 S76.5
G1 X2.896
M05
G1 X0.03Y0.03
M03 P30 S76.5
G1 X-2.926
M05
G1 Y0.03
M03 P30 S76.5
G1 X2.956
M05
G1 X0.03Y0.03
M03 P30 S76.5
G1 X-2.986
M05
G1 Y0.03
M03 P30 S76.5
G1 X3.016
M05
G1 X0.03Y0.03
M03 P30 S76.5
G1 X-3.046
M05
G1 Y0.03
M03 P30 S76.5
G1 X3.076
M05
G1 X0.03Y0.03
M03 P30 S76.5
G1 X-3.106
M05
G1 Y0.03
M03 P30 S76.5
G1 X3.136
M05
G1 X0.03Y0.03
M03 P30 S76.5
G1 X-3.166
M05
G1 Y0.03
M03 P30 S76.5
G1 X3.196
M05
G1 X0.03Y0.03
M03 P30 S76.5
G1 X-3.226
M05
G1 Y0.03
M03 P30 S76.5
G1 X3.256
M05
G1 X0.03Y0.03
M03 P30 S76.5
G1 X-3.286
M05
G1 Y0.03
M03 P30 S76.5
G1 X3.316
M05
G1 X0.03Y0.03
M03 P30 S76.5
G1 X-3.346
M05
G1 Y0.03
M03 P30 S76.5
G1 X3.376
M05
G1 X0.03Y0.03
M03 P30 S76.5
G1 X-3.406
M05
G1 Y0.03
M03 P30 S76.5
G1 X3.436
M05
G1 X0.03Y0.03
M03 P30 S76.5
G1 X-3.466
M05
G1 Y0.03
M03 P30 S76.5
G1 X3.496
M05
G1 X0.03Y0.03
M03 P30 S76.5
G1 X-3.526
M05
G1 Y0.03
M03 P30 S76.5
G1 X3.556
M05
G1 X0.03Y0.03
M03 P30 S76.5
G1 X-3.586
M05
G1 Y0.03
M03 P30 S76.5
G1 X3.616
M05
G1 X0.03Y0.03
M03 P30 S76.5
G1 X-3.646
M05
G1 Y0.03
M03 P30 S76.5
G1 X3.676
M05
G1 X0.03Y0.03
M03 P30 S76.5
G1 X-3.706
M05
G1 Y0.03
M03 P30 S76.5
G1 X3.736
M05
G1 X0.03Y0.03
M03 P30 S76.5
G1 X-3.766
M05
G1 Y0.03
M03 P30 S76.5
G1 X3.796
M05
G1 X0.03Y0.03
M03 P30 S76.5
G1 X-3.826
M05
G1 Y0.03
M03 P30 S76.5
G1 X3.856
M05
G1 X0.03Y0.03
M03 P30 S76.5
G1 X-3.886
M05
G1 Y0.03
M03 P30 S76.5
G1 X3.916
M05
G1 X0.03Y0.03
M03 P30 S76.5
G1 X-3.946
M05
G1 Y0.03
M03 P30 S76.5
G1 X3.976
M05
G1 X0.03Y0.03
M03 P30 S76.5
G1 X-4.006
M05
G1 Y0.03
M03 P30 S76.5
G1 X4.036
M05
G1 X0.03Y0.03
M03 P30 S76.5
G1 X-4.066
M05
G1 Y0.03
M03 P30 S76.5
G1 X4.096
M05
G1 X0.03Y0.03
M03 P30 S76.5
G1 X-4.126
M05
G1 Y0.03
M03 P30 S76.5
G1 X4.156
M05
G1 X0.03Y0.03
M03 P30 S76.5
G1 X-4.186
M05
G1 Y0.03
M03 P30 S76.5
G1 X4.216
M05
G1 X0.03Y0.03
M03 P30 S76.5
G1 X-4.246
M05
G1 Y0.03
M03 P30 S76.5
G1 X4.276
M05
G1 X0.03Y0.03
M03 P30 S76.5
G1 X-4.306
M05
G1 Y0.03
M03 P30 S76.5
G1 X4.336
M05
G1 X0.03Y0.03
M03 P30 S76.5
G1 X-4.366
M05
G1 Y0.03
M03 P30 S76.5
G1 X4.396
M05
G1 X0.03Y0.03
M03 P30 S76.5
G1 X-4.426
M05
G1 Y0.03
M03 P30 S76.5
G1 X4.456
M05
G1 X0.03Y0.03
M03 P30 S76.5
G1 X-4.486
M05
G1 X0.026Y0.03
M03 P30 S76.5
G1 X4.49
M05
G1 X0.03Y0.03
M03 P30 S76.5
G1 X-4.49
M05
G1 X0.03Y0.03
M03 P30 S76.5
G1 X4.49
M05
G1 X0.03Y0.03
M03 P30 S76.5
G1 X-4.49
M05
G1 X0.03Y0.03
M03 P30 S76.5
G1 X4.49
M05
G1 X0.03Y0.03
M03 P30 S76.5
G1 X-4.49
M05
G1 X0.03Y0.03
M03 P30 S76.5
G1 X4.49
M05
G1 X0.03Y0.03
M03 P30 S76.5
G1 X-4.49
M05
G1 X0.03Y0.03
M03 P30 S76.5
G1 X4.49
M05
G1 X0.03Y0.03
M03 P30 S76.5
G1 X-4.49
M05
G1 X0.03Y0.03
M03 P30 S76.5
G1 X4.49
M05
G1 X0.03Y0.03
M03 P30 S76.5
G1 X-4.49
M05
G1 X0.03Y0.03
M03 P30 S76.5
G1 X4.49
M05
G1 X0.03Y0.03
M03 P30 S76.5
G1 X-4.49
M05
G1 X0.03Y0.03
M03 P30 S76.5
G1 X4.49
M05
G1 X0.03Y0.03
M03 P30 S76.5
G1 X-4.49
M05
G1 X0.03Y0.03
M03 P30 S76.5
G1 X4.49
M05
G1 X0.03Y0.03
M03 P30 S76.5
G1 X-4.49
M05
G1 X0.03Y0.03
M03 P30 S76.5
G1 X4.49
M05
G1 X0.03Y0.03
M03 P30 S76.5
G1 X-4.49
M05
G1 X0.03Y0.03
M03 P30 S76.5
G1 X4.49
M05
G1 X0.03Y0.03
M03 P30 S76.5
G1 X-4.49
M05
G1 X0.03Y0.03
M03 P30 S76.5
G1 X4.49
M05
G1 X0.03Y0.03
M03 P30 S76.5
G1 X-4.49
M05
G1 X0.03Y0.03
M03 P30 S76.5
G1 X4.49
M05
G1 X0.03Y0.03
M03 P30 S76.5
G1 X-4.49
M05
G1 X0.03Y0.03
M03 P30 S76.5
G1 X4.49
M05
G1 X0.03Y0.03
M03 P30 S76.5
G1 X-4.49
M05
G1 X0.03Y0.03
M03 P30 S76.5
G1 X4.49
M05
G1 X0.03Y0.03
M03 P30 S76.5
G1 X-4.49
M05
G1 X0.03Y0.03
M03 P30 S76.5
G1 X4.49
M05
G1 X0.03Y0.03
M03 P30 S76.5
G1 X-4.49
M05
G1 X0.03Y0.03
M03 P30 S76.5
G1 X4.49
M05
G1 X0.03Y0.03
M03 P30 S76.5
G1 X-4.49
M05
G1 X0.03Y0.03
M03 P30 S76.5
G1 X4.49
M05
G1 X0.03Y0.03
M03 P30 S76.5
G1 X-4.49
M05
G1 X0.03Y0.03
M03 P30 S76.5
G1 X4.49
M05
G1 X0.03Y0.03
M03 P30 S76.5
G1 X-4.49
M05
G1 X0.03Y0.03
M03 P30 S76.5
G1 X4.49
M05
G1 X0.03Y0.03
M03 P30 S76.5
G1 X-4.49
M05
G1 X0.03Y0.03
M03 P30 S76.5
G1 X4.49
M05
G1 X0.03Y0.03
M03 P30 S76.5
G1 X-4.49
M05
G1 X0.03Y0.03
M03 P30 S76.5
G1 X4.49
M05
G1 X0.03Y0.03
M03 P30 S76.5
G1 X-4.49
M05
G1 X0.03Y0.03
M03 P30 S76.5
G1 X4.49
M05
G1 X0.03Y0.03
M03 P30 S76.5
G1 X-4.49
M05
G1 X0.03Y0.03
M03 P30 S76.5
G1 X4.49
M05
G1 X0.03Y0.03
M03 P30 S76.5
G1 X-4.49
M05
G1 X0.03Y0.03
M03 P30 S76.5
G1 X4.49
M05
G1 X0.03Y0.03
M03 P30 S76.5
G1 X-4.49
M05
G1 X0.03Y0.03
M03 P30 S76.5
G1 X4.49
M05
G1 X0.03Y0.03
M03 P30 S76.5
G1 X-4.49
M05
G1 X0.03Y0.03
M03 P30 S76.5
G1 X4.49
M05
G1 X0.03Y0.03
M03 P30 S76.5
G1 X-4.49
M05
G1 X0.03Y0.03
M03 P30 S76.5
G1 X4.49
M05
G1 X0.03Y0.03
M03 P30 S76.5
G1 X-4.49
M05
G1 X0.03Y0.03
M03 P30 S76.5
G1 X4.49
M05
G1 X0.03Y0.03
M03 P30 S76.5
G1 X-4.49
M05
G1 X0.03Y0.03
M03 P30 S76.5
G1 X4.49
M05
G1 X0.03Y0.03
M03 P30 S76.5
G1 X-4.49
M05
G1 X0.03Y0.03
M03 P30 S76.5
G1 X4.49
M05
G1 X0.03Y0.03
M03 P30 S76.5
G1 X-4.49
M05
G1 X0.03Y0.03
M03 P30 S76.5
G1 X4.49
M05
G1 X0.03Y0.03
M03 P30 S76.5
G1 X-4.49
M05
G1 X0.03Y0.03
M03 P30 S76.5
G1 X4.49
M05
G1 X0.03Y0.03
M03 P30 S76.5
G1 X-4.49
M05
G1 X0.03Y0.03
M03 P30 S76.5
G1 X4.49
M05
G1 X0.03Y0.03
M03 P30 S76.5
G1 X-4.49
M05
G1 X0.03Y0.03
M03 P30 S76.5
G1 X4.49
M05
G1 X0.03Y0.03
M03 P30 S76.5
G1 X-4.49
M05
G1 X0.03Y0.03
M03 P30 S76.5
G1 X4.49
M05
G1 X0.03Y0.03
M03 P30 S76.5
G1 X-4.49
M05
G1 X0.03Y0.03
M03 P30 S76.5
G1 X4.49
M05
G1 X0.03Y0.03
M03 P30 S76.5
G1 X-4.49
M05
G1 X0.03Y0.03
M03 P30 S76.5
G1 X4.49
M05
G1 X0.03Y0.03
M03 P30 S76.5
G1 X-4.49
M05
G1 X0.03Y0.03
M03 P30 S76.5
G1 X4.49
M05
G1 X0.03Y0.03
M03 P30 S76.5
G1 X-4.49
M05
G1 X0.03Y0.03
M03 P30 S76.5
G1 X4.49
M05
G1 X0.03Y0.03
M03 P30 S76.5
G1 X-4.49
M05
G1 X0.03Y0.03
M03 P30 S76.5
G1 X4.49
M05
G1 X0.03Y0.03
M03 P30 S76.5
G1 X-4.49
M05
G1 X0.03Y0.03
M03 P30 S76.5
G1 X4.49
M05
G1 X0.03Y0.03
M03 P30 S76.5
G1 X-4.49
M05
G1 X0.03Y0.03
M03 P30 S76.5
G1 X4.49
M05
G1 X0.03Y0.03
M03 P30 S76.5
G1 X-4.49
M05
G1 X0.03Y0.03
M03 P30 S76.5
G1 X4.49
M05
G1 X0.03Y0.03
M03 P30 S76.5
G1 X-4.49
M05
G1 X0.03Y0.03
M03 P30 S76.5
G1 X4.49
M05
G1 X0.03Y0.03
M03 P30 S76.5
G1 X-4.49
M05
G1 X0.03Y0.03
M03 P30 S76.5
G1 X4.49
M05
G1 X0.03Y0.03
M03 P30 S76.5
G1 X-4.49
M05
G1 X0.03Y0.03
M03 P30 S76.5
G1 X4.49
M05
G1 X0.03Y0.03
M03 P30 S76.5
G1 X-4.49
M05
G1 X0.03Y0.03
M03 P30 S76.5
G1 X4.49
M05
G1 X0.03Y0.03
M03 P30 S76.5
G1 X-4.49
M05
G1 X0.03Y0.03
M03 P30 S76.5
G1 X4.49
M05
G1 X0.03Y0.03
M03 P30 S76.5
G1 X-4.49
M05
G1 X0.03Y0.03
M03 P30 S76.5
G1 X4.49
M05
G1 X0.03Y0.03
M03 P30 S76.5
G1 X-4.49
M05
G1 X0.03Y0.03
M03 P30 S76.5
G1 X4.49
M05
G1 X0.03Y0.03
M03 P30 S76.5
G1 X-4.49
M05
G1 X0.03Y0.03
M03 P30 S76.5
G1 X3.519
M05
G1 Y0.03
M03 P30 S76.5
G1 X-3.489
M05
G1 X0.03Y0.03
M03 P30 S76.5
G1 X3.459
M05
G1 Y0.03
M03 P30 S76.5
G1 X-3.429
M05
G1 X0.03Y0.03
M03 P30 S76.5
G1 X3.399
M05
G1 Y0.03
M03 P30 S76.5
G1 X-3.369
M05
G1 X0.03Y0.03
M03 P30 S76.5
G1 X3.339
M05
G1 Y0.03
M03 P30 S76.5
G1 X-3.309
M05
G1 X0.03Y0.03
M03 P30 S76.5
G1 X3.279
M05
G1 Y0.03
M03 P30 S76.5
G1 X-3.249
M05
G1 X0.03Y0.03
M03 P30 S76.5
G1 X3.219
M05
G1 Y0.03
M03 P30 S76.5
G1 X-3.189
M05
G1 X0.03Y0.03
M03 P30 S76.5
G1 X3.159
M05
G1 Y0.03
M03 P30 S76.5
G1 X-3.129
M05
G1 X0.03Y0.03
M03 P30 S76.5
G1 X3.099
M05
G1 Y0.03
M03 P30 S76.5
G1 X-3.069
M05
G1 X0.03Y0.03
M03 P30 S76.5
G1 X3.039
M05
G1 Y0.03
M03 P30 S76.5
G1 X-3.009
M05
G1 X0.03Y0.03
M03 P30 S76.5
G1 X2.979
M05
G1 Y0.03
M03 P30 S76.5
G1 X-2.949
M05
G1 X0.03Y0.03
M03 P30 S76.5
G1 X2.919
M05
G1 Y0.03
M03 P30 S76.5
G1 X-2.889
M05
G1 X0.03Y0.03
M03 P30 S76.5
G1 X2.859
M05
G1 Y0.03
M03 P30 S76.5
G1 X-2.829
M05
G1 X0.03Y0.03
M03 P30 S76.5
G1 X2.799
M05
G1 Y0.03
M03 P30 S76.5
G1 X-2.769
M05
G1 X0.03Y0.03
M03 P30 S76.5
G1 X2.739
M05
G1 Y0.03
M03 P30 S76.5
G1 X-2.709
M05
G1 X0.03Y0.03
M03 P30 S76.5
G1 X2.679
M05
G1 Y0.03
M03 P30 S76.5
G1 X-2.649
M05
G1 X0.03Y0.03
M03 P30 S76.5
G1 X2.619
M05
G1 Y0.03
M03 P30 S76.5
G1 X-2.589
M05
G1 X0.03Y0.03
M03 P30 S76.5
G1 X2.559
M05
G1 Y0.03
M03 P30 S76.5
G1 X-2.529
M05
G1 X0.03Y0.03
M03 P30 S76.5
G1 X2.499
M05
G1 Y0.03
M03 P30 S76.5
G1 X-2.469
M05
G1 X0.03Y0.03
M03 P30 S76.5
G1 X2.439
M05
G1 Y0.03
M03 P30 S76.5
G1 X-2.409
M05
G1 X0.03Y0.03
M03 P30 S76.5
G1 X2.379
M05
G1 Y0.03
M03 P30 S76.5
G1 X-2.349
M05
G1 X0.03Y0.03
M03 P30 S76.5
G1 X2.319
M05
G1 Y0.03
M03 P30 S76.5
G1 X-2.289
M05
G1 X0.03Y0.03
M03 P30 S76.5
G1 X2.259
M05
G1 Y0.03
M03 P30 S76.5
G1 X-2.229
M05
G1 X0.03Y0.03
M03 P30 S76.5
G1 X2.199
M05
G1 Y0.03
M03 P30 S76.5
G1 X-2.169
M05
G1 X0.03Y0.03
M03 P30 S76.5
G1 X2.139
M05
G1 Y0.03
M03 P30 S76.5
G1 X-2.109
M05
G1 X0.03Y0.03
M03 P30 S76.5
G1 X2.079
M05
G1 Y0.03
M03 P30 S76.5
G1 X-2.049
M05
G1 X0.03Y0.03
M03 P30 S76.5
G1 X2.019
M05
G1 Y0.03
M03 P30 S76.5
G1 X-1.989
M05
G1 X0.03Y0.03
M03 P30 S76.5
G1 X1.959
M05
G1 Y0.03
M03 P30 S76.5
G1 X-1.929
M05
G1 X0.03Y0.03
M03 P30 S76.5
G1 X1.899
M05
G1 Y0.03
M03 P30 S76.5
G1 X-1.869
M05
G1 X0.03Y0.03
M03 P30 S76.5
G1 X1.839
M05
G1 Y0.03
M03 P30 S76.5
G1 X-1.809
M05
G1 X0.03Y0.03
M03 P30 S76.5
G1 X1.779
M05
G1 Y0.03
M03 P30 S76.5
G1 X-1.749
M05
G1 X0.03Y0.03
M03 P30 S76.5
G1 X1.719
M05
G1 Y0.03
M03 P30 S76.5
G1 X-1.689
M05
G1 X0.03Y0.03
M03 P30 S76.5
G1 X1.659
M05
G1 Y0.03
M03 P30 S76.5
G1 X-1.629
M05
G1 X0.03Y0.03
M03 P30 S76.5
G1 X1.599
M05
G1 Y0.03
M03 P30 S76.5
G1 X-1.569
M05
G1 X0.03Y0.03
M03 P30 S76.5
G1 X1.539
M05
G1 Y0.03
M03 P30 S76.5
G1 X-1.509
M05
G1 X0.03Y0.03
M03 P30 S76.5
G1 X1.479
M05
G1 Y0.03
M03 P30 S76.5
G1 X-1.449
M05
G1 X0.03Y0.03
M03 P30 S76.5
G1 X1.419
M05
G1 Y0.03
M03 P30 S76.5
G1 X-1.389
M05
G1 X0.03Y0.03
M03 P30 S76.5
G1 X1.359
M05
G1 Y0.03
M03 P30 S76.5
G1 X-1.329
M05
G1 X0.03Y0.03
M03 P30 S76.5
G1 X1.299
M05
G1 Y0.03
M03 P30 S76.5
G1 X-1.269
M05
G1 X0.03Y0.03
M03 P30 S76.5
G1 X1.239
M05
G1 Y0.03
M03 P30 S76.5
G1 X-1.209
M05
G1 X0.03Y0.03
M03 P30 S76.5
G1 X1.179
M05
G1 Y0.03
M03 P30 S76.5
G1 X-1.149
M05
G1 X0.03Y0.03
M03 P30 S76.5
G1 X1.119
M05
G1 Y0.03
M03 P30 S76.5
G1 X-1.089
M05
G1 X0.03Y0.03
M03 P30 S76.5
G1 X1.059
M05
G1 Y0.03
M03 P30 S76.5
G1 X-1.029
M05
G1 X0.03Y0.03
M03 P30 S76.5
G1 X0.999
M05
G1 Y0.03
M03 P30 S76.5
G1 X-0.969
M05
G1 X0.03Y0.03
M03 P30 S76.5
G1 X0.939
M05
G1 Y0.03
M03 P30 S76.5
G1 X-0.909
M05
G1 X0.03Y0.03
M03 P30 S76.5
G1 X0.879
M05
G1 Y0.03
M03 P30 S76.5
G1 X-0.849
M05
G1 X0.03Y0.03
M03 P30 S76.5
G1 X0.819
M05
G1 Y0.03
M03 P30 S76.5
G1 X-0.789
M05
G1 X0.03Y0.03
M03 P30 S76.5
G1 X0.759
M05
G1 Y0.03
M03 P30 S76.5
G1 X-0.729
M05
G1 X0.03Y0.03
M03 P30 S76.5
G1 X0.699
M05
G1 Y0.03
M03 P30 S76.5
G1 X-0.669
M05
G1 X0.03Y0.03
M03 P30 S76.5
G1 X0.639
M05
G1 Y0.03
M03 P30 S76.5
G1 X-0.609
M05
G1 X0.03Y0.03
M03 P30 S76.5
G1 X0.579
M05
G1 Y0.03
M03 P30 S76.5
G1 X-0.549
M05
G1 X0.03Y0.03
M03 P30 S76.5
G1 X0.519
M05
G1 Y0.03
M03 P30 S76.5
G1 X-0.489
M05
G1 X0.03Y0.03
M03 P30 S76.5
G1 X0.459
M05
G1 Y0.03
M03 P30 S76.5
G1 X-0.429
M05
G1 X0.03Y0.03
M03 P30 S76.5
G1 X0.399
M05
G1 Y0.03
M03 P30 S76.5
G1 X-0.369
M05
G1 X0.03Y0.03
M03 P30 S76.5
G1 X0.339
M05
G1 Y0.03
M03 P30 S76.5
G1 X-0.309
M05
G1 X0.03Y0.03
M03 P30 S76.5
G1 X0.279
M05
G1 Y0.03
M03 P30 S76.5
G1 X-0.249
M05
G1 X0.03Y0.03
M03 P30 S76.5
G1 X0.219
M05
G1 Y0.03
M03 P30 S76.5
G1 X-0.189
M05
G1 X0.03Y0.03
M03 P30 S76.5
G1 X0.159
M05
G1 Y0.03
M03 P30 S76.5
G1 X-0.129
M05
G1 X0.03Y0.03
M03 P30 S76.5
G1 X0.099
M05
G1 Y0.03
M03 P30 S76.5
G1 X-0.069
M05
G1 X0.03Y0.03
M03 P30 S76.5
G1 X0.039
M05
G1 X0.94Y-3.511
M03 P30 S76.5
G1 Y0.015
M05
G1 X-0.03
M03 P30 S76.5
G1 Y-0.045
M05
G1 X-0.03Y-0.03
M03 P30 S76.5
G1 Y0.075
M05
G1 X-0.03
M03 P30 S76.5
G1 Y-0.105
M05
G1 X-0.03Y-0.03
M03 P30 S76.5
G1 Y0.135
M05
G1 X-0.03
M03 P30 S76.5
G1 Y-0.165
M05
G1 X-0.03Y-0.03
M03 P30 S76.5
G1 Y0.195
M05
G1 X-0.03
M03 P30 S76.5
G1 Y-0.225
M05
G1 X-0.03Y-0.03
M03 P30 S76.5
G1 Y0.255
M05
G1 X-0.03
M03 P30 S76.5
G1 Y-0.285
M05
G1 X-0.03Y-0.03
M03 P30 S76.5
G1 Y0.315
M05
G1 X-0.03
M03 P30 S76.5
G1 Y-0.345
M05
G1 X-0.03Y-0.03
M03 P30 S76.5
G1 Y0.375
M05
G1 X-0.03
M03 P30 S76.5
G1 Y-0.405
M05
G1 X-0.03Y-0.03
M03 P30 S76.5
G1 Y0.435
M05
G1 X-0.03
M03 P30 S76.5
G1 Y-0.465
M05
G1 X-0.03Y-0.03
M03 P30 S76.5
G1 Y0.495
M05
G1 X-0.03
M03 P30 S76.5
G1 Y-0.525
M05
G1 X-0.03Y-0.03
M03 P30 S76.5
G1 Y0.555
M05
G1 X-0.03
M03 P30 S76.5
G1 Y-0.585
M05
G1 X-0.03Y-0.03
M03 P30 S76.5
G1 Y0.615
M05
G1 X-0.03
M03 P30 S76.5
G1 Y-0.645
M05
G1 X-0.03Y-0.03
M03 P30 S76.5
G1 Y0.675
M05
G1 X-0.03
M03 P30 S76.5
G1 Y-0.705
M05
G1 X-0.03Y-0.03
M03 P30 S76.5
G1 Y0.735
M05
G1 X-0.03
M03 P30 S76.5
G1 Y-0.765
M05
G1 X-0.03Y-0.03
M03 P30 S76.5
G1 Y0.795
M05
G1 X-0.03
M03 P30 S76.5
G1 Y-0.825
M05
G1 X-0.03Y-0.03
M03 P30 S76.5
G1 Y0.855
M05
G1 X-0.03
M03 P30 S76.5
G1 Y-0.885
M05
G1 X-0.03Y-0.03
M03 P30 S76.5
G1 Y0.915
M05
G1 X-0.03
M03 P30 S76.5
G1 Y-0.945
M05
G1 X-0.03Y-0.03
M03 P30 S76.5
G1 Y4.49
M05
G1 X-0.03Y-0.03
M03 P30 S76.5
G1 Y-4.49
M05
G1 X-0.03Y-0.03
M03 P30 S76.5
G1 Y4.49
M05
G1 X-0.03Y-0.03
M03 P30 S76.5
G1 Y-4.49
M05
G1 X-0.03Y-0.03
M03 P30 S76.5
G1 Y4.49
M05
G1 X-0.03Y-0.03
M03 P30 S76.5
G1 Y-4.49
M05
G1 X-0.03Y-0.03
M03 P30 S76.5
G1 Y4.49
M05
G1 X-0.03Y-0.03
M03 P30 S76.5
G1 Y-4.49
M05
G1 X-0.03Y-0.03
M03 P30 S76.5
G1 Y4.49
M05
G1 X-0.03Y-0.03
M03 P30 S76.5
G1 Y-4.49
M05
G1 X-0.03Y-0.03
M03 P30 S76.5
G1 Y4.49
M05
G1 X-0.03Y-0.03
M03 P30 S76.5
G1 Y-4.49
M05
G1 X-0.03Y-0.03
M03 P30 S76.5
G1 Y4.49
M05
G1 X-0.03Y-0.03
M03 P30 S76.5
G1 Y-4.49
M05
G1 X-0.03Y-0.03
M03 P30 S76.5
G1 Y4.49
M05
G1 X-0.03Y-0.03
M03 P30 S76.5
G1 Y-4.49
M05
G1 X-0.03Y-0.03
M03 P30 S76.5
G1 Y4.49
M05
G1 X-0.03Y-0.03
M03 P30 S76.5
G1 Y-4.49
M05
G1 X-0.03Y-0.03
M03 P30 S76.5
G1 Y4.49
M05
G1 X-0.03Y-0.03
M03 P30 S76.5
G1 Y-4.49
M05
G1 X-0.03Y-0.03
M03 P30 S76.5
G1 Y4.49
M05
G1 X-0.03Y-0.03
M03 P30 S76.5
G1 Y-4.49
M05
G1 X-0.03Y-0.03
M03 P30 S76.5
G1 Y4.49
M05
G1 X-0.03Y-0.03
M03 P30 S76.5
G1 Y-4.49
M05
G1 X-0.03Y-0.03
M03 P30 S76.5
G1 Y4.49
M05
G1 X-0.03Y-0.03
M03 P30 S76.5
G1 Y-4.49
M05
G1 X-0.03Y-0.03
M03 P30 S76.5
G1 Y4.49
M05
G1 X-0.03Y-0.03
M03 P30 S76.5
G1 Y-4.49
M05
G1 X-0.03Y-0.03
M03 P30 S76.5
G1 Y4.49
M05
G1 X-0.03Y-0.03
M03 P30 S76.5
G1 Y-4.49
M05
G1 X-0.03Y-0.03
M03 P30 S76.5
G1 Y4.49
M05
G1 X-0.03Y-0.03
M03 P30 S76.5
G1 Y-4.49
M05
G1 X-0.03Y-0.03
M03 P30 S76.5
G1 Y4.49
M05
G1 X-0.03Y-0.03
M03 P30 S76.5
G1 Y-4.49
M05
G1 X-0.03Y-0.03
M03 P30 S76.5
G1 Y4.49
M05
G1 X-0.03Y-0.03
M03 P30 S76.5
G1 Y-4.49
M05
G1 X-0.03Y-0.03
M03 P30 S76.5
G1 Y4.49
M05
G1 X-0.03Y-0.03
M03 P30 S76.5
G1 Y-4.49
M05
G1 X-0.03Y-0.03
M03 P30 S76.5
G1 Y4.49
M05
G1 X-0.03Y-0.03
M03 P30 S76.5
G1 Y-4.49
M05
G1 X-0.03Y-0.03
M03 P30 S76.5
G1 Y4.49
M05
G1 X-0.03Y-0.03
M03 P30 S76.5
G1 Y-4.49
M05
G1 X-0.03Y-0.03
M03 P30 S76.5
G1 Y4.49
M05
G1 X-0.03Y-0.03
M03 P30 S76.5
G1 Y-4.49
M05
G1 X-0.03Y-0.03
M03 P30 S76.5
G1 Y4.49
M05
G1 X-0.03Y-0.03
M03 P30 S76.5
G1 Y-4.49
M05
G1 X-0.03Y-0.03
M03 P30 S76.5
G1 Y4.49
M05
G1 X-0.03Y-0.03
M03 P30 S76.5
G1 Y-4.49
M05
G1 X-0.03Y-0.03
M03 P30 S76.5
G1 Y4.49
M05
G1 X-0.03Y-0.03
M03 P30 S76.5
G1 Y-4.49
M05
G1 X-0.03Y-0.03
M03 P30 S76.5
G1 Y4.49
M05
G1 X-0.03Y-0.03
M03 P30 S76.5
G1 Y-4.49
M05
G1 X-0.03Y-0.03
M03 P30 S76.5
G1 Y4.49
M05
G1 X-0.03Y-0.03
M03 P30 S76.5
G1 Y-4.49
M05
G1 X-0.03Y-0.03
M03 P30 S76.5
G1 Y4.49
M05
G1 X-0.03Y-0.03
M03 P30 S76.5
G1 Y-4.49
M05
G1 X-0.03Y-0.03
M03 P30 S76.5
G1 Y4.49
M05
G1 X-0.03Y-0.03
M03 P30 S76.5
G1 Y-4.49
M05
G1 X-0.03Y-0.03
M03 P30 S76.5
G1 Y4.49
M05
G1 X-0.03Y-0.03
M03 P30 S76.5
G1 Y-4.49
M05
G1 X-0.03Y-0.03
M03 P30 S76.5
G1 Y4.49
M05
G1 X-0.03Y-0.03
M03 P30 S76.5
G1 Y-4.49
M05
G1 X-0.03Y-0.03
M03 P30 S76.5
G1 Y4.49
M05
G1 X-0.03Y-0.03
M03 P30 S76.5
G1 Y-4.49
M05
G1 X-0.03Y-0.03
M03 P30 S76.5
G1 Y4.49
M05
G1 X-0.03Y-0.03
M03 P30 S76.5
G1 Y-4.49
M05
G1 X-0.03Y-0.03
M03 P30 S76.5
G1 Y4.49
M05
G1 X-0.03Y-0.03
M03 P30 S76.5
G1 Y-4.49
M05
G1 X-0.03Y-0.03
M03 P30 S76.5
G1 Y4.49
M05
G1 X-0.03Y-0.03
M03 P30 S76.5
G1 Y-4.49
M05
G1 X-0.03Y-0.03
M03 P30 S76.5
G1 Y4.49
M05
G1 X-0.03Y-0.03
M03 P30 S76.5
G1 Y-4.49
M05
G1 X-0.03Y-0.03
M03 P30 S76.5
G1 Y4.49
M05
G1 X-0.03Y-0.03
M03 P30 S76.5
G1 Y-4.49
M05
G1 X-0.03Y-0.03
M03 P30 S76.5
G1 Y4.49
M05
G1 X-0.03Y-0.03
M03 P30 S76.5
G1 Y-4.49
M05
G1 X-0.03Y-0.03
M03 P30 S76.5
G1 Y4.49
M05
G1 X-0.03Y-0.03
M03 P30 S76.5
G1 Y-4.49
M05
G1 X-0.03Y-0.03
M03 P30 S76.5
G1 Y4.49
M05
G1 X-0.03Y-0.03
M03 P30 S76.5
G1 Y-4.49
M05
G1 X-0.03Y-0.03
M03 P30 S76.5
G1 Y4.49
M05
G1 X-0.03Y-0.03
M03 P30 S76.5
G1 Y-4.49
M05
G1 X-0.03Y-0.03
M03 P30 S76.5
G1 Y4.49
M05
G1 X-0.03Y-0.03
M03 P30 S76.5
G1 Y-4.49
M05
G1 X-0.03Y-0.03
M03 P30 S76.5
G1 Y4.49
M05
G1 X-0.03Y-0.03
M03 P30 S76.5
G1 Y-4.49
M05
G1 X-0.03Y-0.03
M03 P30 S76.5
G1 Y4.49
M05
G1 X-0.03Y-0.03
M03 P30 S76.5
G1 Y-4.49
M05
G1 X-0.03Y-0.03
M03 P30 S76.5
G1 Y4.49
M05
G1 X-0.03Y-0.03
M03 P30 S76.5
G1 Y-4.49
M05
G1 X-0.03Y-0.03
M03 P30 S76.5
G1 Y4.49
M05
G1 X-0.03Y-0.03
M03 P30 S76.5
G1 Y-4.49
M05
G1 X-0.03Y-0.03
M03 P30 S76.5
G1 Y4.49
M05
G1 X-0.03Y-0.03
M03 P30 S76.5
G1 Y-4.49
M05
G1 X-0.03Y-0.03
M03 P30 S76.5
G1 Y4.49
M05
G1 X-0.03Y-0.03
M03 P30 S76.5
G1 Y-4.49
M05
G1 X-0.03Y-0.03
M03 P30 S76.5
G1 Y4.49
M05
G1 X-0.03Y-0.03
M03 P30 S76.5
G1 Y-4.49
M05
G1 X-0.03Y-0.03
M03 P30 S76.5
G1 Y4.49
M05
G1 X-0.03Y-0.03
M03 P30 S76.5
G1 Y-4.49
M05
G1 X-0.03Y-0.03
M03 P30 S76.5
G1 Y4.49
M05
G1 X-0.03Y-0.03
M03 P30 S76.5
G1 Y-4.49
M05
G1 X-0.03Y-0.03
M03 P30 S76.5
G1 Y4.49
M05
G1 X-0.03Y-0.03
M03 P30 S76.5
G1 Y-4.49
M05
G1 X-0.03Y-0.03
M03 P30 S76.5
G1 Y4.49
M05
G1 X-0.03Y-0.03
M03 P30 S76.5
G1 Y-4.49
M05
G1 X-0.03Y-0.03
M03 P30 S76.5
G1 Y4.49
M05
G1 X-0.03Y-0.03
M03 P30 S76.5
G1 Y-4.49
M05
G1 X-0.03Y-0.03
M03 P30 S76.5
G1 Y4.49
M05
G1 X-0.03Y-0.03
M03 P30 S76.5
G1 Y-4.49
M05
G1 X-0.03Y-0.03
M03 P30 S76.5
G1 Y4.49
M05
G1 X-0.03Y-0.03
M03 P30 S76.5
G1 Y-4.49
M05
G1 X-0.03Y-0.03
M03 P30 S76.5
G1 Y4.49
M05
G1 X-0.03Y-0.03
M03 P30 S76.5
G1 Y-4.49
M05
G1 X-0.03Y-0.03
M03 P30 S76.5
G1 Y4.49
M05
G1 X-0.03Y-0.03
M03 P30 S76.5
G1 Y-4.49
M05
G1 X-0.03Y-0.03
M03 P30 S76.5
G1 Y4.49
M05
G1 X-0.03Y-0.03
M03 P30 S76.5
G1 Y-4.49
M05
G1 X-0.03Y-0.03
M03 P30 S76.5
G1 Y4.49
M05
G1 X-0.03Y-0.03
M03 P30 S76.5
G1 Y-4.49
M05
G1 X-0.03Y-0.03
M03 P30 S76.5
G1 Y4.49
M05
G1 X-0.03Y-0.03
M03 P30 S76.5
G1 Y-4.49
M05
G1 X-0.03Y-0.03
M03 P30 S76.5
G1 Y4.49
M05
G1 X-0.03Y-0.03
M03 P30 S76.5
G1 Y-4.49
M05
G1 X-0.03Y-0.03
M03 P30 S76.5
G1 Y4.49
M05
G1 X-0.03Y-0.03
M03 P30 S76.5
G1 Y-4.49
M05
G1 X-0.03Y-0.03
M03 P30 S76.5
G1 Y4.49
M05
G1 X-0.03Y-0.03
M03 P30 S76.5
G1 Y-4.49
M05
G1 X-0.03Y-0.03
M03 P30 S76.5
G1 Y4.49
M05
G1 X-0.03Y-0.03
M03 P30 S76.5
G1 Y-4.49
M05
G1 X-0.03Y-0.03
M03 P30 S76.5
G1 Y4.49
M05
G1 X-0.03Y-0.03
M03 P30 S76.5
G1 Y-4.49
M05
G1 X-0.03Y-0.03
M03 P30 S76.5
G1 Y4.49
M05
G1 X-0.03Y-0.03
M03 P30 S76.5
G1 Y-4.49
M05
G1 X-0.03Y-0.03
M03 P30 S76.5
G1 Y4.49
M05
G1 X-0.03Y-0.03
M03 P30 S76.5
G1 Y-4.49
M05
G1 X-0.03Y-0.03
M03 P30 S76.5
G1 Y4.49
M05
G1 X-0.03Y-0.03
M03 P30 S76.5
G1 Y-4.49
M05
G1 X-0.03Y-0.03
M03 P30 S76.5
G1 Y4.49
M05
G1 X-0.03Y-0.03
M03 P30 S76.5
G1 Y-4.49
M05
G1 X-0.03Y-0.03
M03 P30 S76.5
G1 Y4.49
M05
G1 X-0.03Y-0.03
M03 P30 S76.5
G1 Y-4.49
M05
G1 X-0.03Y-0.03
M03 P30 S76.5
G1 Y4.49
M05
G1 X-0.03Y-0.03
M03 P30 S76.5
G1 Y-4.49
M05
G1 X-0.03Y-0.03
M03 P30 S76.5
G1 Y4.49
M05
G1 X-0.03Y-0.03
M03 P30 S76.5
G1 Y-4.49
M05
G1 X-0.03Y-0.03
M03 P30 S76.5
G1 Y4.49
M05
G1 X-0.03Y-0.03
M03 P30 S76.5
G1 Y-4.49
M05
G1 X-0.03Y-0.03
M03 P30 S76.5
G1 Y4.49
M05
G1 X-0.03Y-0.03
M03 P30 S76.5
G1 Y-4.49
M05
G1 X-0.03Y-0.03
M03 P30 S76.5
G1 Y4.49
M05
G1 X-0.03Y-0.03
M03 P30 S76.5
G1 Y-4.49
M05
G1 X-0.03Y-0.008
M03 P30 S76.5
G1 Y4.468
M05
G1 X-0.03Y-0.03
M03 P30 S76.5
G1 Y-4.438
M05
G1 X-0.03
M03 P30 S76.5
G1 Y4.408
M05
G1 X-0.03Y-0.03
M03 P30 S76.5
G1 Y-4.378
M05
G1 X-0.03
M03 P30 S76.5
G1 Y4.348
M05
G1 X-0.03Y-0.03
M03 P30 S76.5
G1 Y-4.318
M05
G1 X-0.03
M03 P30 S76.5
G1 Y4.288
M05
G1 X-0.03Y-0.03
M03 P30 S76.5
G1 Y-4.258
M05
G1 X-0.03
M03 P30 S76.5
G1 Y4.228
M05
G1 X-0.03Y-0.03
M03 P30 S76.5
G1 Y-4.198
M05
G1 X-0.03
M03 P30 S76.5
G1 Y4.168
M05
G1 X-0.03Y-0.03
M03 P30 S76.5
G1 Y-4.138
M05
G1 X-0.03
M03 P30 S76.5
G1 Y4.108
M05
G1 X-0.03Y-0.03
M03 P30 S76.5
G1 Y-4.078
M05
G1 X-0.03
M03 P30 S76.5
G1 Y4.048
M05
G1 X-0.03Y-0.03
M03 P30 S76.5
G1 Y-4.018
M05
G1 X-0.03
M03 P30 S76.5
G1 Y3.988
M05
G1 X-0.03Y-0.03
M03 P30 S76.5
G1 Y-3.958
M05
G1 X-0.03
M03 P30 S76.5
G1 Y3.928
M05
G1 X-0.03Y-0.03
M03 P30 S76.5
G1 Y-3.898
M05
G1 X-0.03
M03 P30 S76.5
G1 Y3.868
M05
G1 X-0.03Y-0.03
M03 P30 S76.5
G1 Y-3.838
M05
G1 X-0.03
M03 P30 S76.5
G1 Y3.808
M05
G1 X-0.03Y-0.03
M03 P30 S76.5
G1 Y-3.778
M05
G1 X-0.03
M03 P30 S76.5
G1 Y3.748
M05
G1 X-0.03Y-0.03
M03 P30 S76.5
G1 Y-3.718
M05
G1 X-0.03
M03 P30 S76.5
G1 Y3.688
M05
G1 X-0.03Y-0.03
M03 P30 S76.5
G1 Y-3.658
M05
G1 X-0.03
M03 P30 S76.5
G1 Y3.628
M05
G1 X-0.03Y-0.03
M03 P30 S76.5
G1 Y-3.598
M05
G1 X-0.03
M03 P30 S76.5
G1 Y3.568
M05
G1 X-0.03Y-0.03
M03 P30 S76.5
G1 Y-3.538
M05
G1 X-0.03
M03 P30 S76.5
G1 Y3.508
M05
G1 X-0.03Y-0.03
M03 P30 S76.5
G1 Y-3.478
M05
G1 X-0.03
M03 P30 S76.5
G1 Y3.448
M05
G1 X-0.03Y-0.03
M03 P30 S76.5
G1 Y-3.418
M05
G1 X-0.03
M03 P30 S76.5
G1 Y3.388
M05
G1 X-0.03Y-0.03
M03 P30 S76.5
G1 Y-3.358
M05
G1 X-0.03
M03 P30 S76.5
G1 Y3.328
M05
G1 X-0.03Y-0.03
M03 P30 S76.5
G1 Y-3.298
M05
G1 X-0.03
M03 P30 S76.5
G1 Y3.268
M05
G1 X-0.03Y-0.03
M03 P30 S76.5
G1 Y-3.238
M05
G1 X-0.03
M03 P30 S76.5
G1 Y3.208
M05
G1 X-0.03Y-0.03
M03 P30 S76.5
G1 Y-3.178
M05
G1 X-0.03
M03 P30 S76.5
G1 Y3.148
M05
G1 X-0.03Y-0.03
M03 P30 S76.5
G1 Y-3.118
M05
G1 X-0.03
M03 P30 S76.5
G1 Y3.088
M05
G1 X-0.03Y-0.03
M03 P30 S76.5
G1 Y-3.058
M05
G1 X-0.03
M03 P30 S76.5
G1 Y3.028
M05
G1 X-0.03Y-0.03
M03 P30 S76.5
G1 Y-2.998
M05
G1 X-0.03
M03 P30 S76.5
G1 Y2.968
M05
G1 X-0.03Y-0.03
M03 P30 S76.5
G1 Y-2.938
M05
G1 X-0.03
M03 P30 S76.5
G1 Y2.908
M05
G1 X-0.03Y-0.03
M03 P30 S76.5
G1 Y-2.878
M05
G1 X-0.03
M03 P30 S76.5
G1 Y2.848
M05
G1 X-0.03Y-0.03
M03 P30 S76.5
G1 Y-2.818
M05
G1 X-0.03
M03 P30 S76.5
G1 Y2.788
M05
G1 X-0.03Y-0.03
M03 P30 S76.5
G1 Y-2.758
M05
G1 X-0.03
M03 P30 S76.5
G1 Y2.728
M05
G1 X-0.03Y-0.03
M03 P30 S76.5
G1 Y-2.698
M05
G1 X-0.03
M03 P30 S76.5
G1 Y2.668
M05
G1 X-0.03Y-0.03
M03 P30 S76.5
G1 Y-2.638
M05
G1 X-0.03
M03 P30 S76.5
G1 Y2.608
M05
G1 X-0.03Y-0.03
M03 P30 S76.5
G1 Y-2.578
M05
G1 X-0.03
M03 P30 S76.5
G1 Y2.548
M05
G1 X-0.03Y-0.03
M03 P30 S76.5
G1 Y-2.518
M05
G1 X-0.03
M03 P30 S76.5
G1 Y2.488
M05
G1 X-0.03Y-0.03
M03 P30 S76.5
G1 Y-2.458
M05
G0 X3.904 Y0.012 F0
M03 P30 S76.5
G1 X4.49 F2300
M05
G1 X0.03Y0.03
M03 P30 S76.5
G1 X-4.49
M05
G1 X0.03Y0.03
M03 P30 S76.5
G1 X4.49
M05
G1 X0.03Y0.03
M03 P30 S76.5
G1 X-4.49
M05
G1 X0.03Y0.03
M03 P30 S76.5
G1 X4.49
M05
G1 X0.03Y0.03
M03 P30 S76.5
G1 X-4.49
M05
G1 X0.03Y0.03
M03 P30 S76.5
G1 X4.49
M05
G1 X0.03Y0.03
M03 P30 S76.5
G1 X-4.49
M05
G1 X0.03Y0.03
M03 P30 S76.5
G1 X4.49
M05
G1 X0.03Y0.03
M03 P30 S76.5
G1 X-4.49
M05
G1 X0.03Y0.03
M03 P30 S76.5
G1 X4.49
M05
G1 X0.03Y0.03
M03 P30 S76.5
G1 X-4.49
M05
G1 X0.03Y0.03
M03 P30 S76.5
G1 X4.49
M05
G1 X0.03Y0.03
M03 P30 S76.5
G1 X-4.49
M05
G1 X0.03Y0.03
M03 P30 S76.5
G1 X4.49
M05
G1 X0.03Y0.03
M03 P30 S76.5
G1 X-4.49
M05
G1 X0.03Y0.03
M03 P30 S76.5
G1 X4.49
M05
G1 X0.03Y0.03
M03 P30 S76.5
G1 X-4.49
M05
G1 X0.03Y0.03
M03 P30 S76.5
G1 X4.49
M05
G1 X0.03Y0.03
M03 P30 S76.5
G1 X-4.49
M05
G1 X0.03Y0.03
M03 P30 S76.5
G1 X4.49
M05
G1 X0.03Y0.03
M03 P30 S76.5
G1 X-4.49
M05
G1 X0.03Y0.03
M03 P30 S76.5
G1 X4.49
M05
G1 X0.03Y0.03
M03 P30 S76.5
G1 X-4.49
M05
G1 X0.03Y0.03
M03 P30 S76.5
G1 X4.49
M05
G1 X0.03Y0.03
M03 P30 S76.5
G1 X-4.49
M05
G1 X0.03Y0.03
M03 P30 S76.5
G1 X4.49
M05
G1 X0.03Y0.03
M03 P30 S76.5
G1 X-4.49
M05
G1 X0.03Y0.03
M03 P30 S76.5
G1 X4.49
M05
G1 X0.03Y0.03
M03 P30 S76.5
G1 X-4.49
M05
G1 X0.03Y0.03
M03 P30 S76.5
G1 X4.49
M05
G1 X0.03Y0.03
M03 P30 S76.5
G1 X-4.49
M05
G1 X0.03Y0.03
M03 P30 S76.5
G1 X4.49
M05
G1 X0.03Y0.03
M03 P30 S76.5
G1 X-4.49
M05
G1 X0.03Y0.03
M03 P30 S76.5
G1 X4.49
M05
G1 X0.03Y0.03
M03 P30 S76.5
G1 X-4.49
M05
G1 X0.03Y0.03
M03 P30 S76.5
G1 X4.49
M05
G1 X0.03Y0.03
M03 P30 S76.5
G1 X-4.49
M05
G1 X0.03Y0.03
M03 P30 S76.5
G1 X4.49
M05
G1 X0.03Y0.03
M03 P30 S76.5
G1 X-4.49
M05
G1 X0.03Y0.03
M03 P30 S76.5
G1 X4.49
M05
G1 X0.03Y0.03
M03 P30 S76.5
G1 X-4.49
M05
G1 X0.03Y0.03
M03 P30 S76.5
G1 X4.49
M05
G1 X0.03Y0.03
M03 P30 S76.5
G1 X-4.49
M05
G1 X0.03Y0.03
M03 P30 S76.5
G1 X4.49
M05
G1 X0.03Y0.03
M03 P30 S76.5
G1 X-4.49
M05
G1 X0.03Y0.03
M03 P30 S76.5
G1 X4.49
M05
G1 X0.03Y0.03
M03 P30 S76.5
G1 X-4.49
M05
G1 X0.03Y0.03
M03 P30 S76.5
G1 X4.49
M05
G1 X0.03Y0.03
M03 P30 S76.5
G1 X-4.49
M05
G1 X0.03Y0.03
M03 P30 S76.5
G1 X4.49
M05
G1 X0.03Y0.03
M03 P30 S76.5
G1 X-4.49
M05
G1 X0.03Y0.03
M03 P30 S76.5
G1 X4.49
M05
G1 X0.03Y0.03
M03 P30 S76.5
G1 X-4.49
M05
G1 X0.03Y0.03
M03 P30 S76.5
G1 X4.49
M05
G1 X0.03Y0.03
M03 P30 S76.5
G1 X-4.49
M05
G1 X0.03Y0.03
M03 P30 S76.5
G1 X4.49
M05
G1 X0.03Y0.03
M03 P30 S76.5
G1 X-4.49
M05
G1 X0.03Y0.03
M03 P30 S76.5
G1 X4.49
M05
G1 X0.03Y0.03
M03 P30 S76.5
G1 X-4.49
M05
G1 X0.03Y0.03
M03 P30 S76.5
G1 X4.49
M05
G1 X0.03Y0.03
M03 P30 S76.5
G1 X-4.49
M05
G1 X0.03Y0.03
M03 P30 S76.5
G1 X4.49
M05
G1 X0.03Y0.03
M03 P30 S76.5
G1 X-4.49
M05
G1 X0.03Y0.03
M03 P30 S76.5
G1 X4.49
M05
G1 X0.03Y0.03
M03 P30 S76.5
G1 X-4.49
M05
G1 X0.03Y0.03
M03 P30 S76.5
G1 X4.49
M05
G1 X0.03Y0.03
M03 P30 S76.5
G1 X-4.49
M05
G1 X0.03Y0.03
M03 P30 S76.5
G1 X4.49
M05
G1 X0.03Y0.03
M03 P30 S76.5
G1 X-4.49
M05
G1 X0.03Y0.03
M03 P30 S76.5
G1 X4.49
M05
G1 X0.03Y0.03
M03 P30 S76.5
G1 X-4.49
M05
G1 X0.03Y0.03
M03 P30 S76.5
G1 X4.49
M05
G1 X0.03Y0.03
M03 P30 S76.5
G1 X-4.49
M05
G1 X0.03Y0.03
M03 P30 S76.5
G1 X4.49
M05
G1 X0.03Y0.03
M03 P30 S76.5
G1 X-4.49
M05
G1 X0.03Y0.03
M03 P30 S76.5
G1 X4.49
M05
G1 X0.03Y0.03
M03 P30 S76.5
G1 X-4.49
M05
G1 X0.03Y0.03
M03 P30 S76.5
G1 X4.49
M05
G1 X0.03Y0.03
M03 P30 S76.5
G1 X-4.49
M05
G1 X0.03Y0.03
M03 P30 S76.5
G1 X4.49
M05
G1 X0.03Y0.03
M03 P30 S76.5
G1 X-4.49
M05
G1 X0.03Y0.03
M03 P30 S76.5
G1 X4.49
M05
G1 X0.03Y0.03
M03 P30 S76.5
G1 X-4.49
M05
G1 X0.03Y0.03
M03 P30 S76.5
G1 X4.49
M05
G1 X0.03Y0.03
M03 P30 S76.5
G1 X-4.49
M05
G1 X0.03Y0.03
M03 P30 S76.5
G1 X4.49
M05
G1 X0.03Y0.03
M03 P30 S76.5
G1 X-4.49
M05
G1 X0.03Y0.03
M03 P30 S76.5
G1 X4.49
M05
G1 X0.03Y0.03
M03 P30 S76.5
G1 X-4.49
M05
G1 X0.03Y0.03
M03 P30 S76.5
G1 X4.49
M05
G1 X0.03Y0.03
M03 P30 S76.5
G1 X-4.49
M05
G1 X0.03Y0.03
M03 P30 S76.5
G1 X4.49
M05
G1 X0.03Y0.03
M03 P30 S76.5
G1 X-4.49
M05
G1 X0.03Y0.03
M03 P30 S76.5
G1 X4.49
M05
G1 X0.03Y0.03
M03 P30 S76.5
G1 X-4.49
M05
G1 X0.03Y0.03
M03 P30 S76.5
G1 X4.49
M05
G1 X0.03Y0.03
M03 P30 S76.5
G1 X-4.49
M05
G1 X0.03Y0.03
M03 P30 S76.5
G1 X4.49
M05
G1 X0.03Y0.03
M03 P30 S76.5
G1 X-4.49
M05
G1 X0.03Y0.03
M03 P30 S76.5
G1 X4.49
M05
G1 X0.03Y0.03
M03 P30 S76.5
G1 X-4.49
M05
G1 X0.03Y0.03
M03 P30 S76.5
G1 X4.49
M05
G1 X0.03Y0.03
M03 P30 S76.5
G1 X-4.49
M05
G1 X0.03Y0.03
M03 P30 S76.5
G1 X4.49
M05
G1 X0.03Y0.03
M03 P30 S76.5
G1 X-4.49
M05
G1 X0.03Y0.03
M03 P30 S76.5
G1 X4.49
M05
G1 X0.03Y0.03
M03 P30 S76.5
G1 X-4.49
M05
G1 X0.03Y0.03
M03 P30 S76.5
G1 X4.49
M05
G1 X0.03Y0.03
M03 P30 S76.5
G1 X-4.49
M05
G1 X0.03Y0.03
M03 P30 S76.5
G1 X4.49
M05
G1 X0.03Y0.03
M03 P30 S76.5
G1 X-4.49
M05
G1 X0.03Y0.03
M03 P30 S76.5
G1 X4.49
M05
G1 X0.03Y0.03
M03 P30 S76.5
G1 X-4.49
M05
G1 X0.03Y0.03
M03 P30 S76.5
G1 X4.49
M05
G1 X0.03Y0.03
M03 P30 S76.5
G1 X-4.49
M05
G1 X0.03Y0.03
M03 P30 S76.5
G1 X4.49
M05
G1 X0.03Y0.03
M03 P30 S76.5
G1 X-4.49
M05
G1 X0.03Y0.03
M03 P30 S76.5
G1 X4.49
M05
G1 X0.03Y0.03
M03 P30 S76.5
G1 X-4.49
M05
G1 X0.03Y0.03
M03 P30 S76.5
G1 X4.49
M05
G1 X0.03Y0.03
M03 P30 S76.5
G1 X-4.49
M05
G1 X0.03Y0.03
M03 P30 S76.5
G1 X4.49
M05
G1 X0.03Y0.03
M03 P30 S76.5
G1 X-4.49
M05
G1 X0.03Y0.03
M03 P30 S76.5
G1 X4.49
M05
G1 X0.03Y0.03
M03 P30 S76.5
G1 X-4.49
M05
G1 X0.03Y0.03
M03 P30 S76.5
G1 X4.49
M05
G1 X0.03Y0.03
M03 P30 S76.5
G1 X-4.49
M05
G1 X0.03Y0.03
M03 P30 S76.5
G1 X4.49
M05
G1 X0.03Y0.03
M03 P30 S76.5
G1 X-4.49
M05
G1 X0.03Y0.03
M03 P30 S76.5
G1 X4.49
M05
G1 X0.03Y0.03
M03 P30 S76.5
G1 X-4.49
M05
G1 X0.03Y0.03
M03 P30 S76.5
G1 X4.49
M05
G1 X0.03Y0.03
M03 P30 S76.5
G1 X-4.49
M05
G1 X0.03Y0.03
M03 P30 S76.5
G1 X4.49
M05
G1 X0.03Y0.03
M03 P30 S76.5
G1 X-4.49
M05
G1 X0.03Y0.03
M03 P30 S76.5
G1 X4.49
M05
G1 X0.03Y0.03
M03 P30 S76.5
G1 X-4.49
M05
G1 X0.03Y0.03
M03 P30 S76.5
G1 X4.49
M05
G1 X0.03Y0.03
M03 P30 S76.5
G1 X-4.49
M05
G1 X0.03Y0.03
M03 P30 S76.5
G1 X4.49
M05
G1 X0.03Y0.03
M03 P30 S76.5
G1 X-4.49
M05
G1 X0.03Y0.03
M03 P30 S76.5
G1 X4.49
M05
G1 X0.03Y0.03
M03 P30 S76.5
G1 X-4.49
M05
G1 X0.03Y0.03
M03 P30 S76.5
G1 X4.49
M05
G1 X0.03Y0.03
M03 P30 S76.5
G1 X-4.49
M05
G1 X0.03Y0.03
M03 P30 S76.5
G1 X4.49
M05
G1 X0.03Y0.03
M03 P30 S76.5
G1 X-4.49
M05
G1 X0.03Y0.03
M03 P30 S76.5
G1 X4.49
M05
G1 X0.03Y0.03
M03 P30 S76.5
G1 X-4.49
M05
G1 X0.03Y0.03
M03 P30 S76.5
G1 X4.49
M05
G1 X0.03Y0.03
M03 P30 S76.5
G1 X-4.49
M05
G1 X0.03Y0.03
M03 P30 S76.5
G1 X4.49
M05
G1 X0.03Y0.03
M03 P30 S76.5
G1 X-4.49
M05
G1 X0.03Y0.03
M03 P30 S76.5
G1 X4.49
M05
G1 X0.03Y0.03
M03 P30 S76.5
G1 X-4.49
M05
G1 X0.03Y0.03
M03 P30 S76.5
G1 X4.49
M05
G1 X0.03Y0.03
M03 P30 S76.5
G1 X-4.49
M05
G1 X0.03Y0.03
M03 P30 S76.5
G1 X4.49
M05
G1 X0.03Y0.03
M03 P30 S76.5
G1 X-4.49
M05
G1 X0.03Y0.03
M03 P30 S76.5
G1 X4.49
M05
G1 X0.03Y0.03
M03 P30 S76.5
G1 X-4.49
M05
G1 X0.03Y0.03
M03 P30 S76.5
G1 X4.49
M05
G1 X0.03Y0.03
M03 P30 S76.5
G1 X-4.49
M05
G1 X0.03Y0.03
M03 P30 S76.5
G1 X4.49
M05
G1 X0.03Y0.03
M03 P30 S76.5
G1 X-4.49
M05
G1 X0.03Y0.03
M03 P30 S76.5
G1 X4.49
M05
G1 X0.03Y0.03
M03 P30 S76.5
G1 X-4.49
M05
G1 X0.03Y0.03
M03 P30 S76.5
G1 X4.49
M05
G1 X0.03Y0.03
M03 P30 S76.5
G1 X-4.49
M05
G1 X0.03Y0.03
M03 P30 S76.5
G1 X4.49
M05
G1 X0.03Y0.03
M03 P30 S76.5
G1 X-4.49
M05
G1 X0.03Y0.03
M03 P30 S76.5
G1 X4.49
M05
G1 X0.03Y0.03
M03 P30 S76.5
G1 X-4.49
M05
G1 X0.03Y0.03
M03 P30 S76.5
G1 X4.49
M05
G1 X0.03Y0.03
M03 P30 S76.5
G1 X-4.49
M05
G1 X0.03Y0.03
M03 P30 S76.5
G1 X4.49
M05
G1 X0.03Y0.03
M03 P30 S76.5
G1 X-4.49
M05
G1 X0.03Y0.03
M03 P30 S76.5
G1 X4.49
M05
G1 X0.03Y0.03
M03 P30 S76.5
G1 X-4.49
M05
G1 X0.03Y0.03
M03 P30 S76.5
G1 X4.49
M05
G1 X0.03Y0.03
M03 P30 S76.5
G1 X-4.49
M05
G1 X0.03Y0.03
M03 P30 S76.5
G1 X4.49
M05
G1 X0.03Y0.03
M03 P30 S76.5
G1 X-4.49
M05
G1 X4.465Y-0.025
M03 P30 S76.5
G1 Y0.036
M05
G1 X-0.03
M03 P30 S76.5
G1 Y-0.066
M05
G1 X-0.03Y-0.03
M03 P30 S76.5
G1 Y0.096
M05
G1 X-0.03
M03 P30 S76.5
G1 Y-0.126
M05
G1 X-0.03Y-0.03
M03 P30 S76.5
G1 Y0.156
M05
G1 X-0.03
M03 P30 S76.5
G1 Y-0.186
M05
G1 X-0.03Y-0.03
M03 P30 S76.5
G1 Y0.216
M05
G1 X-0.03
M03 P30 S76.5
G1 Y-0.246
M05
G1 X-0.03Y-0.03
M03 P30 S76.5
G1 Y0.276
M05
G1 X-0.03
M03 P30 S76.5
G1 Y-0.306
M05
G1 X-0.03Y-0.03
M03 P30 S76.5
G1 Y0.336
M05
G1 X-0.03
M03 P30 S76.5
G1 Y-0.366
M05
G1 X-0.03Y-0.03
M03 P30 S76.5
G1 Y0.396
M05
G1 X-0.03
M03 P30 S76.5
G1 Y-0.426
M05
G1 X-0.03Y-0.03
M03 P30 S76.5
G1 Y0.456
M05
G1 X-0.03
M03 P30 S76.5
G1 Y-0.486
M05
G1 X-0.03Y-0.03
M03 P30 S76.5
G1 Y0.516
M05
G1 X-0.03
M03 P30 S76.5
G1 Y-0.546
M05
G1 X-0.03Y-0.03
M03 P30 S76.5
G1 Y0.576
M05
G1 X-0.03
M03 P30 S76.5
G1 Y-0.606
M05
G1 X-0.03Y-0.03
M03 P30 S76.5
G1 Y0.636
M05
G1 X-0.03
M03 P30 S76.5
G1 Y-0.666
M05
G1 X-0.03Y-0.03
M03 P30 S76.5
G1 Y0.696
M05
G1 X-0.03
M03 P30 S76.5
G1 Y-0.726
M05
G1 X-0.03Y-0.03
M03 P30 S76.5
G1 Y0.756
M05
G1 X-0.03
M03 P30 S76.5
G1 Y-0.786
M05
G1 X-0.03Y-0.03
M03 P30 S76.5
G1 Y0.816
M05
G1 X-0.03
M03 P30 S76.5
G1 Y-0.846
M05
G1 X-0.03Y-0.03
M03 P30 S76.5
G1 Y0.876
M05
G1 X-0.03
M03 P30 S76.5
G1 Y-0.906
M05
G1 X-0.03Y-0.03
M03 P30 S76.5
G1 Y0.936
M05
G1 X-0.03
M03 P30 S76.5
G1 Y-0.966
M05
G1 X-0.03Y-0.03
M03 P30 S76.5
G1 Y0.996
M05
G1 X-0.03
M03 P30 S76.5
G1 Y-1.026
M05
G1 X-0.03Y-0.03
M03 P30 S76.5
G1 Y1.056
M05
G1 X-0.03
M03 P30 S76.5
G1 Y-1.086
M05
G1 X-0.03Y-0.03
M03 P30 S76.5
G1 Y1.116
M05
G1 X-0.03
M03 P30 S76.5
G1 Y-1.146
M05
G1 X-0.03Y-0.03
M03 P30 S76.5
G1 Y1.176
M05
G1 X-0.03
M03 P30 S76.5
G1 Y-1.206
M05
G1 X-0.03Y-0.03
M03 P30 S76.5
G1 Y1.236
M05
G1 X-0.03
M03 P30 S76.5
G1 Y-1.266
M05
G1 X-0.03Y-0.03
M03 P30 S76.5
G1 Y1.296
M05
G1 X-0.03
M03 P30 S76.5
G1 Y-1.326
M05
G1 X-0.03Y-0.03
M03 P30 S76.5
G1 Y1.356
M05
G1 X-0.03
M03 P30 S76.5
G1 Y-1.386
M05
G1 X-0.03Y-0.03
M03 P30 S76.5
G1 Y1.416
M05
G1 X-0.03
M03 P30 S76.5
G1 Y-1.446
M05
G1 X-0.03Y-0.03
M03 P30 S76.5
G1 Y1.476
M05
G1 X-0.03
M03 P30 S76.5
G1 Y-1.506
M05
G1 X-0.03Y-0.03
M03 P30 S76.5
G1 Y1.536
M05
G1 X-0.03
M03 P30 S76.5
G1 Y-1.566
M05
G1 X-0.03Y-0.03
M03 P30 S76.5
G1 Y1.596
M05
G1 X-0.03
M03 P30 S76.5
G1 Y-1.626
M05
G1 X-0.03Y-0.03
M03 P30 S76.5
G1 Y1.656
M05
G1 X-0.03
M03 P30 S76.5
G1 Y-1.686
M05
G1 X-0.03Y-0.03
M03 P30 S76.5
G1 Y1.716
M05
G1 X-0.03
M03 P30 S76.5
G1 Y-1.746
M05
G1 X-0.03Y-0.03
M03 P30 S76.5
G1 Y1.776
M05
G1 X-0.03
M03 P30 S76.5
G1 Y-1.806
M05
G1 X-0.03Y-0.03
M03 P30 S76.5
G1 Y1.836
M05
G1 X-0.03
M03 P30 S76.5
G1 Y-1.866
M05
G1 X-0.03Y-0.03
M03 P30 S76.5
G1 Y1.896
M05
G1 X-0.03
M03 P30 S76.5
G1 Y-1.926
M05
G1 X-0.03Y-0.03
M03 P30 S76.5
G1 Y1.956
M05
G1 X-0.03
M03 P30 S76.5
G1 Y-1.986
M05
G1 X-0.03Y-0.03
M03 P30 S76.5
G1 Y2.016
M05
G1 X-0.03
M03 P30 S76.5
G1 Y-2.046
M05
G1 X-0.03Y-0.03
M03 P30 S76.5
G1 Y2.076
M05
G1 X-0.03
M03 P30 S76.5
G1 Y-2.106
M05
G1 X-0.03Y-0.03
M03 P30 S76.5
G1 Y2.136
M05
G1 X-0.03
M03 P30 S76.5
G1 Y-2.166
M05
G1 X-0.03Y-0.03
M03 P30 S76.5
G1 Y2.196
M05
G1 X-0.03
M03 P30 S76.5
G1 Y-2.226
M05
G1 X-0.03Y-0.03
M03 P30 S76.5
G1 Y2.256
M05
G1 X-0.03
M03 P30 S76.5
G1 Y-2.286
M05
G1 X-0.03Y-0.03
M03 P30 S76.5
G1 Y2.316
M05
G1 X-0.03
M03 P30 S76.5
G1 Y-2.346
M05
G1 X-0.03Y-0.03
M03 P30 S76.5
G1 Y2.376
M05
G1 X-0.03
M03 P30 S76.5
G1 Y-2.406
M05
G1 X-0.03Y-0.03
M03 P30 S76.5
G1 Y2.436
M05
G1 X-0.03
M03 P30 S76.5
G1 Y-2.466
M05
G1 X-0.03Y-0.03
M03 P30 S76.5
G1 Y2.496
M05
G1 X-0.03
M03 P30 S76.5
G1 Y-2.526
M05
G1 X-0.03Y-0.03
M03 P30 S76.5
G1 Y2.556
M05
G1 X-0.03
M03 P30 S76.5
G1 Y-2.586
M05
G1 X-0.03Y-0.03
M03 P30 S76.5
G1 Y2.616
M05
G1 X-0.03
M03 P30 S76.5
G1 Y-2.646
M05
G1 X-0.03Y-0.03
M03 P30 S76.5
G1 Y2.676
M05
G1 X-0.03
M03 P30 S76.5
G1 Y-2.706
M05
G1 X-0.03Y-0.03
M03 P30 S76.5
G1 Y2.736
M05
G1 X-0.03
M03 P30 S76.5
G1 Y-2.766
M05
G1 X-0.03Y-0.03
M03 P30 S76.5
G1 Y2.796
M05
G1 X-0.03
M03 P30 S76.5
G1 Y-2.826
M05
G1 X-0.03Y-0.03
M03 P30 S76.5
G1 Y2.856
M05
G1 X-0.03
M03 P30 S76.5
G1 Y-2.886
M05
G1 X-0.03Y-0.03
M03 P30 S76.5
G1 Y2.916
M05
G1 X-0.03
M03 P30 S76.5
G1 Y-2.946
M05
G1 X-0.03Y-0.03
M03 P30 S76.5
G1 Y2.976
M05
G1 X-0.03
M03 P30 S76.5
G1 Y-3.006
M05
G1 X-0.03Y-0.03
M03 P30 S76.5
G1 Y3.036
M05
G1 X-0.03
M03 P30 S76.5
G1 Y-3.066
M05
G1 X-0.03Y-0.03
M03 P30 S76.5
G1 Y3.096
M05
G1 X-0.03
M03 P30 S76.5
G1 Y-3.126
M05
G1 X-0.03Y-0.03
M03 P30 S76.5
G1 Y3.156
M05
G1 X-0.03
M03 P30 S76.5
G1 Y-3.186
M05
G1 X-0.03Y-0.03
M03 P30 S76.5
G1 Y3.216
M05
G1 X-0.03
M03 P30 S76.5
G1 Y-3.246
M05
G1 X-0.03Y-0.03
M03 P30 S76.5
G1 Y3.276
M05
G1 X-0.03
M03 P30 S76.5
G1 Y-3.306
M05
G1 X-0.03Y-0.03
M03 P30 S76.5
G1 Y3.336
M05
G1 X-0.03
M03 P30 S76.5
G1 Y-3.366
M05
G1 X-0.03Y-0.03
M03 P30 S76.5
G1 Y3.396
M05
G1 X-0.03
M03 P30 S76.5
G1 Y-3.426
M05
G1 X-0.03Y-0.03
M03 P30 S76.5
G1 Y3.456
M05
G1 X-0.03
M03 P30 S76.5
G1 Y-3.486
M05
G1 X-0.03Y-0.03
M03 P30 S76.5
G1 Y3.516
M05
G1 X-0.03
M03 P30 S76.5
G1 Y-3.546
M05
G1 X-0.03Y-0.03
M03 P30 S76.5
G1 Y3.576
M05
G1 X-0.03
M03 P30 S76.5
G1 Y-3.606
M05
G1 X-0.03Y-0.03
M03 P30 S76.5
G1 Y3.636
M05
G1 X-0.03
M03 P30 S76.5
G1 Y-3.666
M05
G1 X-0.03Y-0.03
M03 P30 S76.5
G1 Y3.696
M05
G1 X-0.03
M03 P30 S76.5
G1 Y-3.726
M05
G1 X-0.03Y-0.03
M03 P30 S76.5
G1 Y3.756
M05
G1 X-0.03
M03 P30 S76.5
G1 Y-3.786
M05
G1 X-0.03Y-0.03
M03 P30 S76.5
G1 Y3.816
M05
G1 X-0.03
M03 P30 S76.5
G1 Y-3.846
M05
G1 X-0.03Y-0.03
M03 P30 S76.5
G1 Y3.876
M05
G1 X-0.03
M03 P30 S76.5
G1 Y-3.906
M05
G1 X-0.03Y-0.03
M03 P30 S76.5
G1 Y3.936
M05
G1 X-0.03
M03 P30 S76.5
G1 Y-3.966
M05
G1 X-0.03Y-0.03
M03 P30 S76.5
G1 Y3.996
M05
G1 X-0.03
M03 P30 S76.5
G1 Y-4.026
M05
G1 X-0.03Y-0.03
M03 P30 S76.5
G1 Y4.056
M05
G1 X-0.03
M03 P30 S76.5
G1 Y-4.086
M05
G1 X-0.03Y-0.03
M03 P30 S76.5
G1 Y4.116
M05
G1 X-0.03
M03 P30 S76.5
G1 Y-4.146
M05
G1 X-0.03Y-0.03
M03 P30 S76.5
G1 Y4.176
M05
G1 X-0.03
M03 P30 S76.5
G1 Y-4.206
M05
G1 X-0.03Y-0.03
M03 P30 S76.5
G1 Y4.236
M05
G1 X-0.03
M03 P30 S76.5
G1 Y-4.266
M05
G1 X-0.03Y-0.03
M03 P30 S76.5
G1 Y4.296
M05
G1 X-0.03
M03 P30 S76.5
G1 Y-4.326
M05
G1 X-0.03Y-0.03
M03 P30 S76.5
G1 Y4.356
M05
G1 X-0.03
M03 P30 S76.5
G1 Y-4.386
M05
G1 X-0.03Y-0.03
M03 P30 S76.5
G1 Y4.416
M05
G1 X-0.03
M03 P30 S76.5
G1 Y-4.446
M05
G1 X-0.03Y-0.03
M03 P30 S76.5
G1 Y4.476
M05
G1 X-0.03Y-0.016
M03 P30 S76.5
G1 Y-4.49
M05
G1 X-0.03Y-0.03
M03 P30 S76.5
G1 Y4.49
M05
G1 X-0.03Y-0.03
M03 P30 S76.5
G1 Y-4.49
M05
G1 X-0.03Y-0.03
M03 P30 S76.5
G1 Y4.49
M05
G1 X-0.03Y-0.03
M03 P30 S76.5
G1 Y-4.49
M05
G1 X-0.03Y-0.03
M03 P30 S76.5
G1 Y4.49
M05
G1 X-0.03Y-0.03
M03 P30 S76.5
G1 Y-4.49
M05
G1 X-0.03Y-0.03
M03 P30 S76.5
G1 Y4.49
M05
G1 X-0.03Y-0.03
M03 P30 S76.5
G1 Y-4.49
M05
G1 X-0.03Y-0.03
M03 P30 S76.5
G1 Y4.49
M05
G1 X-0.03Y-0.03
M03 P30 S76.5
G1 Y-4.49
M05
G1 X-0.03Y-0.03
M03 P30 S76.5
G1 Y4.49
M05
G1 X-0.03Y-0.03
M03 P30 S76.5
G1 Y-4.49
M05
G1 X-0.03Y-0.03
M03 P30 S76.5
G1 Y4.49
M05
G1 X-0.03Y-0.03
M03 P30 S76.5
G1 Y-4.49
M05
G1 X-0.03Y-0.03
M03 P30 S76.5
G1 Y4.49
M05
G1 X-0.03Y-0.03
M03 P30 S76.5
G1 Y-4.49
M05
G1 X-0.03Y-0.03
M03 P30 S76.5
G1 Y4.49
M05
G1 X-0.03Y-0.03
M03 P30 S76.5
G1 Y-4.49
M05
G1 X-0.03Y-0.03
M03 P30 S76.5
G1 Y4.49
M05
G1 X-0.03Y-0.03
M03 P30 S76.5
G1 Y-4.49
M05
G1 X-0.03Y-0.03
M03 P30 S76.5
G1 Y4.49
M05
G1 X-0.03Y-0.03
M03 P30 S76.5
G1 Y-4.49
M05
G1 X-0.03Y-0.03
M03 P30 S76.5
G1 Y4.49
M05
G1 X-0.03Y-0.03
M03 P30 S76.5
G1 Y-4.49
M05
G1 X-0.03Y-0.03
M03 P30 S76.5
G1 Y4.49
M05
G1 X-0.03Y-0.03
M03 P30 S76.5
G1 Y-4.49
M05
G1 X-0.03Y-0.03
M03 P30 S76.5
G1 Y4.49
M05
G1 X-0.03Y-0.03
M03 P30 S76.5
G1 Y-4.49
M05
G1 X-0.03Y-0.03
M03 P30 S76.5
G1 Y4.49
M05
G1 X-0.03Y-0.03
M03 P30 S76.5
G1 Y-4.49
M05
G1 X-0.03Y-0.03
M03 P30 S76.5
G1 Y4.49
M05
G1 X-0.03Y-0.03
M03 P30 S76.5
G1 Y-4.49
M05
G1 X-0.03Y-0.03
M03 P30 S76.5
G1 Y4.49
M05
G1 X-0.03Y-0.03
M03 P30 S76.5
G1 Y-4.477
M05
G1 X-0.03
M03 P30 S76.5
G1 Y4.447
M05
G1 X-0.03Y-0.03
M03 P30 S76.5
G1 Y-4.417
M05
G1 X-0.03
M03 P30 S76.5
G1 Y4.387
M05
G1 X-0.03Y-0.03
M03 P30 S76.5
G1 Y-4.357
M05
G1 X-0.03
M03 P30 S76.5
G1 Y4.327
M05
G1 X-0.03Y-0.03
M03 P30 S76.5
G1 Y-4.297
M05
G1 X-0.03
M03 P30 S76.5
G1 Y4.267
M05
G1 X-0.03Y-0.03
M03 P30 S76.5
G1 Y-4.237
M05
G1 X-0.03
M03 P30 S76.5
G1 Y4.207
M05
G1 X-0.03Y-0.03
M03 P30 S76.5
G1 Y-4.177
M05
G1 X-0.03
M03 P30 S76.5
G1 Y4.147
M05
G1 X-0.03Y-0.03
M03 P30 S76.5
G1 Y-4.117
M05
G1 X-0.03
M03 P30 S76.5
G1 Y4.087
M05
G1 X-0.03Y-0.03
M03 P30 S76.5
G1 Y-4.057
M05
G1 X-0.03
M03 P30 S76.5
G1 Y4.027
M05
G1 X-0.03Y-0.03
M03 P30 S76.5
G1 Y-3.997
M05
G1 X-0.03
M03 P30 S76.5
G1 Y3.967
M05
G1 X-0.03Y-0.03
M03 P30 S76.5
G1 Y-3.937
M05
G1 X-0.03
M03 P30 S76.5
G1 Y3.907
M05
G1 X-0.03Y-0.03
M03 P30 S76.5
G1 Y-3.877
M05
G1 X-0.03
M03 P30 S76.5
G1 Y3.847
M05
G1 X-0.03Y-0.03
M03 P30 S76.5
G1 Y-3.817
M05
G1 X-0.03
M03 P30 S76.5
G1 Y3.787
M05
G1 X-0.03Y-0.03
M03 P30 S76.5
G1 Y-3.757
M05
G1 X-0.03
M03 P30 S76.5
G1 Y3.727
M05
G1 X-0.03Y-0.03
M03 P30 S76.5
G1 Y-3.697
M05
G1 X-0.03
M03 P30 S76.5
G1 Y3.667
M05
G1 X-0.03Y-0.03
M03 P30 S76.5
G1 Y-3.637
M05
G1 X-0.03
M03 P30 S76.5
G1 Y3.607
M05
G1 X-0.03Y-0.03
M03 P30 S76.5
G1 Y-3.577
M05
G1 X-0.03
M03 P30 S76.5
G1 Y3.547
M05
G1 X-0.03Y-0.03
M03 P30 S76.5
G1 Y-3.517
M05
G1 X-0.03
M03 P30 S76.5
G1 Y3.487
M05
G1 X-0.03Y-0.03
M03 P30 S76.5
G1 Y-3.457
M05
G1 X-0.03
M03 P30 S76.5
G1 Y3.427
M05
G1 X-0.03Y-0.03
M03 P30 S76.5
G1 Y-3.397
M05
G1 X-0.03
M03 P30 S76.5
G1 Y3.367
M05
G1 X-0.03Y-0.03
M03 P30 S76.5
G1 Y-3.337
M05
G1 X-0.03
M03 P30 S76.5
G1 Y3.307
M05
G1 X-0.03Y-0.03
M03 P30 S76.5
G1 Y-3.277
M05
G1 X-0.03
M03 P30 S76.5
G1 Y3.247
M05
G1 X-0.03Y-0.03
M03 P30 S76.5
G1 Y-3.217
M05
G1 X-0.03
M03 P30 S76.5
G1 Y3.187
M05
G1 X-0.03Y-0.03
M03 P30 S76.5
G1 Y-3.157
M05
G1 X-0.03
M03 P30 S76.5
G1 Y3.127
M05
G1 X-0.03Y-0.03
M03 P30 S76.5
G1 Y-3.097
M05
G1 X-0.03
M03 P30 S76.5
G1 Y3.067
M05
G1 X-0.03Y-0.03
M03 P30 S76.5
G1 Y-3.037
M05
G1 X-0.03
M03 P30 S76.5
G1 Y3.007
M05
G1 X-0.03Y-0.03
M03 P30 S76.5
G1 Y-2.977
M05
G1 X-0.03
M03 P30 S76.5
G1 Y2.947
M05
G1 X-0.03Y-0.03
M03 P30 S76.5
G1 Y-2.917
M05
G1 X-0.03
M03 P30 S76.5
G1 Y2.887
M05
G1 X-0.03Y-0.03
M03 P30 S76.5
G1 Y-2.857
M05
G1 X-0.03
M03 P30 S76.5
G1 Y2.827
M05
G1 X-0.03Y-0.03
M03 P30 S76.5
G1 Y-2.797
M05
G1 X-0.03
M03 P30 S76.5
G1 Y2.767
M05
G1 X-0.03Y-0.03
M03 P30 S76.5
G1 Y-2.737
M05
G1 X-0.03
M03 P30 S76.5
G1 Y2.707
M05
G1 X-0.03Y-0.03
M03 P30 S76.5
G1 Y-2.677
M05
G1 X-0.03
M03 P30 S76.5
G1 Y2.647
M05
G1 X-0.03Y-0.03
M03 P30 S76.5
G1 Y-2.617
M05
G1 X-0.03
M03 P30 S76.5
G1 Y2.587
M05
G1 X-0.03Y-0.03
M03 P30 S76.5
G1 Y-2.557
M05
G1 X-0.03
M03 P30 S76.5
G1 Y2.527
M05
G1 X-0.03Y-0.03
M03 P30 S76.5
G1 Y-2.497
M05
G1 X-0.03
M03 P30 S76.5
G1 Y2.467
M05
G1 X-0.03Y-0.03
M03 P30 S76.5
G1 Y-2.437
M05
G1 X-0.03
M03 P30 S76.5
G1 Y2.407
M05
G1 X-0.03Y-0.03
M03 P30 S76.5
G1 Y-2.377
M05
G1 X-0.03
M03 P30 S76.5
G1 Y2.347
M05
G1 X-0.03Y-0.03
M03 P30 S76.5
G1 Y-2.317
M05
G1 X-0.03
M03 P30 S76.5
G1 Y2.287
M05
G1 X-0.03Y-0.03
M03 P30 S76.5
G1 Y-2.257
M05
G1 X-0.03
M03 P30 S76.5
G1 Y2.227
M05
G1 X-0.03Y-0.03
M03 P30 S76.5
G1 Y-2.197
M05
G1 X-0.03
M03 P30 S76.5
G1 Y2.167
M05
G1 X-0.03Y-0.03
M03 P30 S76.5
G1 Y-2.137
M05
G1 X-0.03
M03 P30 S76.5
G1 Y2.107
M05
G1 X-0.03Y-0.03
M03 P30 S76.5
G1 Y-2.077
M05
G1 X-0.03
M03 P30 S76.5
G1 Y2.047
M05
G1 X-0.03Y-0.03
M03 P30 S76.5
G1 Y-2.017
M05
G1 X-0.03
M03 P30 S76.5
G1 Y1.987
M05
G1 X-0.03Y-0.03
M03 P30 S76.5
G1 Y-1.957
M05
G1 X-0.03
M03 P30 S76.5
G1 Y1.927
M05
G1 X-0.03Y-0.03
M03 P30 S76.5
G1 Y-1.897
M05
G1 X-0.03
M03 P30 S76.5
G1 Y1.867
M05
G1 X-0.03Y-0.03
M03 P30 S76.5
G1 Y-1.837
M05
G1 X-0.03
M03 P30 S76.5
G1 Y1.807
M05
G1 X-0.03Y-0.03
M03 P30 S76.5
G1 Y-1.777
M05
G1 X-0.03
M03 P30 S76.5
G1 Y1.747
M05
G1 X-0.03Y-0.03
M03 P30 S76.5
G1 Y-1.717
M05
G1 X-0.03
M03 P30 S76.5
G1 Y1.687
M05
G1 X-0.03Y-0.03
M03 P30 S76.5
G1 Y-1.657
M05
G1 X-0.03
M03 P30 S76.5
G1 Y1.627
M05
G1 X-0.03Y-0.03
M03 P30 S76.5
G1 Y-1.597
M05
G1 X-0.03
M03 P30 S76.5
G1 Y1.567
M05
G1 X-0.03Y-0.03
M03 P30 S76.5
G1 Y-1.537
M05
G1 X-0.03
M03 P30 S76.5
G1 Y1.507
M05
G1 X-0.03Y-0.03
M03 P30 S76.5
G1 Y-1.477
M05
G1 X-0.03
M03 P30 S76.5
G1 Y1.447
M05
G1 X-0.03Y-0.03
M03 P30 S76.5
G1 Y-1.417
M05
G1 X-0.03
M03 P30 S76.5
G1 Y1.387
M05
G1 X-0.03Y-0.03
M03 P30 S76.5
G1 Y-1.357
M05
G1 X-0.03
M03 P30 S76.5
G1 Y1.327
M05
G1 X-0.03Y-0.03
M03 P30 S76.5
G1 Y-1.297
M05
G1 X-0.03
M03 P30 S76.5
G1 Y1.267
M05
G1 X-0.03Y-0.03
M03 P30 S76.5
G1 Y-1.237
M05
G1 X-0.03
M03 P30 S76.5
G1 Y1.207
M05
G1 X-0.03Y-0.03
M03 P30 S76.5
G1 Y-1.177
M05
G1 X-0.03
M03 P30 S76.5
G1 Y1.147
M05
G1 X-0.03Y-0.03
M03 P30 S76.5
G1 Y-1.117
M05
G1 X-0.03
M03 P30 S76.5
G1 Y1.087
M05
G1 X-0.03Y-0.03
M03 P30 S76.5
G1 Y-1.057
M05
G1 X-0.03
M03 P30 S76.5
G1 Y1.027
M05
G1 X-0.03Y-0.03
M03 P30 S76.5
G1 Y-0.997
M05
G1 X-0.03
M03 P30 S76.5
G1 Y0.967
M05
G1 X-0.03Y-0.03
M03 P30 S76.5
G1 Y-0.937
M05
G1 X-0.03
M03 P30 S76.5
G1 Y0.907
M05
G1 X-0.03Y-0.03
M03 P30 S76.5
G1 Y-0.877
M05
G1 X-0.03
M03 P30 S76.5
G1 Y0.847
M05
G1 X-0.03Y-0.03
M03 P30 S76.5
G1 Y-0.817
M05
G1 X-0.03
M03 P30 S76.5
G1 Y0.787
M05
G1 X-0.03Y-0.03
M03 P30 S76.5
G1 Y-0.757
M05
G1 X-0.03
M03 P30 S76.5
G1 Y0.727
M05
G1 X-0.03Y-0.03
M03 P30 S76.5
G1 Y-0.697
M05
G1 X-0.03
M03 P30 S76.5
G1 Y0.667
M05
G1 X-0.03Y-0.03
M03 P30 S76.5
G1 Y-0.637
M05
G1 X-0.03
M03 P30 S76.5
G1 Y0.607
M05
G1 X-0.03Y-0.03
M03 P30 S76.5
G1 Y-0.577
M05
G1 X-0.03
M03 P30 S76.5
G1 Y0.547
M05
G1 X-0.03Y-0.03
M03 P30 S76.5
G1 Y-0.517
M05
G1 X-0.03
M03 P30 S76.5
G1 Y0.487
M05
G1 X-0.03Y-0.03
M03 P30 S76.5
G1 Y-0.457
M05
G1 X-0.03
M03 P30 S76.5
G1 Y0.427
M05
G1 X-0.03Y-0.03
M03 P30 S76.5
G1 Y-0.397
M05
G1 X-0.03
M03 P30 S76.5
G1 Y0.367
M05
G1 X-0.03Y-0.03
M03 P30 S76.5
G1 Y-0.337
M05
G1 X-0.03
M03 P30 S76.5
G1 Y0.307
M05
G1 X-0.03Y-0.03
M03 P30 S76.5
G1 Y-0.277
M05
G1 X-0.03
M03 P30 S76.5
G1 Y0.247
M05
G1 X-0.03Y-0.03
M03 P30 S76.5
G1 Y-0.217
M05
G1 X-0.03
M03 P30 S76.5
G1 Y0.187
M05
G1 X-0.03Y-0.03
M03 P30 S76.5
G1 Y-0.157
M05
G1 X-0.03
M03 P30 S76.5
G1 Y0.127
M05
G1 X-0.03Y-0.03
M03 P30 S76.5
G1 Y-0.097
M05
G1 X-0.03
M03 P30 S76.5
G1 Y0.067
M05
G1 X-0.03Y-0.03
M03 P30 S76.5
G1 Y-0.037
M05
G0 X6.325 Y0.012 F0
M03 P30 S76.5
G1 X4.49 F2300
M05
G1 X0.03Y0.03
M03 P30 S76.5
G1 X-4.49
M05
G1 X0.03Y0.03
M03 P30 S76.5
G1 X4.49
M05
G1 X0.03Y0.03
M03 P30 S76.5
G1 X-4.49
M05
G1 X0.03Y0.03
M03 P30 S76.5
G1 X4.49
M05
G1 X0.03Y0.03
M03 P30 S76.5
G1 X-4.49
M05
G1 X0.03Y0.03
M03 P30 S76.5
G1 X4.49
M05
G1 X0.03Y0.03
M03 P30 S76.5
G1 X-4.49
M05
G1 X0.03Y0.03
M03 P30 S76.5
G1 X4.49
M05
G1 X0.03Y0.03
M03 P30 S76.5
G1 X-4.49
M05
G1 X0.03Y0.03
M03 P30 S76.5
G1 X4.49
M05
G1 X0.03Y0.03
M03 P30 S76.5
G1 X-4.49
M05
G1 X0.03Y0.03
M03 P30 S76.5
G1 X4.49
M05
G1 X0.03Y0.03
M03 P30 S76.5
G1 X-4.49
M05
G1 X0.03Y0.03
M03 P30 S76.5
G1 X4.49
M05
G1 X0.03Y0.03
M03 P30 S76.5
G1 X-4.49
M05
G1 X0.03Y0.03
M03 P30 S76.5
G1 X4.49
M05
G1 X0.03Y0.03
M03 P30 S76.5
G1 X-4.49
M05
G1 X0.03Y0.03
M03 P30 S76.5
G1 X4.49
M05
G1 X0.03Y0.03
M03 P30 S76.5
G1 X-4.49
M05
G1 X0.03Y0.03
M03 P30 S76.5
G1 X4.49
M05
G1 X0.03Y0.03
M03 P30 S76.5
G1 X-4.49
M05
G1 X0.03Y0.03
M03 P30 S76.5
G1 X4.49
M05
G1 X0.03Y0.03
M03 P30 S76.5
G1 X-4.49
M05
G1 X0.03Y0.03
M03 P30 S76.5
G1 X4.49
M05
G1 X0.03Y0.03
M03 P30 S76.5
G1 X-4.49
M05
G1 X0.03Y0.03
M03 P30 S76.5
G1 X4.49
M05
G1 X0.03Y0.03
M03 P30 S76.5
G1 X-4.49
M05
G1 X0.03Y0.03
M03 P30 S76.5
G1 X4.49
M05
G1 X0.03Y0.03
M03 P30 S76.5
G1 X-4.49
M05
G1 X0.03Y0.03
M03 P30 S76.5
G1 X4.49
M05
G1 X0.03Y0.03
M03 P30 S76.5
G1 X-4.49
M05
G1 X0.03Y0.03
M03 P30 S76.5
G1 X4.49
M05
G1 X0.03Y0.03
M03 P30 S76.5
G1 X-4.49
M05
G1 X0.03Y0.03
M03 P30 S76.5
G1 X4.49
M05
G1 X0.03Y0.03
M03 P30 S76.5
G1 X-4.49
M05
G1 X0.03Y0.03
M03 P30 S76.5
G1 X4.49
M05
G1 X0.03Y0.03
M03 P30 S76.5
G1 X-4.49
M05
G1 X0.03Y0.03
M03 P30 S76.5
G1 X4.49
M05
G1 X0.03Y0.03
M03 P30 S76.5
G1 X-4.49
M05
G1 X0.03Y0.03
M03 P30 S76.5
G1 X4.49
M05
G1 X0.03Y0.03
M03 P30 S76.5
G1 X-4.49
M05
G1 X0.03Y0.03
M03 P30 S76.5
G1 X4.49
M05
G1 X0.03Y0.03
M03 P30 S76.5
G1 X-4.49
M05
G1 X0.03Y0.03
M03 P30 S76.5
G1 X4.49
M05
G1 X0.03Y0.03
M03 P30 S76.5
G1 X-4.49
M05
G1 X0.03Y0.03
M03 P30 S76.5
G1 X4.49
M05
G1 X0.03Y0.03
M03 P30 S76.5
G1 X-4.49
M05
G1 X0.03Y0.03
M03 P30 S76.5
G1 X4.49
M05
G1 X0.03Y0.03
M03 P30 S76.5
G1 X-4.49
M05
G1 X0.03Y0.03
M03 P30 S76.5
G1 X4.49
M05
G1 X0.03Y0.03
M03 P30 S76.5
G1 X-4.49
M05
G1 X0.03Y0.03
M03 P30 S76.5
G1 X4.49
M05
G1 X0.03Y0.03
M03 P30 S76.5
G1 X-4.49
M05
G1 X0.03Y0.03
M03 P30 S76.5
G1 X4.49
M05
G1 X0.03Y0.03
M03 P30 S76.5
G1 X-4.49
M05
G1 X0.03Y0.03
M03 P30 S76.5
G1 X4.49
M05
G1 X0.03Y0.03
M03 P30 S76.5
G1 X-4.49
M05
G1 X0.03Y0.03
M03 P30 S76.5
G1 X4.49
M05
G1 X0.03Y0.03
M03 P30 S76.5
G1 X-4.49
M05
G1 X0.03Y0.03
M03 P30 S76.5
G1 X4.49
M05
G1 X0.03Y0.03
M03 P30 S76.5
G1 X-4.49
M05
G1 X0.03Y0.03
M03 P30 S76.5
G1 X4.49
M05
G1 X0.03Y0.03
M03 P30 S76.5
G1 X-4.49
M05
G1 X0.03Y0.03
M03 P30 S76.5
G1 X4.49
M05
G1 X0.03Y0.03
M03 P30 S76.5
G1 X-4.49
M05
G1 X0.03Y0.03
M03 P30 S76.5
G1 X4.49
M05
G1 X0.03Y0.03
M03 P30 S76.5
G1 X-4.49
M05
G1 X0.03Y0.03
M03 P30 S76.5
G1 X4.49
M05
G1 X0.03Y0.03
M03 P30 S76.5
G1 X-4.49
M05
G1 X0.03Y0.03
M03 P30 S76.5
G1 X4.49
M05
G1 X0.03Y0.03
M03 P30 S76.5
G1 X-4.49
M05
G1 X0.03Y0.03
M03 P30 S76.5
G1 X4.49
M05
G1 X0.03Y0.03
M03 P30 S76.5
G1 X-4.49
M05
G1 X0.03Y0.03
M03 P30 S76.5
G1 X4.49
M05
G1 X0.03Y0.03
M03 P30 S76.5
G1 X-4.49
M05
G1 X0.03Y0.03
M03 P30 S76.5
G1 X4.49
M05
G1 X0.03Y0.03
M03 P30 S76.5
G1 X-4.49
M05
G1 X0.03Y0.03
M03 P30 S76.5
G1 X4.49
M05
G1 X0.03Y0.03
M03 P30 S76.5
G1 X-4.49
M05
G1 X0.03Y0.03
M03 P30 S76.5
G1 X4.49
M05
G1 X0.03Y0.03
M03 P30 S76.5
G1 X-4.49
M05
G1 X0.03Y0.03
M03 P30 S76.5
G1 X4.49
M05
G1 X0.03Y0.03
M03 P30 S76.5
G1 X-4.49
M05
G1 X0.03Y0.03
M03 P30 S76.5
G1 X4.49
M05
G1 X0.03Y0.03
M03 P30 S76.5
G1 X-4.49
M05
G1 X0.03Y0.03
M03 P30 S76.5
G1 X4.49
M05
G1 X0.03Y0.03
M03 P30 S76.5
G1 X-4.49
M05
G1 X0.03Y0.03
M03 P30 S76.5
G1 X4.49
M05
G1 X0.03Y0.03
M03 P30 S76.5
G1 X-4.49
M05
G1 X0.03Y0.03
M03 P30 S76.5
G1 X4.49
M05
G1 X0.03Y0.03
M03 P30 S76.5
G1 X-4.49
M05
G1 X0.03Y0.03
M03 P30 S76.5
G1 X4.49
M05
G1 X0.03Y0.03
M03 P30 S76.5
G1 X-4.49
M05
G1 X0.03Y0.03
M03 P30 S76.5
G1 X4.49
M05
G1 X0.03Y0.03
M03 P30 S76.5
G1 X-4.49
M05
G1 X0.03Y0.03
M03 P30 S76.5
G1 X4.49
M05
G1 X0.03Y0.03
M03 P30 S76.5
G1 X-4.49
M05
G1 X0.03Y0.03
M03 P30 S76.5
G1 X4.49
M05
G1 X0.03Y0.03
M03 P30 S76.5
G1 X-4.49
M05
G1 X0.03Y0.03
M03 P30 S76.5
G1 X4.49
M05
G1 X0.03Y0.03
M03 P30 S76.5
G1 X-4.49
M05
G1 X0.03Y0.03
M03 P30 S76.5
G1 X4.49
M05
G1 X0.03Y0.03
M03 P30 S76.5
G1 X-4.49
M05
G1 X0.03Y0.03
M03 P30 S76.5
G1 X4.49
M05
G1 X0.03Y0.03
M03 P30 S76.5
G1 X-4.49
M05
G1 X0.03Y0.03
M03 P30 S76.5
G1 X4.49
M05
G1 X0.03Y0.03
M03 P30 S76.5
G1 X-4.49
M05
G1 X0.03Y0.03
M03 P30 S76.5
G1 X4.49
M05
G1 X0.03Y0.03
M03 P30 S76.5
G1 X-4.49
M05
G1 X0.03Y0.03
M03 P30 S76.5
G1 X4.49
M05
G1 X0.03Y0.03
M03 P30 S76.5
G1 X-4.49
M05
G1 X0.03Y0.03
M03 P30 S76.5
G1 X4.49
M05
G1 X0.03Y0.03
M03 P30 S76.5
G1 X-4.49
M05
G1 X0.03Y0.03
M03 P30 S76.5
G1 X4.49
M05
G1 X0.03Y0.03
M03 P30 S76.5
G1 X-4.49
M05
G1 X0.03Y0.03
M03 P30 S76.5
G1 X4.49
M05
G1 X0.03Y0.03
M03 P30 S76.5
G1 X-4.49
M05
G1 X0.03Y0.03
M03 P30 S76.5
G1 X4.49
M05
G1 X0.03Y0.03
M03 P30 S76.5
G1 X-4.49
M05
G1 X0.03Y0.03
M03 P30 S76.5
G1 X4.49
M05
G1 X0.03Y0.03
M03 P30 S76.5
G1 X-4.49
M05
G1 X0.03Y0.03
M03 P30 S76.5
G1 X4.49
M05
G1 X0.03Y0.03
M03 P30 S76.5
G1 X-4.49
M05
G1 X0.03Y0.03
M03 P30 S76.5
G1 X4.49
M05
G1 X0.03Y0.03
M03 P30 S76.5
G1 X-4.49
M05
G1 X0.03Y0.03
M03 P30 S76.5
G1 X4.49
M05
G1 X0.03Y0.03
M03 P30 S76.5
G1 X-4.49
M05
G1 X0.03Y0.03
M03 P30 S76.5
G1 X4.49
M05
G1 X0.03Y0.03
M03 P30 S76.5
G1 X-4.49
M05
G1 X0.03Y0.03
M03 P30 S76.5
G1 X4.49
M05
G1 X0.03Y0.03
M03 P30 S76.5
G1 X-4.49
M05
G1 X0.03Y0.03
M03 P30 S76.5
G1 X4.49
M05
G1 X0.03Y0.03
M03 P30 S76.5
G1 X-4.49
M05
G1 X0.03Y0.03
M03 P30 S76.5
G1 X4.49
M05
G1 X0.03Y0.03
M03 P30 S76.5
G1 X-4.49
M05
G1 X0.03Y0.03
M03 P30 S76.5
G1 X4.49
M05
G1 X0.03Y0.03
M03 P30 S76.5
G1 X-4.49
M05
G1 X0.03Y0.03
M03 P30 S76.5
G1 X4.49
M05
G1 X0.03Y0.03
M03 P30 S76.5
G1 X-4.49
M05
G1 X0.03Y0.03
M03 P30 S76.5
G1 X4.49
M05
G1 X0.03Y0.03
M03 P30 S76.5
G1 X-4.49
M05
G1 X0.03Y0.03
M03 P30 S76.5
G1 X4.49
M05
G1 X0.03Y0.03
M03 P30 S76.5
G1 X-4.49
M05
G1 X0.03Y0.03
M03 P30 S76.5
G1 X4.49
M05
G1 X0.03Y0.03
M03 P30 S76.5
G1 X-4.49
M05
G1 X0.03Y0.03
M03 P30 S76.5
G1 X4.49
M05
G1 X0.03Y0.03
M03 P30 S76.5
G1 X-4.49
M05
G1 X0.03Y0.03
M03 P30 S76.5
G1 X4.49
M05
G1 X0.03Y0.03
M03 P30 S76.5
G1 X-4.49
M05
G1 X0.03Y0.03
M03 P30 S76.5
G1 X4.49
M05
G1 X0.03Y0.03
M03 P30 S76.5
G1 X-4.49
M05
G1 X0.03Y0.03
M03 P30 S76.5
G1 X4.49
M05
G1 X0.03Y0.03
M03 P30 S76.5
G1 X-4.49
M05
G1 X0.03Y0.03
M03 P30 S76.5
G1 X4.49
M05
G1 X0.03Y0.03
M03 P30 S76.5
G1 X-4.49
M05
G1 X0.03Y0.03
M03 P30 S76.5
G1 X4.49
M05
G1 X0.03Y0.03
M03 P30 S76.5
G1 X-4.49
M05
G1 X0.03Y0.03
M03 P30 S76.5
G1 X4.49
M05
G1 X0.03Y0.03
M03 P30 S76.5
G1 X-4.49
M05
G1 X0.03Y0.03
M03 P30 S76.5
G1 X4.49
M05
G1 X0.03Y0.03
M03 P30 S76.5
G1 X-4.49
M05
G1 X0.03Y0.03
M03 P30 S76.5
G1 X4.49
M05
G1 X0.03Y0.03
M03 P30 S76.5
G1 X-4.49
M05
G1 X0.03Y0.03
M03 P30 S76.5
G1 X4.49
M05
G1 X0.03Y0.03
M03 P30 S76.5
G1 X-4.49
M05
G1 X0.03Y0.03
M03 P30 S76.5
G1 X4.49
M05
G1 X0.03Y0.03
M03 P30 S76.5
G1 X-4.49
M05
G1 X0.03Y0.03
M03 P30 S76.5
G1 X4.49
M05
G1 X0.03Y0.03
M03 P30 S76.5
G1 X-4.49
M05
G1 X0.03Y0.03
M03 P30 S76.5
G1 X4.49
M05
G1 X0.03Y0.03
M03 P30 S76.5
G1 X-4.49
M05
G1 X0.03Y0.03
M03 P30 S76.5
G1 X4.49
M05
G1 X0.03Y0.03
M03 P30 S76.5
G1 X-4.49
M05
G1 X0.03Y0.03
M03 P30 S76.5
G1 X4.49
M05
G1 X0.03Y0.03
M03 P30 S76.5
G1 X-4.49
M05
G1 X0.03Y0.03
M03 P30 S76.5
G1 X4.49
M05
G1 X0.03Y0.03
M03 P30 S76.5
G1 X-4.49
M05
G1 X0.03Y0.03
M03 P30 S76.5
G1 X4.49
M05
G1 X0.03Y0.03
M03 P30 S76.5
G1 X-4.49
M05
G1 X0.03Y0.03
M03 P30 S76.5
G1 X4.49
M05
G1 X0.03Y0.03
M03 P30 S76.5
G1 X-4.49
M05
G1 X0.03Y0.03
M03 P30 S76.5
G1 X4.49
M05
G1 X0.03Y0.03
M03 P30 S76.5
G1 X-4.49
M05
G1 X4.465Y-0.025
M03 P30 S76.5
G1 Y0.036
M05
G1 X-0.03
M03 P30 S76.5
G1 Y-0.066
M05
G1 X-0.03Y-0.03
M03 P30 S76.5
G1 Y0.096
M05
G1 X-0.03
M03 P30 S76.5
G1 Y-0.126
M05
G1 X-0.03Y-0.03
M03 P30 S76.5
G1 Y0.156
M05
G1 X-0.03
M03 P30 S76.5
G1 Y-0.186
M05
G1 X-0.03Y-0.03
M03 P30 S76.5
G1 Y0.216
M05
G1 X-0.03
M03 P30 S76.5
G1 Y-0.246
M05
G1 X-0.03Y-0.03
M03 P30 S76.5
G1 Y0.276
M05
G1 X-0.03
M03 P30 S76.5
G1 Y-0.306
M05
G1 X-0.03Y-0.03
M03 P30 S76.5
G1 Y0.336
M05
G1 X-0.03
M03 P30 S76.5
G1 Y-0.366
M05
G1 X-0.03Y-0.03
M03 P30 S76.5
G1 Y0.396
M05
G1 X-0.03
M03 P30 S76.5
G1 Y-0.426
M05
G1 X-0.03Y-0.03
M03 P30 S76.5
G1 Y0.456
M05
G1 X-0.03
M03 P30 S76.5
G1 Y-0.486
M05
G1 X-0.03Y-0.03
M03 P30 S76.5
G1 Y0.516
M05
G1 X-0.03
M03 P30 S76.5
G1 Y-0.546
M05
G1 X-0.03Y-0.03
M03 P30 S76.5
G1 Y0.576
M05
G1 X-0.03
M03 P30 S76.5
G1 Y-0.606
M05
G1 X-0.03Y-0.03
M03 P30 S76.5
G1 Y0.636
M05
G1 X-0.03
M03 P30 S76.5
G1 Y-0.666
M05
G1 X-0.03Y-0.03
M03 P30 S76.5
G1 Y0.696
M05
G1 X-0.03
M03 P30 S76.5
G1 Y-0.726
M05
G1 X-0.03Y-0.03
M03 P30 S76.5
G1 Y0.756
M05
G1 X-0.03
M03 P30 S76.5
G1 Y-0.786
M05
G1 X-0.03Y-0.03
M03 P30 S76.5
G1 Y0.816
M05
G1 X-0.03
M03 P30 S76.5
G1 Y-0.846
M05
G1 X-0.03Y-0.03
M03 P30 S76.5
G1 Y0.876
M05
G1 X-0.03
M03 P30 S76.5
G1 Y-0.906
M05
G1 X-0.03Y-0.03
M03 P30 S76.5
G1 Y0.936
M05
G1 X-0.03
M03 P30 S76.5
G1 Y-0.966
M05
G1 X-0.03Y-0.03
M03 P30 S76.5
G1 Y0.996
M05
G1 X-0.03
M03 P30 S76.5
G1 Y-1.026
M05
G1 X-0.03Y-0.03
M03 P30 S76.5
G1 Y1.056
M05
G1 X-0.03
M03 P30 S76.5
G1 Y-1.086
M05
G1 X-0.03Y-0.03
M03 P30 S76.5
G1 Y1.116
M05
G1 X-0.03
M03 P30 S76.5
G1 Y-1.146
M05
G1 X-0.03Y-0.03
M03 P30 S76.5
G1 Y1.176
M05
G1 X-0.03
M03 P30 S76.5
G1 Y-1.206
M05
G1 X-0.03Y-0.03
M03 P30 S76.5
G1 Y1.236
M05
G1 X-0.03
M03 P30 S76.5
G1 Y-1.266
M05
G1 X-0.03Y-0.03
M03 P30 S76.5
G1 Y1.296
M05
G1 X-0.03
M03 P30 S76.5
G1 Y-1.326
M05
G1 X-0.03Y-0.03
M03 P30 S76.5
G1 Y1.356
M05
G1 X-0.03
M03 P30 S76.5
G1 Y-1.386
M05
G1 X-0.03Y-0.03
M03 P30 S76.5
G1 Y1.416
M05
G1 X-0.03
M03 P30 S76.5
G1 Y-1.446
M05
G1 X-0.03Y-0.03
M03 P30 S76.5
G1 Y1.476
M05
G1 X-0.03
M03 P30 S76.5
G1 Y-1.506
M05
G1 X-0.03Y-0.03
M03 P30 S76.5
G1 Y1.536
M05
G1 X-0.03
M03 P30 S76.5
G1 Y-1.566
M05
G1 X-0.03Y-0.03
M03 P30 S76.5
G1 Y1.596
M05
G1 X-0.03
M03 P30 S76.5
G1 Y-1.626
M05
G1 X-0.03Y-0.03
M03 P30 S76.5
G1 Y1.656
M05
G1 X-0.03
M03 P30 S76.5
G1 Y-1.686
M05
G1 X-0.03Y-0.03
M03 P30 S76.5
G1 Y1.716
M05
G1 X-0.03
M03 P30 S76.5
G1 Y-1.746
M05
G1 X-0.03Y-0.03
M03 P30 S76.5
G1 Y1.776
M05
G1 X-0.03
M03 P30 S76.5
G1 Y-1.806
M05
G1 X-0.03Y-0.03
M03 P30 S76.5
G1 Y1.836
M05
G1 X-0.03
M03 P30 S76.5
G1 Y-1.866
M05
G1 X-0.03Y-0.03
M03 P30 S76.5
G1 Y1.896
M05
G1 X-0.03
M03 P30 S76.5
G1 Y-1.926
M05
G1 X-0.03Y-0.03
M03 P30 S76.5
G1 Y1.956
M05
G1 X-0.03
M03 P30 S76.5
G1 Y-1.986
M05
G1 X-0.03Y-0.03
M03 P30 S76.5
G1 Y2.016
M05
G1 X-0.03
M03 P30 S76.5
G1 Y-2.046
M05
G1 X-0.03Y-0.03
M03 P30 S76.5
G1 Y2.076
M05
G1 X-0.03
M03 P30 S76.5
G1 Y-2.106
M05
G1 X-0.03Y-0.03
M03 P30 S76.5
G1 Y2.136
M05
G1 X-0.03
M03 P30 S76.5
G1 Y-2.166
M05
G1 X-0.03Y-0.03
M03 P30 S76.5
G1 Y2.196
M05
G1 X-0.03
M03 P30 S76.5
G1 Y-2.226
M05
G1 X-0.03Y-0.03
M03 P30 S76.5
G1 Y2.256
M05
G1 X-0.03
M03 P30 S76.5
G1 Y-2.286
M05
G1 X-0.03Y-0.03
M03 P30 S76.5
G1 Y2.316
M05
G1 X-0.03
M03 P30 S76.5
G1 Y-2.346
M05
G1 X-0.03Y-0.03
M03 P30 S76.5
G1 Y2.376
M05
G1 X-0.03
M03 P30 S76.5
G1 Y-2.406
M05
G1 X-0.03Y-0.03
M03 P30 S76.5
G1 Y2.436
M05
G1 X-0.03
M03 P30 S76.5
G1 Y-2.466
M05
G1 X-0.03Y-0.03
M03 P30 S76.5
G1 Y2.496
M05
G1 X-0.03
M03 P30 S76.5
G1 Y-2.526
M05
G1 X-0.03Y-0.03
M03 P30 S76.5
G1 Y2.556
M05
G1 X-0.03
M03 P30 S76.5
G1 Y-2.586
M05
G1 X-0.03Y-0.03
M03 P30 S76.5
G1 Y2.616
M05
G1 X-0.03
M03 P30 S76.5
G1 Y-2.646
M05
G1 X-0.03Y-0.03
M03 P30 S76.5
G1 Y2.676
M05
G1 X-0.03
M03 P30 S76.5
G1 Y-2.706
M05
G1 X-0.03Y-0.03
M03 P30 S76.5
G1 Y2.736
M05
G1 X-0.03
M03 P30 S76.5
G1 Y-2.766
M05
G1 X-0.03Y-0.03
M03 P30 S76.5
G1 Y2.796
M05
G1 X-0.03
M03 P30 S76.5
G1 Y-2.826
M05
G1 X-0.03Y-0.03
M03 P30 S76.5
G1 Y2.856
M05
G1 X-0.03
M03 P30 S76.5
G1 Y-2.886
M05
G1 X-0.03Y-0.03
M03 P30 S76.5
G1 Y2.916
M05
G1 X-0.03
M03 P30 S76.5
G1 Y-2.946
M05
G1 X-0.03Y-0.03
M03 P30 S76.5
G1 Y2.976
M05
G1 X-0.03
M03 P30 S76.5
G1 Y-3.006
M05
G1 X-0.03Y-0.03
M03 P30 S76.5
G1 Y3.036
M05
G1 X-0.03
M03 P30 S76.5
G1 Y-3.066
M05
G1 X-0.03Y-0.03
M03 P30 S76.5
G1 Y3.096
M05
G1 X-0.03
M03 P30 S76.5
G1 Y-3.126
M05
G1 X-0.03Y-0.03
M03 P30 S76.5
G1 Y3.156
M05
G1 X-0.03
M03 P30 S76.5
G1 Y-3.186
M05
G1 X-0.03Y-0.03
M03 P30 S76.5
G1 Y3.216
M05
G1 X-0.03
M03 P30 S76.5
G1 Y-3.246
M05
G1 X-0.03Y-0.03
M03 P30 S76.5
G1 Y3.276
M05
G1 X-0.03
M03 P30 S76.5
G1 Y-3.306
M05
G1 X-0.03Y-0.03
M03 P30 S76.5
G1 Y3.336
M05
G1 X-0.03
M03 P30 S76.5
G1 Y-3.366
M05
G1 X-0.03Y-0.03
M03 P30 S76.5
G1 Y3.396
M05
G1 X-0.03
M03 P30 S76.5
G1 Y-3.426
M05
G1 X-0.03Y-0.03
M03 P30 S76.5
G1 Y3.456
M05
G1 X-0.03
M03 P30 S76.5
G1 Y-3.486
M05
G1 X-0.03Y-0.03
M03 P30 S76.5
G1 Y3.516
M05
G1 X-0.03
M03 P30 S76.5
G1 Y-3.546
M05
G1 X-0.03Y-0.03
M03 P30 S76.5
G1 Y3.576
M05
G1 X-0.03
M03 P30 S76.5
G1 Y-3.606
M05
G1 X-0.03Y-0.03
M03 P30 S76.5
G1 Y3.636
M05
G1 X-0.03
M03 P30 S76.5
G1 Y-3.666
M05
G1 X-0.03Y-0.03
M03 P30 S76.5
G1 Y3.696
M05
G1 X-0.03
M03 P30 S76.5
G1 Y-3.726
M05
G1 X-0.03Y-0.03
M03 P30 S76.5
G1 Y3.756
M05
G1 X-0.03
M03 P30 S76.5
G1 Y-3.786
M05
G1 X-0.03Y-0.03
M03 P30 S76.5
G1 Y3.816
M05
G1 X-0.03
M03 P30 S76.5
G1 Y-3.846
M05
G1 X-0.03Y-0.03
M03 P30 S76.5
G1 Y3.876
M05
G1 X-0.03
M03 P30 S76.5
G1 Y-3.906
M05
G1 X-0.03Y-0.03
M03 P30 S76.5
G1 Y3.936
M05
G1 X-0.03
M03 P30 S76.5
G1 Y-3.966
M05
G1 X-0.03Y-0.03
M03 P30 S76.5
G1 Y3.996
M05
G1 X-0.03
M03 P30 S76.5
G1 Y-4.026
M05
G1 X-0.03Y-0.03
M03 P30 S76.5
G1 Y4.056
M05
G1 X-0.03
M03 P30 S76.5
G1 Y-4.086
M05
G1 X-0.03Y-0.03
M03 P30 S76.5
G1 Y4.116
M05
G1 X-0.03
M03 P30 S76.5
G1 Y-4.146
M05
G1 X-0.03Y-0.03
M03 P30 S76.5
G1 Y4.176
M05
G1 X-0.03
M03 P30 S76.5
G1 Y-4.206
M05
G1 X-0.03Y-0.03
M03 P30 S76.5
G1 Y4.236
M05
G1 X-0.03
M03 P30 S76.5
G1 Y-4.266
M05
G1 X-0.03Y-0.03
M03 P30 S76.5
G1 Y4.296
M05
G1 X-0.03
M03 P30 S76.5
G1 Y-4.326
M05
G1 X-0.03Y-0.03
M03 P30 S76.5
G1 Y4.356
M05
G1 X-0.03
M03 P30 S76.5
G1 Y-4.386
M05
G1 X-0.03Y-0.03
M03 P30 S76.5
G1 Y4.416
M05
G1 X-0.03
M03 P30 S76.5
G1 Y-4.446
M05
G1 X-0.03Y-0.03
M03 P30 S76.5
G1 Y4.476
M05
G1 X-0.03Y-0.016
M03 P30 S76.5
G1 Y-4.49
M05
G1 X-0.03Y-0.03
M03 P30 S76.5
G1 Y4.49
M05
G1 X-0.03Y-0.03
M03 P30 S76.5
G1 Y-4.49
M05
G1 X-0.03Y-0.03
M03 P30 S76.5
G1 Y4.49
M05
G1 X-0.03Y-0.03
M03 P30 S76.5
G1 Y-4.49
M05
G1 X-0.03Y-0.03
M03 P30 S76.5
G1 Y4.49
M05
G1 X-0.03Y-0.03
M03 P30 S76.5
G1 Y-4.49
M05
G1 X-0.03Y-0.03
M03 P30 S76.5
G1 Y4.49
M05
G1 X-0.03Y-0.03
M03 P30 S76.5
G1 Y-4.49
M05
G1 X-0.03Y-0.03
M03 P30 S76.5
G1 Y4.49
M05
G1 X-0.03Y-0.03
M03 P30 S76.5
G1 Y-4.49
M05
G1 X-0.03Y-0.03
M03 P30 S76.5
G1 Y4.49
M05
G1 X-0.03Y-0.03
M03 P30 S76.5
G1 Y-4.49
M05
G1 X-0.03Y-0.03
M03 P30 S76.5
G1 Y4.49
M05
G1 X-0.03Y-0.03
M03 P30 S76.5
G1 Y-4.49
M05
G1 X-0.03Y-0.03
M03 P30 S76.5
G1 Y4.49
M05
G1 X-0.03Y-0.03
M03 P30 S76.5
G1 Y-4.49
M05
G1 X-0.03Y-0.03
M03 P30 S76.5
G1 Y4.49
M05
G1 X-0.03Y-0.03
M03 P30 S76.5
G1 Y-4.49
M05
G1 X-0.03Y-0.03
M03 P30 S76.5
G1 Y4.49
M05
G1 X-0.03Y-0.03
M03 P30 S76.5
G1 Y-4.49
M05
G1 X-0.03Y-0.03
M03 P30 S76.5
G1 Y4.49
M05
G1 X-0.03Y-0.03
M03 P30 S76.5
G1 Y-4.49
M05
G1 X-0.03Y-0.03
M03 P30 S76.5
G1 Y4.49
M05
G1 X-0.03Y-0.03
M03 P30 S76.5
G1 Y-4.49
M05
G1 X-0.03Y-0.03
M03 P30 S76.5
G1 Y4.49
M05
G1 X-0.03Y-0.03
M03 P30 S76.5
G1 Y-4.49
M05
G1 X-0.03Y-0.03
M03 P30 S76.5
G1 Y4.49
M05
G1 X-0.03Y-0.03
M03 P30 S76.5
G1 Y-4.49
M05
G1 X-0.03Y-0.03
M03 P30 S76.5
G1 Y4.49
M05
G1 X-0.03Y-0.03
M03 P30 S76.5
G1 Y-4.49
M05
G1 X-0.03Y-0.03
M03 P30 S76.5
G1 Y4.49
M05
G1 X-0.03Y-0.03
M03 P30 S76.5
G1 Y-4.49
M05
G1 X-0.03Y-0.03
M03 P30 S76.5
G1 Y4.49
M05
G1 X-0.03Y-0.03
M03 P30 S76.5
G1 Y-4.477
M05
G1 X-0.03
M03 P30 S76.5
G1 Y4.447
M05
G1 X-0.03Y-0.03
M03 P30 S76.5
G1 Y-4.417
M05
G1 X-0.03
M03 P30 S76.5
G1 Y4.387
M05
G1 X-0.03Y-0.03
M03 P30 S76.5
G1 Y-4.357
M05
G1 X-0.03
M03 P30 S76.5
G1 Y4.327
M05
G1 X-0.03Y-0.03
M03 P30 S76.5
G1 Y-4.297
M05
G1 X-0.03
M03 P30 S76.5
G1 Y4.267
M05
G1 X-0.03Y-0.03
M03 P30 S76.5
G1 Y-4.237
M05
G1 X-0.03
M03 P30 S76.5
G1 Y4.207
M05
G1 X-0.03Y-0.03
M03 P30 S76.5
G1 Y-4.177
M05
G1 X-0.03
M03 P30 S76.5
G1 Y4.147
M05
G1 X-0.03Y-0.03
M03 P30 S76.5
G1 Y-4.117
M05
G1 X-0.03
M03 P30 S76.5
G1 Y4.087
M05
G1 X-0.03Y-0.03
M03 P30 S76.5
G1 Y-4.057
M05
G1 X-0.03
M03 P30 S76.5
G1 Y4.027
M05
G1 X-0.03Y-0.03
M03 P30 S76.5
G1 Y-3.997
M05
G1 X-0.03
M03 P30 S76.5
G1 Y3.967
M05
G1 X-0.03Y-0.03
M03 P30 S76.5
G1 Y-3.937
M05
G1 X-0.03
M03 P30 S76.5
G1 Y3.907
M05
G1 X-0.03Y-0.03
M03 P30 S76.5
G1 Y-3.877
M05
G1 X-0.03
M03 P30 S76.5
G1 Y3.847
M05
G1 X-0.03Y-0.03
M03 P30 S76.5
G1 Y-3.817
M05
G1 X-0.03
M03 P30 S76.5
G1 Y3.787
M05
G1 X-0.03Y-0.03
M03 P30 S76.5
G1 Y-3.757
M05
G1 X-0.03
M03 P30 S76.5
G1 Y3.727
M05
G1 X-0.03Y-0.03
M03 P30 S76.5
G1 Y-3.697
M05
G1 X-0.03
M03 P30 S76.5
G1 Y3.667
M05
G1 X-0.03Y-0.03
M03 P30 S76.5
G1 Y-3.637
M05
G1 X-0.03
M03 P30 S76.5
G1 Y3.607
M05
G1 X-0.03Y-0.03
M03 P30 S76.5
G1 Y-3.577
M05
G1 X-0.03
M03 P30 S76.5
G1 Y3.547
M05
G1 X-0.03Y-0.03
M03 P30 S76.5
G1 Y-3.517
M05
G1 X-0.03
M03 P30 S76.5
G1 Y3.487
M05
G1 X-0.03Y-0.03
M03 P30 S76.5
G1 Y-3.457
M05
G1 X-0.03
M03 P30 S76.5
G1 Y3.427
M05
G1 X-0.03Y-0.03
M03 P30 S76.5
G1 Y-3.397
M05
G1 X-0.03
M03 P30 S76.5
G1 Y3.367
M05
G1 X-0.03Y-0.03
M03 P30 S76.5
G1 Y-3.337
M05
G1 X-0.03
M03 P30 S76.5
G1 Y3.307
M05
G1 X-0.03Y-0.03
M03 P30 S76.5
G1 Y-3.277
M05
G1 X-0.03
M03 P30 S76.5
G1 Y3.247
M05
G1 X-0.03Y-0.03
M03 P30 S76.5
G1 Y-3.217
M05
G1 X-0.03
M03 P30 S76.5
G1 Y3.187
M05
G1 X-0.03Y-0.03
M03 P30 S76.5
G1 Y-3.157
M05
G1 X-0.03
M03 P30 S76.5
G1 Y3.127
M05
G1 X-0.03Y-0.03
M03 P30 S76.5
G1 Y-3.097
M05
G1 X-0.03
M03 P30 S76.5
G1 Y3.067
M05
G1 X-0.03Y-0.03
M03 P30 S76.5
G1 Y-3.037
M05
G1 X-0.03
M03 P30 S76.5
G1 Y3.007
M05
G1 X-0.03Y-0.03
M03 P30 S76.5
G1 Y-2.977
M05
G1 X-0.03
M03 P30 S76.5
G1 Y2.947
M05
G1 X-0.03Y-0.03
M03 P30 S76.5
G1 Y-2.917
M05
G1 X-0.03
M03 P30 S76.5
G1 Y2.887
M05
G1 X-0.03Y-0.03
M03 P30 S76.5
G1 Y-2.857
M05
G1 X-0.03
M03 P30 S76.5
G1 Y2.827
M05
G1 X-0.03Y-0.03
M03 P30 S76.5
G1 Y-2.797
M05
G1 X-0.03
M03 P30 S76.5
G1 Y2.767
M05
G1 X-0.03Y-0.03
M03 P30 S76.5
G1 Y-2.737
M05
G1 X-0.03
M03 P30 S76.5
G1 Y2.707
M05
G1 X-0.03Y-0.03
M03 P30 S76.5
G1 Y-2.677
M05
G1 X-0.03
M03 P30 S76.5
G1 Y2.647
M05
G1 X-0.03Y-0.03
M03 P30 S76.5
G1 Y-2.617
M05
G1 X-0.03
M03 P30 S76.5
G1 Y2.587
M05
G1 X-0.03Y-0.03
M03 P30 S76.5
G1 Y-2.557
M05
G1 X-0.03
M03 P30 S76.5
G1 Y2.527
M05
G1 X-0.03Y-0.03
M03 P30 S76.5
G1 Y-2.497
M05
G1 X-0.03
M03 P30 S76.5
G1 Y2.467
M05
G1 X-0.03Y-0.03
M03 P30 S76.5
G1 Y-2.437
M05
G1 X-0.03
M03 P30 S76.5
G1 Y2.407
M05
G1 X-0.03Y-0.03
M03 P30 S76.5
G1 Y-2.377
M05
G1 X-0.03
M03 P30 S76.5
G1 Y2.347
M05
G1 X-0.03Y-0.03
M03 P30 S76.5
G1 Y-2.317
M05
G1 X-0.03
M03 P30 S76.5
G1 Y2.287
M05
G1 X-0.03Y-0.03
M03 P30 S76.5
G1 Y-2.257
M05
G1 X-0.03
M03 P30 S76.5
G1 Y2.227
M05
G1 X-0.03Y-0.03
M03 P30 S76.5
G1 Y-2.197
M05
G1 X-0.03
M03 P30 S76.5
G1 Y2.167
M05
G1 X-0.03Y-0.03
M03 P30 S76.5
G1 Y-2.137
M05
G1 X-0.03
M03 P30 S76.5
G1 Y2.107
M05
G1 X-0.03Y-0.03
M03 P30 S76.5
G1 Y-2.077
M05
G1 X-0.03
M03 P30 S76.5
G1 Y2.047
M05
G1 X-0.03Y-0.03
M03 P30 S76.5
G1 Y-2.017
M05
G1 X-0.03
M03 P30 S76.5
G1 Y1.987
M05
G1 X-0.03Y-0.03
M03 P30 S76.5
G1 Y-1.957
M05
G1 X-0.03
M03 P30 S76.5
G1 Y1.927
M05
G1 X-0.03Y-0.03
M03 P30 S76.5
G1 Y-1.897
M05
G1 X-0.03
M03 P30 S76.5
G1 Y1.867
M05
G1 X-0.03Y-0.03
M03 P30 S76.5
G1 Y-1.837
M05
G1 X-0.03
M03 P30 S76.5
G1 Y1.807
M05
G1 X-0.03Y-0.03
M03 P30 S76.5
G1 Y-1.777
M05
G1 X-0.03
M03 P30 S76.5
G1 Y1.747
M05
G1 X-0.03Y-0.03
M03 P30 S76.5
G1 Y-1.717
M05
G1 X-0.03
M03 P30 S76.5
G1 Y1.687
M05
G1 X-0.03Y-0.03
M03 P30 S76.5
G1 Y-1.657
M05
G1 X-0.03
M03 P30 S76.5
G1 Y1.627
M05
G1 X-0.03Y-0.03
M03 P30 S76.5
G1 Y-1.597
M05
G1 X-0.03
M03 P30 S76.5
G1 Y1.567
M05
G1 X-0.03Y-0.03
M03 P30 S76.5
G1 Y-1.537
M05
G1 X-0.03
M03 P30 S76.5
G1 Y1.507
M05
G1 X-0.03Y-0.03
M03 P30 S76.5
G1 Y-1.477
M05
G1 X-0.03
M03 P30 S76.5
G1 Y1.447
M05
G1 X-0.03Y-0.03
M03 P30 S76.5
G1 Y-1.417
M05
G1 X-0.03
M03 P30 S76.5
G1 Y1.387
M05
G1 X-0.03Y-0.03
M03 P30 S76.5
G1 Y-1.357
M05
G1 X-0.03
M03 P30 S76.5
G1 Y1.327
M05
G1 X-0.03Y-0.03
M03 P30 S76.5
G1 Y-1.297
M05
G1 X-0.03
M03 P30 S76.5
G1 Y1.267
M05
G1 X-0.03Y-0.03
M03 P30 S76.5
G1 Y-1.237
M05
G1 X-0.03
M03 P30 S76.5
G1 Y1.207
M05
G1 X-0.03Y-0.03
M03 P30 S76.5
G1 Y-1.177
M05
G1 X-0.03
M03 P30 S76.5
G1 Y1.147
M05
G1 X-0.03Y-0.03
M03 P30 S76.5
G1 Y-1.117
M05
G1 X-0.03
M03 P30 S76.5
G1 Y1.087
M05
G1 X-0.03Y-0.03
M03 P30 S76.5
G1 Y-1.057
M05
G1 X-0.03
M03 P30 S76.5
G1 Y1.027
M05
G1 X-0.03Y-0.03
M03 P30 S76.5
G1 Y-0.997
M05
G1 X-0.03
M03 P30 S76.5
G1 Y0.967
M05
G1 X-0.03Y-0.03
M03 P30 S76.5
G1 Y-0.937
M05
G1 X-0.03
M03 P30 S76.5
G1 Y0.907
M05
G1 X-0.03Y-0.03
M03 P30 S76.5
G1 Y-0.877
M05
G1 X-0.03
M03 P30 S76.5
G1 Y0.847
M05
G1 X-0.03Y-0.03
M03 P30 S76.5
G1 Y-0.817
M05
G1 X-0.03
M03 P30 S76.5
G1 Y0.787
M05
G1 X-0.03Y-0.03
M03 P30 S76.5
G1 Y-0.757
M05
G1 X-0.03
M03 P30 S76.5
G1 Y0.727
M05
G1 X-0.03Y-0.03
M03 P30 S76.5
G1 Y-0.697
M05
G1 X-0.03
M03 P30 S76.5
G1 Y0.667
M05
G1 X-0.03Y-0.03
M03 P30 S76.5
G1 Y-0.637
M05
G1 X-0.03
M03 P30 S76.5
G1 Y0.607
M05
G1 X-0.03Y-0.03
M03 P30 S76.5
G1 Y-0.577
M05
G1 X-0.03
M03 P30 S76.5
G1 Y0.547
M05
G1 X-0.03Y-0.03
M03 P30 S76.5
G1 Y-0.517
M05
G1 X-0.03
M03 P30 S76.5
G1 Y0.487
M05
G1 X-0.03Y-0.03
M03 P30 S76.5
G1 Y-0.457
M05
G1 X-0.03
M03 P30 S76.5
G1 Y0.427
M05
G1 X-0.03Y-0.03
M03 P30 S76.5
G1 Y-0.397
M05
G1 X-0.03
M03 P30 S76.5
G1 Y0.367
M05
G1 X-0.03Y-0.03
M03 P30 S76.5
G1 Y-0.337
M05
G1 X-0.03
M03 P30 S76.5
G1 Y0.307
M05
G1 X-0.03Y-0.03
M03 P30 S76.5
G1 Y-0.277
M05
G1 X-0.03
M03 P30 S76.5
G1 Y0.247
M05
G1 X-0.03Y-0.03
M03 P30 S76.5
G1 Y-0.217
M05
G1 X-0.03
M03 P30 S76.5
G1 Y0.187
M05
G1 X-0.03Y-0.03
M03 P30 S76.5
G1 Y-0.157
M05
G1 X-0.03
M03 P30 S76.5
G1 Y0.127
M05
G1 X-0.03Y-0.03
M03 P30 S76.5
G1 Y-0.097
M05
G1 X-0.03
M03 P30 S76.5
G1 Y0.067
M05
G1 X-0.03Y-0.03
M03 P30 S76.5
G1 Y-0.037
M05
G0 X6.325 Y0.012 F0
M03 P30 S76.5
G1 X4.49 F2300
M05
G1 X0.03Y0.03
M03 P30 S76.5
G1 X-4.49
M05
G1 X0.03Y0.03
M03 P30 S76.5
G1 X4.49
M05
G1 X0.03Y0.03
M03 P30 S76.5
G1 X-4.49
M05
G1 X0.03Y0.03
M03 P30 S76.5
G1 X4.49
M05
G1 X0.03Y0.03
M03 P30 S76.5
G1 X-4.49
M05
G1 X0.03Y0.03
M03 P30 S76.5
G1 X4.49
M05
G1 X0.03Y0.03
M03 P30 S76.5
G1 X-4.49
M05
G1 X0.03Y0.03
M03 P30 S76.5
G1 X4.49
M05
G1 X0.03Y0.03
M03 P30 S76.5
G1 X-4.49
M05
G1 X0.03Y0.03
M03 P30 S76.5
G1 X4.49
M05
G1 X0.03Y0.03
M03 P30 S76.5
G1 X-4.49
M05
G1 X0.03Y0.03
M03 P30 S76.5
G1 X4.49
M05
G1 X0.03Y0.03
M03 P30 S76.5
G1 X-4.49
M05
G1 X0.03Y0.03
M03 P30 S76.5
G1 X4.49
M05
G1 X0.03Y0.03
M03 P30 S76.5
G1 X-4.49
M05
G1 X0.03Y0.03
M03 P30 S76.5
G1 X4.49
M05
G1 X0.03Y0.03
M03 P30 S76.5
G1 X-4.49
M05
G1 X0.03Y0.03
M03 P30 S76.5
G1 X4.49
M05
G1 X0.03Y0.03
M03 P30 S76.5
G1 X-4.49
M05
G1 X0.03Y0.03
M03 P30 S76.5
G1 X4.49
M05
G1 X0.03Y0.03
M03 P30 S76.5
G1 X-4.49
M05
G1 X0.03Y0.03
M03 P30 S76.5
G1 X4.49
M05
G1 X0.03Y0.03
M03 P30 S76.5
G1 X-4.49
M05
G1 X0.03Y0.03
M03 P30 S76.5
G1 X4.49
M05
G1 X0.03Y0.03
M03 P30 S76.5
G1 X-4.49
M05
G1 X0.03Y0.03
M03 P30 S76.5
G1 X4.49
M05
G1 X0.03Y0.03
M03 P30 S76.5
G1 X-4.49
M05
G1 X0.03Y0.03
M03 P30 S76.5
G1 X4.49
M05
G1 X0.03Y0.03
M03 P30 S76.5
G1 X-4.49
M05
G1 X0.03Y0.03
M03 P30 S76.5
G1 X4.49
M05
G1 X0.03Y0.03
M03 P30 S76.5
G1 X-4.49
M05
G1 X0.03Y0.03
M03 P30 S76.5
G1 X4.49
M05
G1 X0.03Y0.03
M03 P30 S76.5
G1 X-4.49
M05
G1 X0.03Y0.03
M03 P30 S76.5
G1 X4.49
M05
G1 X0.03Y0.03
M03 P30 S76.5
G1 X-4.49
M05
G1 X0.03Y0.03
M03 P30 S76.5
G1 X4.49
M05
G1 X0.03Y0.03
M03 P30 S76.5
G1 X-4.49
M05
G1 X0.03Y0.03
M03 P30 S76.5
G1 X4.49
M05
G1 X0.03Y0.03
M03 P30 S76.5
G1 X-4.49
M05
G1 X0.03Y0.03
M03 P30 S76.5
G1 X4.49
M05
G1 X0.03Y0.03
M03 P30 S76.5
G1 X-4.49
M05
G1 X0.03Y0.03
M03 P30 S76.5
G1 X4.49
M05
G1 X0.03Y0.03
M03 P30 S76.5
G1 X-4.49
M05
G1 X0.03Y0.03
M03 P30 S76.5
G1 X4.49
M05
G1 X0.03Y0.03
M03 P30 S76.5
G1 X-4.49
M05
G1 X0.03Y0.03
M03 P30 S76.5
G1 X4.49
M05
G1 X0.03Y0.03
M03 P30 S76.5
G1 X-4.49
M05
G1 X0.03Y0.03
M03 P30 S76.5
G1 X4.49
M05
G1 X0.03Y0.03
M03 P30 S76.5
G1 X-4.49
M05
G1 X0.03Y0.03
M03 P30 S76.5
G1 X4.49
M05
G1 X0.03Y0.03
M03 P30 S76.5
G1 X-4.49
M05
G1 X0.03Y0.03
M03 P30 S76.5
G1 X4.49
M05
G1 X0.03Y0.03
M03 P30 S76.5
G1 X-4.49
M05
G1 X0.03Y0.03
M03 P30 S76.5
G1 X4.49
M05
G1 X0.03Y0.03
M03 P30 S76.5
G1 X-4.49
M05
G1 X0.03Y0.03
M03 P30 S76.5
G1 X4.49
M05
G1 X0.03Y0.03
M03 P30 S76.5
G1 X-4.49
M05
G1 X0.03Y0.03
M03 P30 S76.5
G1 X4.49
M05
G1 X0.03Y0.03
M03 P30 S76.5
G1 X-4.49
M05
G1 X0.03Y0.03
M03 P30 S76.5
G1 X4.49
M05
G1 X0.03Y0.03
M03 P30 S76.5
G1 X-4.49
M05
G1 X0.03Y0.03
M03 P30 S76.5
G1 X4.49
M05
G1 X0.03Y0.03
M03 P30 S76.5
G1 X-4.49
M05
G1 X0.03Y0.03
M03 P30 S76.5
G1 X4.49
M05
G1 X0.03Y0.03
M03 P30 S76.5
G1 X-4.49
M05
G1 X0.03Y0.03
M03 P30 S76.5
G1 X4.49
M05
G1 X0.03Y0.03
M03 P30 S76.5
G1 X-4.49
M05
G1 X0.03Y0.03
M03 P30 S76.5
G1 X4.49
M05
G1 X0.03Y0.03
M03 P30 S76.5
G1 X-4.49
M05
G1 X0.03Y0.03
M03 P30 S76.5
G1 X4.49
M05
G1 X0.03Y0.03
M03 P30 S76.5
G1 X-4.49
M05
G1 X0.03Y0.03
M03 P30 S76.5
G1 X4.49
M05
G1 X0.03Y0.03
M03 P30 S76.5
G1 X-4.49
M05
G1 X0.03Y0.03
M03 P30 S76.5
G1 X4.49
M05
G1 X0.03Y0.03
M03 P30 S76.5
G1 X-4.49
M05
G1 X0.03Y0.03
M03 P30 S76.5
G1 X4.49
M05
G1 X0.03Y0.03
M03 P30 S76.5
G1 X-4.49
M05
G1 X0.03Y0.03
M03 P30 S76.5
G1 X4.49
M05
G1 X0.03Y0.03
M03 P30 S76.5
G1 X-4.49
M05
G1 X0.03Y0.03
M03 P30 S76.5
G1 X4.49
M05
G1 X0.03Y0.03
M03 P30 S76.5
G1 X-4.49
M05
G1 X0.03Y0.03
M03 P30 S76.5
G1 X4.49
M05
G1 X0.03Y0.03
M03 P30 S76.5
G1 X-4.49
M05
G1 X0.03Y0.03
M03 P30 S76.5
G1 X4.49
M05
G1 X0.03Y0.03
M03 P30 S76.5
G1 X-4.49
M05
G1 X0.03Y0.03
M03 P30 S76.5
G1 X4.49
M05
G1 X0.03Y0.03
M03 P30 S76.5
G1 X-4.49
M05
G1 X0.03Y0.03
M03 P30 S76.5
G1 X4.49
M05
G1 X0.03Y0.03
M03 P30 S76.5
G1 X-4.49
M05
G1 X0.03Y0.03
M03 P30 S76.5
G1 X4.49
M05
G1 X0.03Y0.03
M03 P30 S76.5
G1 X-4.49
M05
G1 X0.03Y0.03
M03 P30 S76.5
G1 X4.49
M05
G1 X0.03Y0.03
M03 P30 S76.5
G1 X-4.49
M05
G1 X0.03Y0.03
M03 P30 S76.5
G1 X4.49
M05
G1 X0.03Y0.03
M03 P30 S76.5
G1 X-4.49
M05
G1 X0.03Y0.03
M03 P30 S76.5
G1 X4.49
M05
G1 X0.03Y0.03
M03 P30 S76.5
G1 X-4.49
M05
G1 X0.03Y0.03
M03 P30 S76.5
G1 X4.49
M05
G1 X0.03Y0.03
M03 P30 S76.5
G1 X-4.49
M05
G1 X0.03Y0.03
M03 P30 S76.5
G1 X4.49
M05
G1 X0.03Y0.03
M03 P30 S76.5
G1 X-4.49
M05
G1 X0.03Y0.03
M03 P30 S76.5
G1 X4.49
M05
G1 X0.03Y0.03
M03 P30 S76.5
G1 X-4.49
M05
G1 X0.03Y0.03
M03 P30 S76.5
G1 X4.49
M05
G1 X0.03Y0.03
M03 P30 S76.5
G1 X-4.49
M05
G1 X0.03Y0.03
M03 P30 S76.5
G1 X4.49
M05
G1 X0.03Y0.03
M03 P30 S76.5
G1 X-4.49
M05
G1 X0.03Y0.03
M03 P30 S76.5
G1 X4.49
M05
G1 X0.03Y0.03
M03 P30 S76.5
G1 X-4.49
M05
G1 X0.03Y0.03
M03 P30 S76.5
G1 X4.49
M05
G1 X0.03Y0.03
M03 P30 S76.5
G1 X-4.49
M05
G1 X0.03Y0.03
M03 P30 S76.5
G1 X4.49
M05
G1 X0.03Y0.03
M03 P30 S76.5
G1 X-4.49
M05
G1 X0.03Y0.03
M03 P30 S76.5
G1 X4.49
M05
G1 X0.03Y0.03
M03 P30 S76.5
G1 X-4.49
M05
G1 X0.03Y0.03
M03 P30 S76.5
G1 X4.49
M05
G1 X0.03Y0.03
M03 P30 S76.5
G1 X-4.49
M05
G1 X0.03Y0.03
M03 P30 S76.5
G1 X4.49
M05
G1 X0.03Y0.03
M03 P30 S76.5
G1 X-4.49
M05
G1 X0.03Y0.03
M03 P30 S76.5
G1 X4.49
M05
G1 X0.03Y0.03
M03 P30 S76.5
G1 X-4.49
M05
G1 X0.03Y0.03
M03 P30 S76.5
G1 X4.49
M05
G1 X0.03Y0.03
M03 P30 S76.5
G1 X-4.49
M05
G1 X0.03Y0.03
M03 P30 S76.5
G1 X4.49
M05
G1 X0.03Y0.03
M03 P30 S76.5
G1 X-4.49
M05
G1 X0.03Y0.03
M03 P30 S76.5
G1 X4.49
M05
G1 X0.03Y0.03
M03 P30 S76.5
G1 X-4.49
M05
G1 X0.03Y0.03
M03 P30 S76.5
G1 X4.49
M05
G1 X0.03Y0.03
M03 P30 S76.5
G1 X-4.49
M05
G1 X0.03Y0.03
M03 P30 S76.5
G1 X4.49
M05
G1 X0.03Y0.03
M03 P30 S76.5
G1 X-4.49
M05
G1 X0.03Y0.03
M03 P30 S76.5
G1 X4.49
M05
G1 X0.03Y0.03
M03 P30 S76.5
G1 X-4.49
M05
G1 X0.03Y0.03
M03 P30 S76.5
G1 X4.49
M05
G1 X0.03Y0.03
M03 P30 S76.5
G1 X-4.49
M05
G1 X0.03Y0.03
M03 P30 S76.5
G1 X4.49
M05
G1 X0.03Y0.03
M03 P30 S76.5
G1 X-4.49
M05
G1 X0.03Y0.03
M03 P30 S76.5
G1 X4.49
M05
G1 X0.03Y0.03
M03 P30 S76.5
G1 X-4.49
M05
G1 X0.03Y0.03
M03 P30 S76.5
G1 X4.49
M05
G1 X0.03Y0.03
M03 P30 S76.5
G1 X-4.49
M05
G1 X0.03Y0.03
M03 P30 S76.5
G1 X4.49
M05
G1 X0.03Y0.03
M03 P30 S76.5
G1 X-4.49
M05
G1 X0.03Y0.03
M03 P30 S76.5
G1 X4.49
M05
G1 X0.03Y0.03
M03 P30 S76.5
G1 X-4.49
M05
G1 X0.03Y0.03
M03 P30 S76.5
G1 X4.49
M05
G1 X0.03Y0.03
M03 P30 S76.5
G1 X-4.49
M05
G1 X0.03Y0.03
M03 P30 S76.5
G1 X4.49
M05
G1 X0.03Y0.03
M03 P30 S76.5
G1 X-4.49
M05
G1 X0.03Y0.03
M03 P30 S76.5
G1 X4.49
M05
G1 X0.03Y0.03
M03 P30 S76.5
G1 X-4.49
M05
G1 X0.03Y0.03
M03 P30 S76.5
G1 X4.49
M05
G1 X0.03Y0.03
M03 P30 S76.5
G1 X-4.49
M05
G1 X0.03Y0.03
M03 P30 S76.5
G1 X4.49
M05
G1 X0.03Y0.03
M03 P30 S76.5
G1 X-4.49
M05
G1 X0.03Y0.03
M03 P30 S76.5
G1 X4.49
M05
G1 X0.03Y0.03
M03 P30 S76.5
G1 X-4.49
M05
G1 X0.03Y0.03
M03 P30 S76.5
G1 X4.49
M05
G1 X0.03Y0.03
M03 P30 S76.5
G1 X-4.49
M05
G1 X0.03Y0.03
M03 P30 S76.5
G1 X4.49
M05
G1 X0.03Y0.03
M03 P30 S76.5
G1 X-4.49
M05
G1 X0.03Y0.03
M03 P30 S76.5
G1 X4.49
M05
G1 X0.03Y0.03
M03 P30 S76.5
G1 X-4.49
M05
G1 X0.03Y0.03
M03 P30 S76.5
G1 X4.49
M05
G1 X0.03Y0.03
M03 P30 S76.5
G1 X-4.49
M05
G1 X0.03Y0.03
M03 P30 S76.5
G1 X4.49
M05
G1 X0.03Y0.03
M03 P30 S76.5
G1 X-4.49
M05
G1 X0.03Y0.03
M03 P30 S76.5
G1 X4.49
M05
G1 X0.03Y0.03
M03 P30 S76.5
G1 X-4.49
M05
G1 X0.03Y0.03
M03 P30 S76.5
G1 X4.49
M05
G1 X0.03Y0.03
M03 P30 S76.5
G1 X-4.49
M05
G1 X0.03Y0.03
M03 P30 S76.5
G1 X4.49
M05
G1 X0.03Y0.03
M03 P30 S76.5
G1 X-4.49
M05
G1 X0.03Y0.03
M03 P30 S76.5
G1 X4.49
M05
G1 X0.03Y0.03
M03 P30 S76.5
G1 X-4.49
M05
G1 X0.03Y0.03
M03 P30 S76.5
G1 X4.49
M05
G1 X0.03Y0.03
M03 P30 S76.5
G1 X-4.49
M05
G1 X0.03Y0.03
M03 P30 S76.5
G1 X4.49
M05
G1 X0.03Y0.03
M03 P30 S76.5
G1 X-4.49
M05
G1 X0.03Y0.03
M03 P30 S76.5
G1 X4.49
M05
G1 X0.03Y0.03
M03 P30 S76.5
G1 X-4.49
M05
G1 X0.03Y0.03
M03 P30 S76.5
G1 X4.49
M05
G1 X0.03Y0.03
M03 P30 S76.5
G1 X-4.49
M05
G1 X4.465Y-0.025
M03 P30 S76.5
G1 Y0.036
M05
G1 X-0.03
M03 P30 S76.5
G1 Y-0.066
M05
G1 X-0.03Y-0.03
M03 P30 S76.5
G1 Y0.096
M05
G1 X-0.03
M03 P30 S76.5
G1 Y-0.126
M05
G1 X-0.03Y-0.03
M03 P30 S76.5
G1 Y0.156
M05
G1 X-0.03
M03 P30 S76.5
G1 Y-0.186
M05
G1 X-0.03Y-0.03
M03 P30 S76.5
G1 Y0.216
M05
G1 X-0.03
M03 P30 S76.5
G1 Y-0.246
M05
G1 X-0.03Y-0.03
M03 P30 S76.5
G1 Y0.276
M05
G1 X-0.03
M03 P30 S76.5
G1 Y-0.306
M05
G1 X-0.03Y-0.03
M03 P30 S76.5
G1 Y0.336
M05
G1 X-0.03
M03 P30 S76.5
G1 Y-0.366
M05
G1 X-0.03Y-0.03
M03 P30 S76.5
G1 Y0.396
M05
G1 X-0.03
M03 P30 S76.5
G1 Y-0.426
M05
G1 X-0.03Y-0.03
M03 P30 S76.5
G1 Y0.456
M05
G1 X-0.03
M03 P30 S76.5
G1 Y-0.486
M05
G1 X-0.03Y-0.03
M03 P30 S76.5
G1 Y0.516
M05
G1 X-0.03
M03 P30 S76.5
G1 Y-0.546
M05
G1 X-0.03Y-0.03
M03 P30 S76.5
G1 Y0.576
M05
G1 X-0.03
M03 P30 S76.5
G1 Y-0.606
M05
G1 X-0.03Y-0.03
M03 P30 S76.5
G1 Y0.636
M05
G1 X-0.03
M03 P30 S76.5
G1 Y-0.666
M05
G1 X-0.03Y-0.03
M03 P30 S76.5
G1 Y0.696
M05
G1 X-0.03
M03 P30 S76.5
G1 Y-0.726
M05
G1 X-0.03Y-0.03
M03 P30 S76.5
G1 Y0.756
M05
G1 X-0.03
M03 P30 S76.5
G1 Y-0.786
M05
G1 X-0.03Y-0.03
M03 P30 S76.5
G1 Y0.816
M05
G1 X-0.03
M03 P30 S76.5
G1 Y-0.846
M05
G1 X-0.03Y-0.03
M03 P30 S76.5
G1 Y0.876
M05
G1 X-0.03
M03 P30 S76.5
G1 Y-0.906
M05
G1 X-0.03Y-0.03
M03 P30 S76.5
G1 Y0.936
M05
G1 X-0.03
M03 P30 S76.5
G1 Y-0.966
M05
G1 X-0.03Y-0.03
M03 P30 S76.5
G1 Y0.996
M05
G1 X-0.03
M03 P30 S76.5
G1 Y-1.026
M05
G1 X-0.03Y-0.03
M03 P30 S76.5
G1 Y1.056
M05
G1 X-0.03
M03 P30 S76.5
G1 Y-1.086
M05
G1 X-0.03Y-0.03
M03 P30 S76.5
G1 Y1.116
M05
G1 X-0.03
M03 P30 S76.5
G1 Y-1.146
M05
G1 X-0.03Y-0.03
M03 P30 S76.5
G1 Y1.176
M05
G1 X-0.03
M03 P30 S76.5
G1 Y-1.206
M05
G1 X-0.03Y-0.03
M03 P30 S76.5
G1 Y1.236
M05
G1 X-0.03
M03 P30 S76.5
G1 Y-1.266
M05
G1 X-0.03Y-0.03
M03 P30 S76.5
G1 Y1.296
M05
G1 X-0.03
M03 P30 S76.5
G1 Y-1.326
M05
G1 X-0.03Y-0.03
M03 P30 S76.5
G1 Y1.356
M05
G1 X-0.03
M03 P30 S76.5
G1 Y-1.386
M05
G1 X-0.03Y-0.03
M03 P30 S76.5
G1 Y1.416
M05
G1 X-0.03
M03 P30 S76.5
G1 Y-1.446
M05
G1 X-0.03Y-0.03
M03 P30 S76.5
G1 Y1.476
M05
G1 X-0.03
M03 P30 S76.5
G1 Y-1.506
M05
G1 X-0.03Y-0.03
M03 P30 S76.5
G1 Y1.536
M05
G1 X-0.03
M03 P30 S76.5
G1 Y-1.566
M05
G1 X-0.03Y-0.03
M03 P30 S76.5
G1 Y1.596
M05
G1 X-0.03
M03 P30 S76.5
G1 Y-1.626
M05
G1 X-0.03Y-0.03
M03 P30 S76.5
G1 Y1.656
M05
G1 X-0.03
M03 P30 S76.5
G1 Y-1.686
M05
G1 X-0.03Y-0.03
M03 P30 S76.5
G1 Y1.716
M05
G1 X-0.03
M03 P30 S76.5
G1 Y-1.746
M05
G1 X-0.03Y-0.03
M03 P30 S76.5
G1 Y1.776
M05
G1 X-0.03
M03 P30 S76.5
G1 Y-1.806
M05
G1 X-0.03Y-0.03
M03 P30 S76.5
G1 Y1.836
M05
G1 X-0.03
M03 P30 S76.5
G1 Y-1.866
M05
G1 X-0.03Y-0.03
M03 P30 S76.5
G1 Y1.896
M05
G1 X-0.03
M03 P30 S76.5
G1 Y-1.926
M05
G1 X-0.03Y-0.03
M03 P30 S76.5
G1 Y1.956
M05
G1 X-0.03
M03 P30 S76.5
G1 Y-1.986
M05
G1 X-0.03Y-0.03
M03 P30 S76.5
G1 Y2.016
M05
G1 X-0.03
M03 P30 S76.5
G1 Y-2.046
M05
G1 X-0.03Y-0.03
M03 P30 S76.5
G1 Y2.076
M05
G1 X-0.03
M03 P30 S76.5
G1 Y-2.106
M05
G1 X-0.03Y-0.03
M03 P30 S76.5
G1 Y2.136
M05
G1 X-0.03
M03 P30 S76.5
G1 Y-2.166
M05
G1 X-0.03Y-0.03
M03 P30 S76.5
G1 Y2.196
M05
G1 X-0.03
M03 P30 S76.5
G1 Y-2.226
M05
G1 X-0.03Y-0.03
M03 P30 S76.5
G1 Y2.256
M05
G1 X-0.03
M03 P30 S76.5
G1 Y-2.286
M05
G1 X-0.03Y-0.03
M03 P30 S76.5
G1 Y2.316
M05
G1 X-0.03
M03 P30 S76.5
G1 Y-2.346
M05
G1 X-0.03Y-0.03
M03 P30 S76.5
G1 Y2.376
M05
G1 X-0.03
M03 P30 S76.5
G1 Y-2.406
M05
G1 X-0.03Y-0.03
M03 P30 S76.5
G1 Y2.436
M05
G1 X-0.03
M03 P30 S76.5
G1 Y-2.466
M05
G1 X-0.03Y-0.03
M03 P30 S76.5
G1 Y2.496
M05
G1 X-0.03
M03 P30 S76.5
G1 Y-2.526
M05
G1 X-0.03Y-0.03
M03 P30 S76.5
G1 Y2.556
M05
G1 X-0.03
M03 P30 S76.5
G1 Y-2.586
M05
G1 X-0.03Y-0.03
M03 P30 S76.5
G1 Y2.616
M05
G1 X-0.03
M03 P30 S76.5
G1 Y-2.646
M05
G1 X-0.03Y-0.03
M03 P30 S76.5
G1 Y2.676
M05
G1 X-0.03
M03 P30 S76.5
G1 Y-2.706
M05
G1 X-0.03Y-0.03
M03 P30 S76.5
G1 Y2.736
M05
G1 X-0.03
M03 P30 S76.5
G1 Y-2.766
M05
G1 X-0.03Y-0.03
M03 P30 S76.5
G1 Y2.796
M05
G1 X-0.03
M03 P30 S76.5
G1 Y-2.826
M05
G1 X-0.03Y-0.03
M03 P30 S76.5
G1 Y2.856
M05
G1 X-0.03
M03 P30 S76.5
G1 Y-2.886
M05
G1 X-0.03Y-0.03
M03 P30 S76.5
G1 Y2.916
M05
G1 X-0.03
M03 P30 S76.5
G1 Y-2.946
M05
G1 X-0.03Y-0.03
M03 P30 S76.5
G1 Y2.976
M05
G1 X-0.03
M03 P30 S76.5
G1 Y-3.006
M05
G1 X-0.03Y-0.03
M03 P30 S76.5
G1 Y3.036
M05
G1 X-0.03
M03 P30 S76.5
G1 Y-3.066
M05
G1 X-0.03Y-0.03
M03 P30 S76.5
G1 Y3.096
M05
G1 X-0.03
M03 P30 S76.5
G1 Y-3.126
M05
G1 X-0.03Y-0.03
M03 P30 S76.5
G1 Y3.156
M05
G1 X-0.03
M03 P30 S76.5
G1 Y-3.186
M05
G1 X-0.03Y-0.03
M03 P30 S76.5
G1 Y3.216
M05
G1 X-0.03
M03 P30 S76.5
G1 Y-3.246
M05
G1 X-0.03Y-0.03
M03 P30 S76.5
G1 Y3.276
M05
G1 X-0.03
M03 P30 S76.5
G1 Y-3.306
M05
G1 X-0.03Y-0.03
M03 P30 S76.5
G1 Y3.336
M05
G1 X-0.03
M03 P30 S76.5
G1 Y-3.366
M05
G1 X-0.03Y-0.03
M03 P30 S76.5
G1 Y3.396
M05
G1 X-0.03
M03 P30 S76.5
G1 Y-3.426
M05
G1 X-0.03Y-0.03
M03 P30 S76.5
G1 Y3.456
M05
G1 X-0.03
M03 P30 S76.5
G1 Y-3.486
M05
G1 X-0.03Y-0.03
M03 P30 S76.5
G1 Y3.516
M05
G1 X-0.03
M03 P30 S76.5
G1 Y-3.546
M05
G1 X-0.03Y-0.03
M03 P30 S76.5
G1 Y3.576
M05
G1 X-0.03
M03 P30 S76.5
G1 Y-3.606
M05
G1 X-0.03Y-0.03
M03 P30 S76.5
G1 Y3.636
M05
G1 X-0.03
M03 P30 S76.5
G1 Y-3.666
M05
G1 X-0.03Y-0.03
M03 P30 S76.5
G1 Y3.696
M05
G1 X-0.03
M03 P30 S76.5
G1 Y-3.726
M05
G1 X-0.03Y-0.03
M03 P30 S76.5
G1 Y3.756
M05
G1 X-0.03
M03 P30 S76.5
G1 Y-3.786
M05
G1 X-0.03Y-0.03
M03 P30 S76.5
G1 Y3.816
M05
G1 X-0.03
M03 P30 S76.5
G1 Y-3.846
M05
G1 X-0.03Y-0.03
M03 P30 S76.5
G1 Y3.876
M05
G1 X-0.03
M03 P30 S76.5
G1 Y-3.906
M05
G1 X-0.03Y-0.03
M03 P30 S76.5
G1 Y3.936
M05
G1 X-0.03
M03 P30 S76.5
G1 Y-3.966
M05
G1 X-0.03Y-0.03
M03 P30 S76.5
G1 Y3.996
M05
G1 X-0.03
M03 P30 S76.5
G1 Y-4.026
M05
G1 X-0.03Y-0.03
M03 P30 S76.5
G1 Y4.056
M05
G1 X-0.03
M03 P30 S76.5
G1 Y-4.086
M05
G1 X-0.03Y-0.03
M03 P30 S76.5
G1 Y4.116
M05
G1 X-0.03
M03 P30 S76.5
G1 Y-4.146
M05
G1 X-0.03Y-0.03
M03 P30 S76.5
G1 Y4.176
M05
G1 X-0.03
M03 P30 S76.5
G1 Y-4.206
M05
G1 X-0.03Y-0.03
M03 P30 S76.5
G1 Y4.236
M05
G1 X-0.03
M03 P30 S76.5
G1 Y-4.266
M05
G1 X-0.03Y-0.03
M03 P30 S76.5
G1 Y4.296
M05
G1 X-0.03
M03 P30 S76.5
G1 Y-4.326
M05
G1 X-0.03Y-0.03
M03 P30 S76.5
G1 Y4.356
M05
G1 X-0.03
M03 P30 S76.5
G1 Y-4.386
M05
G1 X-0.03Y-0.03
M03 P30 S76.5
G1 Y4.416
M05
G1 X-0.03
M03 P30 S76.5
G1 Y-4.446
M05
G1 X-0.03Y-0.03
M03 P30 S76.5
G1 Y4.476
M05
G1 X-0.03Y-0.016
M03 P30 S76.5
G1 Y-4.49
M05
G1 X-0.03Y-0.03
M03 P30 S76.5
G1 Y4.49
M05
G1 X-0.03Y-0.03
M03 P30 S76.5
G1 Y-4.49
M05
G1 X-0.03Y-0.03
M03 P30 S76.5
G1 Y4.49
M05
G1 X-0.03Y-0.03
M03 P30 S76.5
G1 Y-4.49
M05
G1 X-0.03Y-0.03
M03 P30 S76.5
G1 Y4.49
M05
G1 X-0.03Y-0.03
M03 P30 S76.5
G1 Y-4.49
M05
G1 X-0.03Y-0.03
M03 P30 S76.5
G1 Y4.49
M05
G1 X-0.03Y-0.03
M03 P30 S76.5
G1 Y-4.49
M05
G1 X-0.03Y-0.03
M03 P30 S76.5
G1 Y4.49
M05
G1 X-0.03Y-0.03
M03 P30 S76.5
G1 Y-4.49
M05
G1 X-0.03Y-0.03
M03 P30 S76.5
G1 Y4.49
M05
G1 X-0.03Y-0.03
M03 P30 S76.5
G1 Y-4.49
M05
G1 X-0.03Y-0.03
M03 P30 S76.5
G1 Y4.49
M05
G1 X-0.03Y-0.03
M03 P30 S76.5
G1 Y-4.49
M05
G1 X-0.03Y-0.03
M03 P30 S76.5
G1 Y4.49
M05
G1 X-0.03Y-0.03
M03 P30 S76.5
G1 Y-4.49
M05
G1 X-0.03Y-0.03
M03 P30 S76.5
G1 Y4.49
M05
G1 X-0.03Y-0.03
M03 P30 S76.5
G1 Y-4.49
M05
G1 X-0.03Y-0.03
M03 P30 S76.5
G1 Y4.49
M05
G1 X-0.03Y-0.03
M03 P30 S76.5
G1 Y-4.49
M05
G1 X-0.03Y-0.03
M03 P30 S76.5
G1 Y4.49
M05
G1 X-0.03Y-0.03
M03 P30 S76.5
G1 Y-4.49
M05
G1 X-0.03Y-0.03
M03 P30 S76.5
G1 Y4.49
M05
G1 X-0.03Y-0.03
M03 P30 S76.5
G1 Y-4.49
M05
G1 X-0.03Y-0.03
M03 P30 S76.5
G1 Y4.49
M05
G1 X-0.03Y-0.03
M03 P30 S76.5
G1 Y-4.49
M05
G1 X-0.03Y-0.03
M03 P30 S76.5
G1 Y4.49
M05
G1 X-0.03Y-0.03
M03 P30 S76.5
G1 Y-4.49
M05
G1 X-0.03Y-0.03
M03 P30 S76.5
G1 Y4.49
M05
G1 X-0.03Y-0.03
M03 P30 S76.5
G1 Y-4.49
M05
G1 X-0.03Y-0.03
M03 P30 S76.5
G1 Y4.49
M05
G1 X-0.03Y-0.03
M03 P30 S76.5
G1 Y-4.49
M05
G1 X-0.03Y-0.03
M03 P30 S76.5
G1 Y4.49
M05
G1 X-0.03Y-0.03
M03 P30 S76.5
G1 Y-4.477
M05
G1 X-0.03
M03 P30 S76.5
G1 Y4.447
M05
G1 X-0.03Y-0.03
M03 P30 S76.5
G1 Y-4.417
M05
G1 X-0.03
M03 P30 S76.5
G1 Y4.387
M05
G1 X-0.03Y-0.03
M03 P30 S76.5
G1 Y-4.357
M05
G1 X-0.03
M03 P30 S76.5
G1 Y4.327
M05
G1 X-0.03Y-0.03
M03 P30 S76.5
G1 Y-4.297
M05
G1 X-0.03
M03 P30 S76.5
G1 Y4.267
M05
G1 X-0.03Y-0.03
M03 P30 S76.5
G1 Y-4.237
M05
G1 X-0.03
M03 P30 S76.5
G1 Y4.207
M05
G1 X-0.03Y-0.03
M03 P30 S76.5
G1 Y-4.177
M05
G1 X-0.03
M03 P30 S76.5
G1 Y4.147
M05
G1 X-0.03Y-0.03
M03 P30 S76.5
G1 Y-4.117
M05
G1 X-0.03
M03 P30 S76.5
G1 Y4.087
M05
G1 X-0.03Y-0.03
M03 P30 S76.5
G1 Y-4.057
M05
G1 X-0.03
M03 P30 S76.5
G1 Y4.027
M05
G1 X-0.03Y-0.03
M03 P30 S76.5
G1 Y-3.997
M05
G1 X-0.03
M03 P30 S76.5
G1 Y3.967
M05
G1 X-0.03Y-0.03
M03 P30 S76.5
G1 Y-3.937
M05
G1 X-0.03
M03 P30 S76.5
G1 Y3.907
M05
G1 X-0.03Y-0.03
M03 P30 S76.5
G1 Y-3.877
M05
G1 X-0.03
M03 P30 S76.5
G1 Y3.847
M05
G1 X-0.03Y-0.03
M03 P30 S76.5
G1 Y-3.817
M05
G1 X-0.03
M03 P30 S76.5
G1 Y3.787
M05
G1 X-0.03Y-0.03
M03 P30 S76.5
G1 Y-3.757
M05
G1 X-0.03
M03 P30 S76.5
G1 Y3.727
M05
G1 X-0.03Y-0.03
M03 P30 S76.5
G1 Y-3.697
M05
G1 X-0.03
M03 P30 S76.5
G1 Y3.667
M05
G1 X-0.03Y-0.03
M03 P30 S76.5
G1 Y-3.637
M05
G1 X-0.03
M03 P30 S76.5
G1 Y3.607
M05
G1 X-0.03Y-0.03
M03 P30 S76.5
G1 Y-3.577
M05
G1 X-0.03
M03 P30 S76.5
G1 Y3.547
M05
G1 X-0.03Y-0.03
M03 P30 S76.5
G1 Y-3.517
M05
G1 X-0.03
M03 P30 S76.5
G1 Y3.487
M05
G1 X-0.03Y-0.03
M03 P30 S76.5
G1 Y-3.457
M05
G1 X-0.03
M03 P30 S76.5
G1 Y3.427
M05
G1 X-0.03Y-0.03
M03 P30 S76.5
G1 Y-3.397
M05
G1 X-0.03
M03 P30 S76.5
G1 Y3.367
M05
G1 X-0.03Y-0.03
M03 P30 S76.5
G1 Y-3.337
M05
G1 X-0.03
M03 P30 S76.5
G1 Y3.307
M05
G1 X-0.03Y-0.03
M03 P30 S76.5
G1 Y-3.277
M05
G1 X-0.03
M03 P30 S76.5
G1 Y3.247
M05
G1 X-0.03Y-0.03
M03 P30 S76.5
G1 Y-3.217
M05
G1 X-0.03
M03 P30 S76.5
G1 Y3.187
M05
G1 X-0.03Y-0.03
M03 P30 S76.5
G1 Y-3.157
M05
G1 X-0.03
M03 P30 S76.5
G1 Y3.127
M05
G1 X-0.03Y-0.03
M03 P30 S76.5
G1 Y-3.097
M05
G1 X-0.03
M03 P30 S76.5
G1 Y3.067
M05
G1 X-0.03Y-0.03
M03 P30 S76.5
G1 Y-3.037
M05
G1 X-0.03
M03 P30 S76.5
G1 Y3.007
M05
G1 X-0.03Y-0.03
M03 P30 S76.5
G1 Y-2.977
M05
G1 X-0.03
M03 P30 S76.5
G1 Y2.947
M05
G1 X-0.03Y-0.03
M03 P30 S76.5
G1 Y-2.917
M05
G1 X-0.03
M03 P30 S76.5
G1 Y2.887
M05
G1 X-0.03Y-0.03
M03 P30 S76.5
G1 Y-2.857
M05
G1 X-0.03
M03 P30 S76.5
G1 Y2.827
M05
G1 X-0.03Y-0.03
M03 P30 S76.5
G1 Y-2.797
M05
G1 X-0.03
M03 P30 S76.5
G1 Y2.767
M05
G1 X-0.03Y-0.03
M03 P30 S76.5
G1 Y-2.737
M05
G1 X-0.03
M03 P30 S76.5
G1 Y2.707
M05
G1 X-0.03Y-0.03
M03 P30 S76.5
G1 Y-2.677
M05
G1 X-0.03
M03 P30 S76.5
G1 Y2.647
M05
G1 X-0.03Y-0.03
M03 P30 S76.5
G1 Y-2.617
M05
G1 X-0.03
M03 P30 S76.5
G1 Y2.587
M05
G1 X-0.03Y-0.03
M03 P30 S76.5
G1 Y-2.557
M05
G1 X-0.03
M03 P30 S76.5
G1 Y2.527
M05
G1 X-0.03Y-0.03
M03 P30 S76.5
G1 Y-2.497
M05
G1 X-0.03
M03 P30 S76.5
G1 Y2.467
M05
G1 X-0.03Y-0.03
M03 P30 S76.5
G1 Y-2.437
M05
G1 X-0.03
M03 P30 S76.5
G1 Y2.407
M05
G1 X-0.03Y-0.03
M03 P30 S76.5
G1 Y-2.377
M05
G1 X-0.03
M03 P30 S76.5
G1 Y2.347
M05
G1 X-0.03Y-0.03
M03 P30 S76.5
G1 Y-2.317
M05
G1 X-0.03
M03 P30 S76.5
G1 Y2.287
M05
G1 X-0.03Y-0.03
M03 P30 S76.5
G1 Y-2.257
M05
G1 X-0.03
M03 P30 S76.5
G1 Y2.227
M05
G1 X-0.03Y-0.03
M03 P30 S76.5
G1 Y-2.197
M05
G1 X-0.03
M03 P30 S76.5
G1 Y2.167
M05
G1 X-0.03Y-0.03
M03 P30 S76.5
G1 Y-2.137
M05
G1 X-0.03
M03 P30 S76.5
G1 Y2.107
M05
G1 X-0.03Y-0.03
M03 P30 S76.5
G1 Y-2.077
M05
G1 X-0.03
M03 P30 S76.5
G1 Y2.047
M05
G1 X-0.03Y-0.03
M03 P30 S76.5
G1 Y-2.017
M05
G1 X-0.03
M03 P30 S76.5
G1 Y1.987
M05
G1 X-0.03Y-0.03
M03 P30 S76.5
G1 Y-1.957
M05
G1 X-0.03
M03 P30 S76.5
G1 Y1.927
M05
G1 X-0.03Y-0.03
M03 P30 S76.5
G1 Y-1.897
M05
G1 X-0.03
M03 P30 S76.5
G1 Y1.867
M05
G1 X-0.03Y-0.03
M03 P30 S76.5
G1 Y-1.837
M05
G1 X-0.03
M03 P30 S76.5
G1 Y1.807
M05
G1 X-0.03Y-0.03
M03 P30 S76.5
G1 Y-1.777
M05
G1 X-0.03
M03 P30 S76.5
G1 Y1.747
M05
G1 X-0.03Y-0.03
M03 P30 S76.5
G1 Y-1.717
M05
G1 X-0.03
M03 P30 S76.5
G1 Y1.687
M05
G1 X-0.03Y-0.03
M03 P30 S76.5
G1 Y-1.657
M05
G1 X-0.03
M03 P30 S76.5
G1 Y1.627
M05
G1 X-0.03Y-0.03
M03 P30 S76.5
G1 Y-1.597
M05
G1 X-0.03
M03 P30 S76.5
G1 Y1.567
M05
G1 X-0.03Y-0.03
M03 P30 S76.5
G1 Y-1.537
M05
G1 X-0.03
M03 P30 S76.5
G1 Y1.507
M05
G1 X-0.03Y-0.03
M03 P30 S76.5
G1 Y-1.477
M05
G1 X-0.03
M03 P30 S76.5
G1 Y1.447
M05
G1 X-0.03Y-0.03
M03 P30 S76.5
G1 Y-1.417
M05
G1 X-0.03
M03 P30 S76.5
G1 Y1.387
M05
G1 X-0.03Y-0.03
M03 P30 S76.5
G1 Y-1.357
M05
G1 X-0.03
M03 P30 S76.5
G1 Y1.327
M05
G1 X-0.03Y-0.03
M03 P30 S76.5
G1 Y-1.297
M05
G1 X-0.03
M03 P30 S76.5
G1 Y1.267
M05
G1 X-0.03Y-0.03
M03 P30 S76.5
G1 Y-1.237
M05
G1 X-0.03
M03 P30 S76.5
G1 Y1.207
M05
G1 X-0.03Y-0.03
M03 P30 S76.5
G1 Y-1.177
M05
G1 X-0.03
M03 P30 S76.5
G1 Y1.147
M05
G1 X-0.03Y-0.03
M03 P30 S76.5
G1 Y-1.117
M05
G1 X-0.03
M03 P30 S76.5
G1 Y1.087
M05
G1 X-0.03Y-0.03
M03 P30 S76.5
G1 Y-1.057
M05
G1 X-0.03
M03 P30 S76.5
G1 Y1.027
M05
G1 X-0.03Y-0.03
M03 P30 S76.5
G1 Y-0.997
M05
G1 X-0.03
M03 P30 S76.5
G1 Y0.967
M05
G1 X-0.03Y-0.03
M03 P30 S76.5
G1 Y-0.937
M05
G1 X-0.03
M03 P30 S76.5
G1 Y0.907
M05
G1 X-0.03Y-0.03
M03 P30 S76.5
G1 Y-0.877
M05
G1 X-0.03
M03 P30 S76.5
G1 Y0.847
M05
G1 X-0.03Y-0.03
M03 P30 S76.5
G1 Y-0.817
M05
G1 X-0.03
M03 P30 S76.5
G1 Y0.787
M05
G1 X-0.03Y-0.03
M03 P30 S76.5
G1 Y-0.757
M05
G1 X-0.03
M03 P30 S76.5
G1 Y0.727
M05
G1 X-0.03Y-0.03
M03 P30 S76.5
G1 Y-0.697
M05
G1 X-0.03
M03 P30 S76.5
G1 Y0.667
M05
G1 X-0.03Y-0.03
M03 P30 S76.5
G1 Y-0.637
M05
G1 X-0.03
M03 P30 S76.5
G1 Y0.607
M05
G1 X-0.03Y-0.03
M03 P30 S76.5
G1 Y-0.577
M05
G1 X-0.03
M03 P30 S76.5
G1 Y0.547
M05
G1 X-0.03Y-0.03
M03 P30 S76.5
G1 Y-0.517
M05
G1 X-0.03
M03 P30 S76.5
G1 Y0.487
M05
G1 X-0.03Y-0.03
M03 P30 S76.5
G1 Y-0.457
M05
G1 X-0.03
M03 P30 S76.5
G1 Y0.427
M05
G1 X-0.03Y-0.03
M03 P30 S76.5
G1 Y-0.397
M05
G1 X-0.03
M03 P30 S76.5
G1 Y0.367
M05
G1 X-0.03Y-0.03
M03 P30 S76.5
G1 Y-0.337
M05
G1 X-0.03
M03 P30 S76.5
G1 Y0.307
M05
G1 X-0.03Y-0.03
M03 P30 S76.5
G1 Y-0.277
M05
G1 X-0.03
M03 P30 S76.5
G1 Y0.247
M05
G1 X-0.03Y-0.03
M03 P30 S76.5
G1 Y-0.217
M05
G1 X-0.03
M03 P30 S76.5
G1 Y0.187
M05
G1 X-0.03Y-0.03
M03 P30 S76.5
G1 Y-0.157
M05
G1 X-0.03
M03 P30 S76.5
G1 Y0.127
M05
G1 X-0.03Y-0.03
M03 P30 S76.5
G1 Y-0.097
M05
G1 X-0.03
M03 P30 S76.5
G1 Y0.067
M05
G1 X-0.03Y-0.03
M03 P30 S76.5
G1 Y-0.037
M05
G0 X6.331 Y0.018 F0
M03 P30 S76.5
G1 X4.49 F2300
M05
G1 X0.03Y0.03
M03 P30 S76.5
G1 X-4.49
M05
G1 X0.03Y0.03
M03 P30 S76.5
G1 X4.49
M05
G1 X0.03Y0.03
M03 P30 S76.5
G1 X-4.49
M05
G1 X0.03Y0.03
M03 P30 S76.5
G1 X4.49
M05
G1 X0.03Y0.03
M03 P30 S76.5
G1 X-4.49
M05
G1 X0.03Y0.03
M03 P30 S76.5
G1 X4.49
M05
G1 X0.03Y0.03
M03 P30 S76.5
G1 X-4.49
M05
G1 X0.03Y0.03
M03 P30 S76.5
G1 X4.49
M05
G1 X0.03Y0.03
M03 P30 S76.5
G1 X-4.49
M05
G1 X0.03Y0.03
M03 P30 S76.5
G1 X4.49
M05
G1 X0.03Y0.03
M03 P30 S76.5
G1 X-4.49
M05
G1 X0.03Y0.03
M03 P30 S76.5
G1 X4.49
M05
G1 X0.03Y0.03
M03 P30 S76.5
G1 X-4.49
M05
G1 X0.03Y0.03
M03 P30 S76.5
G1 X4.49
M05
G1 X0.03Y0.03
M03 P30 S76.5
G1 X-4.49
M05
G1 X0.03Y0.03
M03 P30 S76.5
G1 X4.49
M05
G1 X0.03Y0.03
M03 P30 S76.5
G1 X-4.49
M05
G1 X0.03Y0.03
M03 P30 S76.5
G1 X4.49
M05
G1 X0.03Y0.03
M03 P30 S76.5
G1 X-4.49
M05
G1 X0.03Y0.03
M03 P30 S76.5
G1 X4.49
M05
G1 X0.03Y0.03
M03 P30 S76.5
G1 X-4.49
M05
G1 X0.03Y0.03
M03 P30 S76.5
G1 X4.49
M05
G1 X0.03Y0.03
M03 P30 S76.5
G1 X-4.49
M05
G1 X0.03Y0.03
M03 P30 S76.5
G1 X4.49
M05
G1 X0.03Y0.03
M03 P30 S76.5
G1 X-4.49
M05
G1 X0.03Y0.03
M03 P30 S76.5
G1 X4.49
M05
G1 X0.03Y0.03
M03 P30 S76.5
G1 X-4.49
M05
G1 X0.03Y0.03
M03 P30 S76.5
G1 X4.49
M05
G1 X0.03Y0.03
M03 P30 S76.5
G1 X-4.49
M05
G1 X0.03Y0.03
M03 P30 S76.5
G1 X4.49
M05
G1 X0.03Y0.03
M03 P30 S76.5
G1 X-4.49
M05
G1 X0.03Y0.03
M03 P30 S76.5
G1 X4.49
M05
G1 X0.03Y0.03
M03 P30 S76.5
G1 X-4.49
M05
G1 X0.03Y0.03
M03 P30 S76.5
G1 X4.49
M05
G1 X0.03Y0.03
M03 P30 S76.5
G1 X-4.49
M05
G1 X0.03Y0.03
M03 P30 S76.5
G1 X4.49
M05
G1 X0.03Y0.03
M03 P30 S76.5
G1 X-4.49
M05
G1 X0.03Y0.03
M03 P30 S76.5
G1 X4.49
M05
G1 X0.03Y0.03
M03 P30 S76.5
G1 X-4.49
M05
G1 X0.03Y0.03
M03 P30 S76.5
G1 X4.49
M05
G1 X0.03Y0.03
M03 P30 S76.5
G1 X-4.49
M05
G1 X0.03Y0.03
M03 P30 S76.5
G1 X4.49
M05
G1 X0.03Y0.03
M03 P30 S76.5
G1 X-4.49
M05
G1 X0.03Y0.03
M03 P30 S76.5
G1 X4.49
M05
G1 X0.03Y0.03
M03 P30 S76.5
G1 X-4.49
M05
G1 X0.03Y0.03
M03 P30 S76.5
G1 X4.49
M05
G1 X0.03Y0.03
M03 P30 S76.5
G1 X-4.49
M05
G1 X0.03Y0.03
M03 P30 S76.5
G1 X4.49
M05
G1 X0.03Y0.03
M03 P30 S76.5
G1 X-4.49
M05
G1 X0.03Y0.03
M03 P30 S76.5
G1 X4.49
M05
G1 X0.03Y0.03
M03 P30 S76.5
G1 X-4.49
M05
G1 X0.03Y0.03
M03 P30 S76.5
G1 X4.49
M05
G1 X0.03Y0.03
M03 P30 S76.5
G1 X-4.49
M05
G1 X0.03Y0.03
M03 P30 S76.5
G1 X4.49
M05
G1 X0.03Y0.03
M03 P30 S76.5
G1 X-4.49
M05
G1 X0.03Y0.03
M03 P30 S76.5
G1 X4.49
M05
G1 X0.03Y0.03
M03 P30 S76.5
G1 X-4.49
M05
G1 X0.03Y0.03
M03 P30 S76.5
G1 X4.49
M05
G1 X0.03Y0.03
M03 P30 S76.5
G1 X-4.49
M05
G1 X0.03Y0.03
M03 P30 S76.5
G1 X4.49
M05
G1 X0.03Y0.03
M03 P30 S76.5
G1 X-4.49
M05
G1 X0.03Y0.03
M03 P30 S76.5
G1 X4.49
M05
G1 X0.03Y0.03
M03 P30 S76.5
G1 X-4.49
M05
G1 X0.03Y0.03
M03 P30 S76.5
G1 X4.49
M05
G1 X0.03Y0.03
M03 P30 S76.5
G1 X-4.49
M05
G1 X0.03Y0.03
M03 P30 S76.5
G1 X4.49
M05
G1 X0.03Y0.03
M03 P30 S76.5
G1 X-4.49
M05
G1 X0.03Y0.03
M03 P30 S76.5
G1 X4.49
M05
G1 X0.03Y0.03
M03 P30 S76.5
G1 X-4.49
M05
G1 X0.03Y0.03
M03 P30 S76.5
G1 X4.49
M05
G1 X0.03Y0.03
M03 P30 S76.5
G1 X-4.49
M05
G1 X0.03Y0.03
M03 P30 S76.5
G1 X4.49
M05
G1 X0.03Y0.03
M03 P30 S76.5
G1 X-4.49
M05
G1 X0.03Y0.03
M03 P30 S76.5
G1 X4.49
M05
G1 X0.03Y0.03
M03 P30 S76.5
G1 X-4.49
M05
G1 X0.03Y0.03
M03 P30 S76.5
G1 X4.49
M05
G1 X0.03Y0.03
M03 P30 S76.5
G1 X-4.49
M05
G1 X0.03Y0.03
M03 P30 S76.5
G1 X4.49
M05
G1 X0.03Y0.03
M03 P30 S76.5
G1 X-4.49
M05
G1 X0.03Y0.03
M03 P30 S76.5
G1 X4.49
M05
G1 X0.03Y0.03
M03 P30 S76.5
G1 X-4.49
M05
G1 X0.03Y0.03
M03 P30 S76.5
G1 X4.49
M05
G1 X0.03Y0.03
M03 P30 S76.5
G1 X-4.49
M05
G1 X0.03Y0.03
M03 P30 S76.5
G1 X4.49
M05
G1 X0.03Y0.03
M03 P30 S76.5
G1 X-4.49
M05
G1 X0.03Y0.03
M03 P30 S76.5
G1 X4.49
M05
G1 X0.03Y0.03
M03 P30 S76.5
G1 X-4.49
M05
G1 X0.03Y0.03
M03 P30 S76.5
G1 X4.49
M05
G1 X0.03Y0.03
M03 P30 S76.5
G1 X-4.49
M05
G1 X0.03Y0.03
M03 P30 S76.5
G1 X4.49
M05
G1 X0.03Y0.03
M03 P30 S76.5
G1 X-4.49
M05
G1 X0.03Y0.03
M03 P30 S76.5
G1 X4.49
M05
G1 X0.03Y0.03
M03 P30 S76.5
G1 X-4.49
M05
G1 X0.03Y0.03
M03 P30 S76.5
G1 X4.49
M05
G1 X0.03Y0.03
M03 P30 S76.5
G1 X-4.49
M05
G1 X0.03Y0.03
M03 P30 S76.5
G1 X4.49
M05
G1 X0.03Y0.03
M03 P30 S76.5
G1 X-4.49
M05
G1 X0.03Y0.03
M03 P30 S76.5
G1 X4.49
M05
G1 X0.03Y0.03
M03 P30 S76.5
G1 X-4.49
M05
G1 X0.03Y0.03
M03 P30 S76.5
G1 X4.49
M05
G1 X0.03Y0.03
M03 P30 S76.5
G1 X-4.49
M05
G1 X0.03Y0.03
M03 P30 S76.5
G1 X4.49
M05
G1 X0.03Y0.03
M03 P30 S76.5
G1 X-4.49
M05
G1 X0.03Y0.03
M03 P30 S76.5
G1 X4.49
M05
G1 X0.03Y0.03
M03 P30 S76.5
G1 X-4.49
M05
G1 X0.03Y0.03
M03 P30 S76.5
G1 X4.49
M05
G1 X0.03Y0.03
M03 P30 S76.5
G1 X-4.49
M05
G1 X0.03Y0.03
M03 P30 S76.5
G1 X4.49
M05
G1 X0.03Y0.03
M03 P30 S76.5
G1 X-4.49
M05
G1 X0.03Y0.03
M03 P30 S76.5
G1 X4.49
M05
G1 X0.03Y0.03
M03 P30 S76.5
G1 X-4.49
M05
G1 X0.03Y0.03
M03 P30 S76.5
G1 X4.49
M05
G1 X0.03Y0.03
M03 P30 S76.5
G1 X-4.49
M05
G1 X0.03Y0.03
M03 P30 S76.5
G1 X4.49
M05
G1 X0.03Y0.03
M03 P30 S76.5
G1 X-4.49
M05
G1 X0.03Y0.03
M03 P30 S76.5
G1 X4.49
M05
G1 X0.03Y0.03
M03 P30 S76.5
G1 X-4.49
M05
G1 X0.03Y0.03
M03 P30 S76.5
G1 X4.49
M05
G1 X0.03Y0.03
M03 P30 S76.5
G1 X-4.49
M05
G1 X0.03Y0.03
M03 P30 S76.5
G1 X4.49
M05
G1 X0.03Y0.03
M03 P30 S76.5
G1 X-4.49
M05
G1 X0.03Y0.03
M03 P30 S76.5
G1 X4.49
M05
G1 X0.03Y0.03
M03 P30 S76.5
G1 X-4.49
M05
G1 X0.03Y0.03
M03 P30 S76.5
G1 X4.49
M05
G1 X0.03Y0.03
M03 P30 S76.5
G1 X-4.49
M05
G1 X0.03Y0.03
M03 P30 S76.5
G1 X4.49
M05
G1 X0.03Y0.03
M03 P30 S76.5
G1 X-4.49
M05
G1 X0.03Y0.03
M03 P30 S76.5
G1 X4.49
M05
G1 X0.03Y0.03
M03 P30 S76.5
G1 X-4.49
M05
G1 X0.03Y0.03
M03 P30 S76.5
G1 X4.49
M05
G1 X0.03Y0.03
M03 P30 S76.5
G1 X-4.49
M05
G1 X0.03Y0.03
M03 P30 S76.5
G1 X4.49
M05
G1 X0.03Y0.03
M03 P30 S76.5
G1 X-4.49
M05
G1 X0.03Y0.03
M03 P30 S76.5
G1 X4.49
M05
G1 X0.03Y0.03
M03 P30 S76.5
G1 X-4.49
M05
G1 X0.03Y0.03
M03 P30 S76.5
G1 X4.49
M05
G1 X0.03Y0.03
M03 P30 S76.5
G1 X-4.49
M05
G1 X0.03Y0.03
M03 P30 S76.5
G1 X4.49
M05
G1 X0.03Y0.03
M03 P30 S76.5
G1 X-4.49
M05
G1 X0.03Y0.03
M03 P30 S76.5
G1 X4.49
M05
G1 X0.03Y0.03
M03 P30 S76.5
G1 X-4.49
M05
G1 X0.03Y0.03
M03 P30 S76.5
G1 X4.49
M05
G1 X0.03Y0.03
M03 P30 S76.5
G1 X-4.49
M05
G1 X0.03Y0.03
M03 P30 S76.5
G1 X4.49
M05
G1 X0.03Y0.03
M03 P30 S76.5
G1 X-4.49
M05
G1 X0.03Y0.03
M03 P30 S76.5
G1 X4.49
M05
G1 X0.03Y0.03
M03 P30 S76.5
G1 X-4.49
M05
G1 X0.03Y0.03
M03 P30 S76.5
G1 X4.49
M05
G1 X0.03Y0.03
M03 P30 S76.5
G1 X-4.49
M05
G1 X0.03Y0.03
M03 P30 S76.5
G1 X4.49
M05
G1 X0.03Y0.03
M03 P30 S76.5
G1 X-4.49
M05
G1 X0.03Y0.03
M03 P30 S76.5
G1 X4.49
M05
G1 X0.03Y0.03
M03 P30 S76.5
G1 X-4.49
M05
G1 X0.03Y0.03
M03 P30 S76.5
G1 X4.49
M05
G1 X0.03Y0.03
M03 P30 S76.5
G1 X-4.49
M05
G1 X0.03Y0.03
M03 P30 S76.5
G1 X4.49
M05
G1 X0.03Y0.03
M03 P30 S76.5
G1 X-4.49
M05
G1 X0.03Y0.03
M03 P30 S76.5
G1 X4.49
M05
G1 X0.03Y0.03
M03 P30 S76.5
G1 X-4.49
M05
G1 X0.03Y0.03
M03 P30 S76.5
G1 X4.49
M05
G1 X0.03Y0.03
M03 P30 S76.5
G1 X-4.49
M05
G1 X0.03Y0.03
M03 P30 S76.5
G1 X4.49
M05
G1 X0.03Y0.03
M03 P30 S76.5
G1 X-4.49
M05
G1 X0.03Y0.03
M03 P30 S76.5
G1 X4.49
M05
G1 X0.03Y0.03
M03 P30 S76.5
G1 X-4.49
M05
G1 X0.03Y0.03
M03 P30 S76.5
G1 X4.49
M05
G1 X0.03Y0.03
M03 P30 S76.5
G1 X-4.49
M05
G1 X0.03Y0.03
M03 P30 S76.5
G1 X4.49
M05
G1 X0.03Y0.03
M03 P30 S76.5
G1 X-4.49
M05
G1 X0.03Y0.03
M03 P30 S76.5
G1 X4.49
M05
G1 X0.03Y0.03
M03 P30 S76.5
G1 X-4.49
M05
G1 X0.03Y0.03
M03 P30 S76.5
G1 X4.49
M05
G1 X0.03Y0.03
M03 P30 S76.5
G1 X-4.49
M05
G1 X0.03Y0.03
M03 P30 S76.5
G1 X4.49
M05
G1 X0.03Y0.03
M03 P30 S76.5
G1 X-4.49
M05
G1 X0.03Y0.03
M03 P30 S76.5
G1 X4.49
M05
G1 X0.03Y0.03
M03 P30 S76.5
G1 X-4.49
M05
G1 X0.03Y0.03
M03 P30 S76.5
G1 X4.49
M05
G1 X0.03Y0.03
M03 P30 S76.5
G1 X-4.49
M05
G1 X0.03Y0.03
M03 P30 S76.5
G1 X4.49
M05
G1 X0.03Y0.03
M03 P30 S76.5
G1 X-4.49
M05
G1 X0.03Y0.03
M03 P30 S76.5
G1 X4.49
M05
G1 X0.03Y0.03
M03 P30 S76.5
G1 X-4.49
M05
G1 X0.03Y0.03
M03 P30 S76.5
G1 X4.49
M05
G1 X0.03Y0.03
M03 P30 S76.5
G1 X-4.49
M05
G1 X0.03Y0.03
M03 P30 S76.5
G1 X4.49
M05
G1 X0.03Y0.03
M03 P30 S76.5
G1 X-4.49
M05
G1 X0.03Y0.03
M03 P30 S76.5
G1 X4.49
M05
G1 X0.03Y0.03
M03 P30 S76.5
G1 X-4.49
M05
G1 X0.03Y0.03
M03 P30 S76.5
G1 X4.49
M05
G1 X0.03Y0.03
M03 P30 S76.5
G1 X-4.49
M05
G1 X0.03Y0.03
M03 P30 S76.5
G1 X4.49
M05
G1 X0.03Y0.03
M03 P30 S76.5
G1 X-4.49
M05
G1 X0.03Y0.03
M03 P30 S76.5
G1 X4.49
M05
G1 X0.03Y0.03
M03 P30 S76.5
G1 X-4.49
M05
G1 X0.03Y0.03
M03 P30 S76.5
G1 X4.49
M05
G1 X0.03Y0.03
M03 P30 S76.5
G1 X-4.49
M05
G1 X0.03Y0.03
M03 P30 S76.5
G1 X4.49
M05
G1 X0.03Y0.03
M03 P30 S76.5
G1 X-4.49
M05
G1 X0.03Y0.03
M03 P30 S76.5
G1 X4.49
M05
G1 X0.03Y0.03
M03 P30 S76.5
G1 X-4.49
M05
G1 X0.03Y0.03
M03 P30 S76.5
G1 X4.49
M05
G1 X0.03Y0.03
M03 P30 S76.5
G1 X-4.49
M05
G1 X0.03Y0.03
M03 P30 S76.5
G1 X4.49
M05
G1 X0.03Y0.03
M03 P30 S76.5
G1 X-4.49
M05
G1 X0.03Y0.03
M03 P30 S76.5
G1 X4.49
M05
G1 X0.03Y0.03
M03 P30 S76.5
G1 X-4.49
M05
G1 X0.03Y0.03
M03 P30 S76.5
G1 X4.49
M05
G1 X0.03Y0.03
M03 P30 S76.5
G1 X-4.49
M05
G1 X0.03Y0.03
M03 P30 S76.5
G1 X4.49
M05
G1 X0.03Y0.03
M03 P30 S76.5
G1 X-4.49
M05
G1 X0.03Y0.03
M03 P30 S76.5
G1 X4.49
M05
G1 X0.03Y0.03
M03 P30 S76.5
G1 X-4.49
M05
G1 X0.03Y0.03
M03 P30 S76.5
G1 X4.49
M05
G1 X0.03Y0.03
M03 P30 S76.5
G1 X-4.49
M05
G1 X0.03Y0.03
M03 P30 S76.5
G1 X4.49
M05
G1 X0.03Y0.03
M03 P30 S76.5
G1 X-4.49
M05
G1 X0.03Y0.03
M03 P30 S76.5
G1 X4.49
M05
G1 X0.03Y0.03
M03 P30 S76.5
G1 X-4.49
M05
G1 X0.03Y0.03
M03 P30 S76.5
G1 X4.49
M05
G1 X0.03Y0.03
M03 P30 S76.5
G1 X-4.49
M05
G1 X0.03Y0.03
M03 P30 S76.5
G1 X4.49
M05
G1 X0.03Y0.03
M03 P30 S76.5
G1 X-4.49
M05
G1 X0.03Y0.03
M03 P30 S76.5
G1 X4.49
M05
G1 X0.03Y0.03
M03 P30 S76.5
G1 X-4.49
M05
G1 X0.03Y0.03
M03 P30 S76.5
G1 X4.481
M05
G1 X-0.011Y0.03
M03 P30 S76.5
G1 X-4.44
M05
G1 X0.03Y0.03
M03 P30 S76.5
G1 X4.399
M05
G1 X-0.011Y0.03
M03 P30 S76.5
G1 X-4.358
M05
G1 X0.03Y0.03
M03 P30 S76.5
G1 X4.317
M05
G1 X-0.009Y0.03
M03 P30 S76.5
G1 X-4.278
M05
G1 X0.03Y0.03
M03 P30 S76.5
G1 X4.238
M05
G1 X-0.009Y0.03
M03 P30 S76.5
G1 X-4.199
M05
G1 X0.03Y0.03
M03 P30 S76.5
G1 X4.159
M05
G1 X-0.009Y0.03
M03 P30 S76.5
G1 X-4.12
M05
G1 X0.03Y0.03
M03 P30 S76.5
G1 X4.082
M05
G1 X-0.009Y0.03
M03 P30 S76.5
G1 X-4.043
M05
G1 X0.03Y0.03
M03 P30 S76.5
G1 X4.004
M05
G1 X-0.008Y0.03
M03 P30 S76.5
G1 X-3.966
M05
G1 X0.03Y0.03
M03 P30 S76.5
G1 X3.927
M05
G1 X-0.009Y0.03
M03 P30 S76.5
G1 X-3.888
M05
G1 X0.03Y0.03
M03 P30 S76.5
G1 X3.85
M05
G1 X-0.009Y0.03
M03 P30 S76.5
G1 X-3.811
M05
G1 X0.03Y0.03
M03 P30 S76.5
G1 X3.773
M05
G1 X-0.009Y0.03
M03 P30 S76.5
G1 X-3.734
M05
G1 X0.03Y0.03
M03 P30 S76.5
G1 X3.695
M05
G1 X-0.008Y0.03
M03 P30 S76.5
G1 X-3.657
M05
G1 X0.03Y0.03
M03 P30 S76.5
G1 X3.618
M05
G1 X-0.009Y0.03
M03 P30 S76.5
G1 X-3.579
M05
G1 X0.03Y0.03
M03 P30 S76.5
G1 X3.541
M05
G1 X-0.009Y0.03
M03 P30 S76.5
G1 X-3.502
M05
G1 X0.03Y0.03
M03 P30 S76.5
G1 X3.463
M05
G1 X-0.008Y0.03
M03 P30 S76.5
G1 X-3.425
M05
G1 X0.03Y0.03
M03 P30 S76.5
G1 X3.386
M05
G1 X-0.009Y0.03
M03 P30 S76.5
G1 X-3.347
M05
G1 X0.03Y0.03
M03 P30 S76.5
G1 X3.309
M05
G1 X-0.009Y0.03
M03 P30 S76.5
G1 X-3.27
M05
G1 X0.03Y0.03
M03 P30 S76.5
G1 X3.232
M05
G1 X-0.009Y0.03
M03 P30 S76.5
G1 X-3.193
M05
G1 X0.03Y0.03
M03 P30 S76.5
G1 X3.154
M05
G1 X-0.008Y0.03
M03 P30 S76.5
G1 X-3.116
M05
G1 X0.03Y0.03
M03 P30 S76.5
G1 X3.077
M05
G1 X-0.009Y0.03
M03 P30 S76.5
G1 X-3.038
M05
G1 X0.03Y0.03
M03 P30 S76.5
G1 X3
M05
G1 X-0.009Y0.03
M03 P30 S76.5
G1 X-2.961
M05
G1 X0.03Y0.03
M03 P30 S76.5
G1 X2.922
M05
G1 X-0.008Y0.03
M03 P30 S76.5
G1 X-2.884
M05
G1 X0.03Y0.03
M03 P30 S76.5
G1 X2.845
M05
G1 X-0.009Y0.03
M03 P30 S76.5
G1 X-2.806
M05
G1 X0.03Y0.03
M03 P30 S76.5
G1 X2.768
M05
G1 X-0.009Y0.03
M03 P30 S76.5
G1 X-2.729
M05
G1 X0.03Y0.03
M03 P30 S76.5
G1 X2.69
M05
G1 X-0.008Y0.03
M03 P30 S76.5
G1 X-2.652
M05
G1 X0.03Y0.03
M03 P30 S76.5
G1 X2.613
M05
G1 X-0.008Y0.03
M03 P30 S76.5
G1 X-2.575
M05
G1 X0.03Y0.03
M03 P30 S76.5
G1 X2.536
M05
G1 X-0.009Y0.03
M03 P30 S76.5
G1 X-2.497
M05
G1 X0.03Y0.03
M03 P30 S76.5
G1 X2.459
M05
G1 X-0.009Y0.03
M03 P30 S76.5
G1 X-2.42
M05
G1 X0.03Y0.03
M03 P30 S76.5
G1 X2.381
M05
G1 X-0.008Y0.03
M03 P30 S76.5
G1 X-2.343
M05
G1 X0.03Y0.03
M03 P30 S76.5
G1 X2.304
M05
G1 X-0.009Y0.03
M03 P30 S76.5
G1 X-2.265
M05
G1 X0.03Y0.03
M03 P30 S76.5
G1 X2.227
M05
G1 X-0.009Y0.03
M03 P30 S76.5
G1 X-2.188
M05
G1 X0.03Y0.03
M03 P30 S76.5
G1 X2.149
M05
