;Header Start
;header_type: laser
;file_total_lines:269676
;max_x(mm): 151.04
;max_y(mm): 128.45
;max_z(mm): 0
;min_x(mm): 3.25
;min_y(mm): 2.44
;min_z(mm): 0
;Header End
; LightBurn 1.2.04
; SnapMaker device profile, user origin
; Bounds: X3.25 Y2.44 to X151.04 Y128.45

;USER START SCRIPT
M106 P0 S255
G28
G53
G0 Z45 F6000
G54
G92 Z0
G53
G0 X100 Y75 F6000
G54
G92 X0 Y0
M3 S0


;USER START SCRIPT

G21
G90
G0 X0 Y0 F0
G91
; Scan @ 2299.998 mm/min, 30% power
M106 P0 S255
M05
G0 X22.896 Y1.995 F0
; Layer C16
M03 P30 S76.5
G1 X2.636 F2300
M05
G1 X0.158Y0.03
M03 P30 S76.5
G1 X-2.921
M05
G1 X-0.056Y0.03
M03 P30 S76.5
G1 X3.039
M05
G1 X0.04Y0.03
M03 P30 S76.5
G1 X-3.112
M05
G1 X-0.026Y0.03
M03 P30 S76.5
G1 X3.163
M05
G1 X0.02Y0.03
M03 P30 S76.5
G1 X-3.2
M05
G1 X-0.013Y0.03
M03 P30 S76.5
G1 X3.224
M05
G1 X0.007Y0.03
M03 P30 S76.5
G1 X-3.24
M05
G1 X-0.007Y0.03
M03 P30 S76.5
G1 X3.25
M05
G1 Y0.03
M03 P30 S76.5
G1 X-3.253
M05
G1 Y0.03
M03 P30 S76.5
G1 X3.254
M05
G1 Y0.03
M03 P30 S76.5
G1 X-3.253
M05
G1 Y0.03
M03 P30 S76.5
G1 X3.244
M05
G1 X-0.009Y0.03
M03 P30 S76.5
G1 X-3.224
M05
G1 X0.01Y0.03
M03 P30 S76.5
G1 X3.202
M05
G1 X-0.018Y0.03
M03 P30 S76.5
G1 X-3.166
M05
G1 X0.022Y0.03
M03 P30 S76.5
G1 X3.12
M05
G1 X-0.034Y0.03
M03 P30 S76.5
G1 X-3.049
M05
G1 X0.054Y0.03
M03 P30 S76.5
G1 X2.942
M05
G1 X-0.111Y0.03
M03 P30 S76.5
G1 X-2.713
M05
G1 X1.067Y0.03
M03 P30 S76.5
G1 X0.583
M05
G1 Y0.03
M03 P30 S76.5
G1 X-0.583
M05
G1 Y0.03
M03 P30 S76.5
G1 X0.583
M05
G1 Y0.03
M03 P30 S76.5
G1 X-0.583
M05
G1 Y0.03
M03 P30 S76.5
G1 X0.583
M05
G1 Y0.03
M03 P30 S76.5
G1 X-0.583
M05
G1 Y0.03
M03 P30 S76.5
G1 X0.583
M05
G1 Y0.03
M03 P30 S76.5
G1 X-0.583
M05
G1 Y0.03
M03 P30 S76.5
G1 X0.584
M05
G1 Y0.03
M03 P30 S76.5
G1 X-0.584
M05
G1 Y0.03
M03 P30 S76.5
G1 X0.584
M05
G1 Y0.03
M03 P30 S76.5
G1 X-0.584
M05
G1 Y0.03
M03 P30 S76.5
G1 X0.584
M05
G1 Y0.03
M03 P30 S76.5
G1 X-0.584
M05
G1 Y0.03
M03 P30 S76.5
G1 X0.584
M05
G1 Y0.03
M03 P30 S76.5
G1 X-0.584
M05
G1 Y0.03
M03 P30 S76.5
G1 X0.584
M05
G1 Y0.03
M03 P30 S76.5
G1 X-0.584
M05
G1 Y0.03
M03 P30 S76.5
G1 X0.584
M05
G1 Y0.03
M03 P30 S76.5
G1 X-0.584
M05
G1 Y0.03
M03 P30 S76.5
G1 X0.584
M05
G1 Y0.03
M03 P30 S76.5
G1 X-0.584
M05
G1 Y0.03
M03 P30 S76.5
G1 X0.584
M05
G1 Y0.03
M03 P30 S76.5
G1 X-0.584
M05
G1 Y0.03
M03 P30 S76.5
G1 X0.584
M05
G1 Y0.03
M03 P30 S76.5
G1 X-0.584
M05
G1 Y0.03
M03 P30 S76.5
G1 X0.584
M05
G1 Y0.03
M03 P30 S76.5
G1 X-0.584
M05
G1 Y0.03
M03 P30 S76.5
G1 X0.584
M05
G1 Y0.03
M03 P30 S76.5
G1 X-0.584
M05
G1 Y0.03
M03 P30 S76.5
G1 X0.584
M05
G1 Y0.03
M03 P30 S76.5
G1 X-0.584
M05
G1 Y0.03
M03 P30 S76.5
G1 X0.584
M05
G1 Y0.03
M03 P30 S76.5
G1 X-0.584
M05
G1 Y0.03
M03 P30 S76.5
G1 X0.584
M05
G1 Y0.03
M03 P30 S76.5
G1 X-0.584
M05
G1 Y0.03
M03 P30 S76.5
G1 X0.584
M05
G1 Y0.03
M03 P30 S76.5
G1 X-0.584
M05
G1 Y0.03
M03 P30 S76.5
G1 X0.584
M05
G1 Y0.03
M03 P30 S76.5
G1 X-0.584
M05
G1 Y0.03
M03 P30 S76.5
G1 X0.584
M05
G1 Y0.03
M03 P30 S76.5
G1 X-0.584
M05
G1 Y0.03
M03 P30 S76.5
G1 X0.584
M05
G1 Y0.03
M03 P30 S76.5
G1 X-0.584
M05
G1 Y0.03
M03 P30 S76.5
G1 X0.584
M05
G1 Y0.03
M03 P30 S76.5
G1 X-0.584
M05
G1 Y0.03
M03 P30 S76.5
G1 X0.584
M05
G1 Y0.03
M03 P30 S76.5
G1 X-0.584
M05
G1 Y0.03
M03 P30 S76.5
G1 X0.584
M05
G1 Y0.03
M03 P30 S76.5
G1 X-0.584
M05
G1 Y0.03
M03 P30 S76.5
G1 X0.584
M05
G1 Y0.03
M03 P30 S76.5
G1 X-0.584
M05
G1 Y0.03
M03 P30 S76.5
G1 X0.584
M05
G1 Y0.03
M03 P30 S76.5
G1 X-0.584
M05
G1 Y0.03
M03 P30 S76.5
G1 X0.584
M05
G1 Y0.03
M03 P30 S76.5
G1 X-0.584
M05
G1 Y0.03
M03 P30 S76.5
G1 X0.584
M05
G1 Y0.03
M03 P30 S76.5
G1 X-0.584
M05
G1 Y0.03
M03 P30 S76.5
G1 X0.584
M05
G1 Y0.03
M03 P30 S76.5
G1 X-0.584
M05
G1 Y0.03
M03 P30 S76.5
G1 X0.584
M05
G1 Y0.03
M03 P30 S76.5
G1 X-0.584
M05
G1 Y0.03
M03 P30 S76.5
G1 X0.584
M05
G1 Y0.03
M03 P30 S76.5
G1 X-0.584
M05
G1 Y0.03
M03 P30 S76.5
G1 X0.584
M05
G1 Y0.03
M03 P30 S76.5
G1 X-0.584
M05
G1 Y0.03
M03 P30 S76.5
G1 X0.584
M05
G1 Y0.03
M03 P30 S76.5
G1 X-0.584
M05
G1 Y0.03
M03 P30 S76.5
G1 X0.584
M05
G1 Y0.03
M03 P30 S76.5
G1 X-0.584
M05
G1 Y0.03
M03 P30 S76.5
G1 X0.584
M05
G1 Y0.03
M03 P30 S76.5
G1 X-0.584
M05
G1 Y0.03
M03 P30 S76.5
G1 X0.584
M05
G1 Y0.03
M03 P30 S76.5
G1 X-0.584
M05
G1 Y0.03
M03 P30 S76.5
G1 X0.584
M05
G1 Y0.03
M03 P30 S76.5
G1 X-0.584
M05
G1 Y0.03
M03 P30 S76.5
G1 X0.584
M05
G1 Y0.03
M03 P30 S76.5
G1 X-0.584
M05
G1 Y0.03
M03 P30 S76.5
G1 X0.584
M05
G1 Y0.03
M03 P30 S76.5
G1 X-0.584
M05
G1 Y0.03
M03 P30 S76.5
G1 X0.584
M05
G1 Y0.03
M03 P30 S76.5
G1 X-0.584
M05
G1 Y0.03
M03 P30 S76.5
G1 X0.584
M05
G1 Y0.03
M03 P30 S76.5
G1 X-0.584
M05
G1 Y0.03
M03 P30 S76.5
G1 X0.584
M05
G1 Y0.03
M03 P30 S76.5
G1 X-0.584
M05
G1 Y0.03
M03 P30 S76.5
G1 X0.584
M05
G1 Y0.03
M03 P30 S76.5
G1 X-0.584
M05
G1 Y0.03
M03 P30 S76.5
G1 X0.584
M05
G1 Y0.03
M03 P30 S76.5
G1 X-0.584
M05
G1 Y0.03
M03 P30 S76.5
G1 X0.584
M05
G1 Y0.03
M03 P30 S76.5
G1 X-0.584
M05
G1 Y0.03
M03 P30 S76.5
G1 X0.584
M05
G1 Y0.03
M03 P30 S76.5
G1 X-0.584
M05
G1 Y0.03
M03 P30 S76.5
G1 X0.584
M05
G1 Y0.03
M03 P30 S76.5
G1 X-0.584
M05
G1 Y0.03
M03 P30 S76.5
G1 X0.584
M05
G1 Y0.03
M03 P30 S76.5
G1 X-0.584
M05
G1 Y0.03
M03 P30 S76.5
G1 X0.584
M05
G1 Y0.03
M03 P30 S76.5
G1 X-0.584
M05
G1 Y0.03
M03 P30 S76.5
G1 X0.584
M05
G1 Y0.03
M03 P30 S76.5
G1 X-0.584
M05
G1 Y0.03
M03 P30 S76.5
G1 X0.584
M05
G1 Y0.03
M03 P30 S76.5
G1 X-0.584
M05
G1 Y0.03
M03 P30 S76.5
G1 X0.584
M05
G1 Y0.03
M03 P30 S76.5
G1 X-0.584
M05
G1 Y0.03
M03 P30 S76.5
G1 X0.584
M05
G1 Y0.03
M03 P30 S76.5
G1 X-0.584
M05
G1 Y0.03
M03 P30 S76.5
G1 X0.584
M05
G1 Y0.03
M03 P30 S76.5
G1 X-0.584
M05
G1 Y0.03
M03 P30 S76.5
G1 X0.584
M05
G1 Y0.03
M03 P30 S76.5
G1 X-0.584
M05
G1 Y0.03
M03 P30 S76.5
G1 X0.584
M05
G1 Y0.03
M03 P30 S76.5
G1 X-0.584
M05
G1 Y0.03
M03 P30 S76.5
G1 X0.584
M05
G1 Y0.03
M03 P30 S76.5
G1 X-0.584
M05
G1 Y0.03
M03 P30 S76.5
G1 X0.584
M05
G1 Y0.03
M03 P30 S76.5
G1 X-0.584
M05
G1 Y0.03
M03 P30 S76.5
G1 X0.584
M05
G1 Y0.03
M03 P30 S76.5
G1 X-0.584
M05
G1 Y0.03
M03 P30 S76.5
G1 X0.584
M05
G1 Y0.03
M03 P30 S76.5
G1 X-0.584
M05
G1 Y0.03
M03 P30 S76.5
G1 X0.584
M05
G1 Y0.03
M03 P30 S76.5
G1 X-0.584
M05
G1 Y0.03
M03 P30 S76.5
G1 X0.584
M05
G1 Y0.03
M03 P30 S76.5
G1 X-0.584
M05
G1 Y0.03
M03 P30 S76.5
G1 X0.584
M05
G1 Y0.03
M03 P30 S76.5
G1 X-0.582
M05
G1 Y0.03
M03 P30 S76.5
G1 X0.581
M05
G1 Y0.03
M03 P30 S76.5
G1 X-0.579
M05
G1 X0.005Y0.03
M03 P30 S76.5
G1 X0.569
M05
G1 X-0.006Y0.03
M03 P30 S76.5
G1 X-0.555
M05
G1 X0.011Y0.03
M03 P30 S76.5
G1 X0.532
M05
G1 X-0.018Y0.03
M03 P30 S76.5
G1 X-0.495
M05
G1 X0.022Y0.03
M03 P30 S76.5
G1 X0.448
M05
G1 X-0.033Y0.03
M03 P30 S76.5
G1 X-0.386
M05
G1 X0.043Y0.03
M03 P30 S76.5
G1 X0.296
M05
G1 X-0.089Y0.03
M03 P30 S76.5
G1 X-0.106
M05
G1 X1.652Y-4.559
M03 P30 S76.5
G1 Y0.252
M05
G1 X-0.03Y0.054
M03 P30 S76.5
G1 Y-0.349
M05
G1 X-0.03Y-0.031
M03 P30 S76.5
G1 Y0.412
M05
G1 X-0.03Y0.026
M03 P30 S76.5
G1 Y-0.458
M05
G1 X-0.03Y-0.017
M03 P30 S76.5
G1 Y0.491
M05
G1 X-0.03Y0.016
M03 P30 S76.5
G1 Y-0.518
M05
G1 X-0.03Y-0.011
M03 P30 S76.5
G1 Y0.537
M05
G1 X-0.03Y0.009
M03 P30 S76.5
G1 Y-0.552
M05
G1 X-0.03Y-0.007
M03 P30 S76.5
G1 Y0.564
M05
G1 X-0.03
M03 P30 S76.5
G1 Y-0.567
M05
G1 X-0.03
M03 P30 S76.5
G1 Y0.574
M05
G1 X-0.03
M03 P30 S76.5
G1 Y-0.578
M05
G1 X-0.03
M03 P30 S76.5
G1 Y0.581
M05
G1 X-0.03
M03 P30 S76.5
G1 Y-0.584
M05
G1 X-0.03
M03 P30 S76.5
G1 Y0.583
M05
G1 X-0.03
M03 P30 S76.5
G1 Y-0.583
M05
G1 X-0.03
M03 P30 S76.5
G1 Y0.583
M05
G1 X-0.03
M03 P30 S76.5
G1 Y-0.583
M05
G1 X-0.03
M03 P30 S76.5
G1 Y0.583
M05
G1 X-0.03
M03 P30 S76.5
G1 Y-0.583
M05
G1 X-0.03
M03 P30 S76.5
G1 Y0.583
M05
G1 X-0.03
M03 P30 S76.5
G1 Y-0.583
M05
G1 X-0.03
M03 P30 S76.5
G1 Y0.583
M05
G1 X-0.03
M03 P30 S76.5
G1 Y-0.583
M05
G1 X-0.03
M03 P30 S76.5
G1 Y0.583
M05
G1 X-0.03
M03 P30 S76.5
G1 Y-0.583
M05
G1 X-0.03
M03 P30 S76.5
G1 Y0.583
M05
G1 X-0.03
M03 P30 S76.5
G1 Y-0.583
M05
G1 X-0.03
M03 P30 S76.5
G1 Y0.583
M05
G1 X-0.03
M03 P30 S76.5
G1 Y-0.583
M05
G1 X-0.03
M03 P30 S76.5
G1 Y0.583
M05
G1 X-0.03
M03 P30 S76.5
G1 Y-0.583
M05
G1 X-0.03
M03 P30 S76.5
G1 Y0.583
M05
G1 X-0.03
M03 P30 S76.5
G1 Y-0.583
M05
G1 X-0.03
M03 P30 S76.5
G1 Y0.583
M05
G1 X-0.03
M03 P30 S76.5
G1 Y-0.583
M05
G1 X-0.03
M03 P30 S76.5
G1 Y0.583
M05
G1 X-0.03
M03 P30 S76.5
G1 Y-0.583
M05
G1 X-0.03
M03 P30 S76.5
G1 Y0.583
M05
G1 X-0.03
M03 P30 S76.5
G1 Y-0.583
M05
G1 X-0.03
M03 P30 S76.5
G1 Y0.583
M05
G1 X-0.03
M03 P30 S76.5
G1 Y-0.583
M05
G1 X-0.03
M03 P30 S76.5
G1 Y0.583
M05
G1 X-0.03
M03 P30 S76.5
G1 Y-0.583
M05
G1 X-0.03
M03 P30 S76.5
G1 Y4.529
M05
G1 X-0.03Y0.063
M03 P30 S76.5
G1 Y-4.592
M05
G1 X-0.03
M03 P30 S76.5
G1 Y4.629
M05
G1 X-0.03Y0.026
M03 P30 S76.5
G1 Y-4.655
M05
G1 X-0.03
M03 P30 S76.5
G1 Y4.675
M05
G1 X-0.03Y0.017
M03 P30 S76.5
G1 Y-4.692
M05
G1 X-0.03
M03 P30 S76.5
G1 Y4.703
M05
G1 X-0.03Y0.008
M03 P30 S76.5
G1 Y-4.711
M05
G1 X-0.03
M03 P30 S76.5
G1 Y4.717
M05
G1 X-0.03
M03 P30 S76.5
G1 Y-4.717
M05
G1 X-0.03
M03 P30 S76.5
G1 Y4.719
M05
G1 X-0.03
M03 P30 S76.5
G1 Y-4.719
M05
G1 X-0.03
M03 P30 S76.5
G1 Y4.712
M05
G1 X-0.03Y-0.009
M03 P30 S76.5
G1 Y-4.703
M05
G1 X-0.03
M03 P30 S76.5
G1 Y4.691
M05
G1 X-0.03Y-0.017
M03 P30 S76.5
G1 Y-4.674
M05
G1 X-0.03
M03 P30 S76.5
G1 Y4.651
M05
G1 X-0.03Y-0.033
M03 P30 S76.5
G1 Y-4.618
M05
G1 X-0.03
M03 P30 S76.5
G1 Y4.576
M05
G1 X-0.03Y-0.104
M03 P30 S76.5
G1 Y-4.472
M05
G1 X-0.03
M03 P30 S76.5
G1 Y0.583
M05
G1 X-0.03
M03 P30 S76.5
G1 Y-0.583
M05
G1 X-0.03
M03 P30 S76.5
G1 Y0.583
M05
G1 X-0.03
M03 P30 S76.5
G1 Y-0.583
M05
G1 X-0.03
M03 P30 S76.5
G1 Y0.583
M05
G1 X-0.03
M03 P30 S76.5
G1 Y-0.583
M05
G1 X-0.03
M03 P30 S76.5
G1 Y0.583
M05
G1 X-0.03
M03 P30 S76.5
G1 Y-0.583
M05
G1 X-0.03
M03 P30 S76.5
G1 Y0.583
M05
G1 X-0.03
M03 P30 S76.5
G1 Y-0.583
M05
G1 X-0.03
M03 P30 S76.5
G1 Y0.583
M05
G1 X-0.03
M03 P30 S76.5
G1 Y-0.583
M05
G1 X-0.03
M03 P30 S76.5
G1 Y0.583
M05
G1 X-0.03
M03 P30 S76.5
G1 Y-0.583
M05
G1 X-0.03
M03 P30 S76.5
G1 Y0.583
M05
G1 X-0.03
M03 P30 S76.5
G1 Y-0.583
M05
G1 X-0.03
M03 P30 S76.5
G1 Y0.583
M05
G1 X-0.03
M03 P30 S76.5
G1 Y-0.583
M05
G1 X-0.03
M03 P30 S76.5
G1 Y0.583
M05
G1 X-0.03
M03 P30 S76.5
G1 Y-0.583
M05
G1 X-0.03
M03 P30 S76.5
G1 Y0.583
M05
G1 X-0.03
M03 P30 S76.5
G1 Y-0.583
M05
G1 X-0.03
M03 P30 S76.5
G1 Y0.583
M05
G1 X-0.03
M03 P30 S76.5
G1 Y-0.583
M05
G1 X-0.03
M03 P30 S76.5
G1 Y0.583
M05
G1 X-0.03
M03 P30 S76.5
G1 Y-0.583
M05
G1 X-0.03
M03 P30 S76.5
G1 Y0.583
M05
G1 X-0.03
M03 P30 S76.5
G1 Y-0.582
M05
G1 X-0.03
M03 P30 S76.5
G1 Y0.582
M05
G1 X-0.03
M03 P30 S76.5
G1 Y-0.582
M05
G1 X-0.03
M03 P30 S76.5
G1 Y0.582
M05
G1 X-0.03
M03 P30 S76.5
G1 Y-0.582
M05
G1 X-0.03
M03 P30 S76.5
G1 Y0.579
M05
G1 X-0.03
M03 P30 S76.5
G1 Y-0.577
M05
G1 X-0.03
M03 P30 S76.5
G1 Y0.573
M05
G1 X-0.03
M03 P30 S76.5
G1 Y-0.566
M05
G1 X-0.03
M03 P30 S76.5
G1 Y0.559
M05
G1 X-0.03Y-0.006
M03 P30 S76.5
G1 Y-0.54
M05
G1 X-0.03Y0.009
M03 P30 S76.5
G1 Y0.521
M05
G1 X-0.03Y-0.012
M03 P30 S76.5
G1 Y-0.494
M05
G1 X-0.03Y0.016
M03 P30 S76.5
G1 Y0.462
M05
G1 X-0.03Y-0.022
M03 P30 S76.5
G1 Y-0.414
M05
G1 X-0.03Y0.031
M03 P30 S76.5
G1 Y0.351
M05
G1 X-0.03Y-0.047
M03 P30 S76.5
G1 Y-0.25
M05
G0 X4.276 Y-0.169 F0
M03 P30 S76.5
G1 X2.636 F2300
M05
G1 X0.158Y0.03
M03 P30 S76.5
G1 X-2.921
M05
G1 X-0.056Y0.03
M03 P30 S76.5
G1 X3.039
M05
G1 X0.04Y0.03
M03 P30 S76.5
G1 X-3.112
M05
G1 X-0.026Y0.03
M03 P30 S76.5
G1 X3.162
M05
G1 X0.02Y0.03
M03 P30 S76.5
G1 X-3.199
M05
G1 X-0.014Y0.03
M03 P30 S76.5
G1 X3.225
M05
G1 X0.007Y0.03
M03 P30 S76.5
G1 X-3.241
M05
G1 X-0.006Y0.03
M03 P30 S76.5
G1 X3.25
M05
G1 Y0.03
M03 P30 S76.5
G1 X-3.253
M05
G1 Y0.03
M03 P30 S76.5
G1 X3.254
M05
G1 Y0.03
M03 P30 S76.5
G1 X-3.253
M05
G1 Y0.03
M03 P30 S76.5
G1 X3.244
M05
G1 X-0.009Y0.03
M03 P30 S76.5
G1 X-3.224
M05
G1 X0.01Y0.03
M03 P30 S76.5
G1 X3.202
M05
G1 X-0.018Y0.03
M03 P30 S76.5
G1 X-3.166
M05
G1 X0.022Y0.03
M03 P30 S76.5
G1 X3.12
M05
G1 X-0.034Y0.03
M03 P30 S76.5
G1 X-3.049
M05
G1 X0.054Y0.03
M03 P30 S76.5
G1 X2.941
M05
G1 X-0.11Y0.03
M03 P30 S76.5
G1 X-2.713
M05
G1 X1.067Y0.03
M03 P30 S76.5
G1 X0.583
M05
G1 Y0.03
M03 P30 S76.5
G1 X-0.583
M05
G1 Y0.03
M03 P30 S76.5
G1 X0.583
M05
G1 Y0.03
M03 P30 S76.5
G1 X-0.583
M05
G1 Y0.03
M03 P30 S76.5
G1 X0.583
M05
G1 Y0.03
M03 P30 S76.5
G1 X-0.583
M05
G1 Y0.03
M03 P30 S76.5
G1 X0.583
M05
G1 Y0.03
M03 P30 S76.5
G1 X-0.583
M05
G1 Y0.03
M03 P30 S76.5
G1 X0.583
M05
G1 Y0.03
M03 P30 S76.5
G1 X-0.583
M05
G1 Y0.03
M03 P30 S76.5
G1 X0.583
M05
G1 Y0.03
M03 P30 S76.5
G1 X-0.583
M05
G1 Y0.03
M03 P30 S76.5
G1 X0.583
M05
G1 Y0.03
M03 P30 S76.5
G1 X-0.583
M05
G1 Y0.03
M03 P30 S76.5
G1 X0.583
M05
G1 Y0.03
M03 P30 S76.5
G1 X-0.583
M05
G1 Y0.03
M03 P30 S76.5
G1 X0.583
M05
G1 Y0.03
M03 P30 S76.5
G1 X-0.583
M05
G1 Y0.03
M03 P30 S76.5
G1 X0.583
M05
G1 Y0.03
M03 P30 S76.5
G1 X-0.583
M05
G1 Y0.03
M03 P30 S76.5
G1 X0.583
M05
G1 Y0.03
M03 P30 S76.5
G1 X-0.583
M05
G1 Y0.03
M03 P30 S76.5
G1 X0.583
M05
G1 Y0.03
M03 P30 S76.5
G1 X-0.583
M05
G1 Y0.03
M03 P30 S76.5
G1 X0.583
M05
G1 Y0.03
M03 P30 S76.5
G1 X-0.583
M05
G1 Y0.03
M03 P30 S76.5
G1 X0.583
M05
G1 Y0.03
M03 P30 S76.5
G1 X-0.583
M05
G1 Y0.03
M03 P30 S76.5
G1 X0.583
M05
G1 Y0.03
M03 P30 S76.5
G1 X-0.583
M05
G1 Y0.03
M03 P30 S76.5
G1 X0.584
M05
G1 Y0.03
M03 P30 S76.5
G1 X-0.584
M05
G1 Y0.03
M03 P30 S76.5
G1 X0.584
M05
G1 Y0.03
M03 P30 S76.5
G1 X-0.584
M05
G1 Y0.03
M03 P30 S76.5
G1 X0.584
M05
G1 Y0.03
M03 P30 S76.5
G1 X-0.584
M05
G1 Y0.03
M03 P30 S76.5
G1 X0.584
M05
G1 Y0.03
M03 P30 S76.5
G1 X-0.584
M05
G1 Y0.03
M03 P30 S76.5
G1 X0.584
M05
G1 Y0.03
M03 P30 S76.5
G1 X-0.584
M05
G1 Y0.03
M03 P30 S76.5
G1 X0.584
M05
G1 Y0.03
M03 P30 S76.5
G1 X-0.584
M05
G1 Y0.03
M03 P30 S76.5
G1 X0.584
M05
G1 Y0.03
M03 P30 S76.5
G1 X-0.584
M05
G1 Y0.03
M03 P30 S76.5
G1 X0.584
M05
G1 Y0.03
M03 P30 S76.5
G1 X-0.584
M05
G1 Y0.03
M03 P30 S76.5
G1 X0.584
M05
G1 Y0.03
M03 P30 S76.5
G1 X-0.584
M05
G1 Y0.03
M03 P30 S76.5
G1 X0.584
M05
G1 Y0.03
M03 P30 S76.5
G1 X-0.584
M05
G1 Y0.03
M03 P30 S76.5
G1 X0.584
M05
G1 Y0.03
M03 P30 S76.5
G1 X-0.584
M05
G1 Y0.03
M03 P30 S76.5
G1 X0.584
M05
G1 Y0.03
M03 P30 S76.5
G1 X-0.584
M05
G1 Y0.03
M03 P30 S76.5
G1 X0.584
M05
G1 Y0.03
M03 P30 S76.5
G1 X-0.584
M05
G1 Y0.03
M03 P30 S76.5
G1 X0.584
M05
G1 Y0.03
M03 P30 S76.5
G1 X-0.584
M05
G1 Y0.03
M03 P30 S76.5
G1 X0.584
M05
G1 Y0.03
M03 P30 S76.5
G1 X-0.584
M05
G1 Y0.03
M03 P30 S76.5
G1 X0.584
M05
G1 Y0.03
M03 P30 S76.5
G1 X-0.584
M05
G1 Y0.03
M03 P30 S76.5
G1 X0.584
M05
G1 Y0.03
M03 P30 S76.5
G1 X-0.584
M05
G1 Y0.03
M03 P30 S76.5
G1 X0.584
M05
G1 Y0.03
M03 P30 S76.5
G1 X-0.584
M05
G1 Y0.03
M03 P30 S76.5
G1 X0.584
M05
G1 Y0.03
M03 P30 S76.5
G1 X-0.584
M05
G1 Y0.03
M03 P30 S76.5
G1 X0.584
M05
G1 Y0.03
M03 P30 S76.5
G1 X-0.584
M05
G1 Y0.03
M03 P30 S76.5
G1 X0.584
M05
G1 Y0.03
M03 P30 S76.5
G1 X-0.584
M05
G1 Y0.03
M03 P30 S76.5
G1 X0.584
M05
G1 Y0.03
M03 P30 S76.5
G1 X-0.584
M05
G1 Y0.03
M03 P30 S76.5
G1 X0.584
M05
G1 Y0.03
M03 P30 S76.5
G1 X-0.584
M05
G1 Y0.03
M03 P30 S76.5
G1 X0.584
M05
G1 Y0.03
M03 P30 S76.5
G1 X-0.584
M05
G1 Y0.03
M03 P30 S76.5
G1 X0.584
M05
G1 Y0.03
M03 P30 S76.5
G1 X-0.584
M05
G1 Y0.03
M03 P30 S76.5
G1 X0.584
M05
G1 Y0.03
M03 P30 S76.5
G1 X-0.584
M05
G1 Y0.03
M03 P30 S76.5
G1 X0.584
M05
G1 Y0.03
M03 P30 S76.5
G1 X-0.584
M05
G1 Y0.03
M03 P30 S76.5
G1 X0.584
M05
G1 Y0.03
M03 P30 S76.5
G1 X-0.584
M05
G1 Y0.03
M03 P30 S76.5
G1 X0.584
M05
G1 Y0.03
M03 P30 S76.5
G1 X-0.584
M05
G1 Y0.03
M03 P30 S76.5
G1 X0.584
M05
G1 Y0.03
M03 P30 S76.5
G1 X-0.584
M05
G1 Y0.03
M03 P30 S76.5
G1 X0.584
M05
G1 Y0.03
M03 P30 S76.5
G1 X-0.584
M05
G1 Y0.03
M03 P30 S76.5
G1 X0.584
M05
G1 Y0.03
M03 P30 S76.5
G1 X-0.584
M05
G1 Y0.03
M03 P30 S76.5
G1 X0.584
M05
G1 Y0.03
M03 P30 S76.5
G1 X-0.584
M05
G1 Y0.03
M03 P30 S76.5
G1 X0.584
M05
G1 Y0.03
M03 P30 S76.5
G1 X-0.584
M05
G1 Y0.03
M03 P30 S76.5
G1 X0.584
M05
G1 Y0.03
M03 P30 S76.5
G1 X-0.584
M05
G1 Y0.03
M03 P30 S76.5
G1 X0.584
M05
G1 Y0.03
M03 P30 S76.5
G1 X-0.584
M05
G1 Y0.03
M03 P30 S76.5
G1 X0.584
M05
G1 Y0.03
M03 P30 S76.5
G1 X-0.584
M05
G1 Y0.03
M03 P30 S76.5
G1 X0.584
M05
G1 Y0.03
M03 P30 S76.5
G1 X-0.584
M05
G1 Y0.03
M03 P30 S76.5
G1 X0.584
M05
G1 Y0.03
M03 P30 S76.5
G1 X-0.584
M05
G1 Y0.03
M03 P30 S76.5
G1 X0.584
M05
G1 Y0.03
M03 P30 S76.5
G1 X-0.584
M05
G1 Y0.03
M03 P30 S76.5
G1 X0.584
M05
G1 Y0.03
M03 P30 S76.5
G1 X-0.584
M05
G1 Y0.03
M03 P30 S76.5
G1 X0.584
M05
G1 Y0.03
M03 P30 S76.5
G1 X-0.584
M05
G1 Y0.03
M03 P30 S76.5
G1 X0.584
M05
G1 Y0.03
M03 P30 S76.5
G1 X-0.584
M05
G1 Y0.03
M03 P30 S76.5
G1 X0.584
M05
G1 Y0.03
M03 P30 S76.5
G1 X-0.584
M05
G1 Y0.03
M03 P30 S76.5
G1 X0.584
M05
G1 Y0.03
M03 P30 S76.5
G1 X-0.584
M05
G1 Y0.03
M03 P30 S76.5
G1 X0.584
M05
G1 Y0.03
M03 P30 S76.5
G1 X-0.584
M05
G1 Y0.03
M03 P30 S76.5
G1 X0.584
M05
G1 Y0.03
M03 P30 S76.5
G1 X-0.584
M05
G1 Y0.03
M03 P30 S76.5
G1 X0.584
M05
G1 Y0.03
M03 P30 S76.5
G1 X-0.584
M05
G1 Y0.03
M03 P30 S76.5
G1 X0.584
M05
G1 Y0.03
M03 P30 S76.5
G1 X-0.582
M05
G1 Y0.03
M03 P30 S76.5
G1 X0.581
M05
G1 Y0.03
M03 P30 S76.5
G1 X-0.579
M05
G1 X0.005Y0.03
M03 P30 S76.5
G1 X0.569
M05
G1 X-0.007Y0.03
M03 P30 S76.5
G1 X-0.554
M05
G1 X0.01Y0.03
M03 P30 S76.5
G1 X0.533
M05
G1 X-0.018Y0.03
M03 P30 S76.5
G1 X-0.495
M05
G1 X0.022Y0.03
M03 P30 S76.5
G1 X0.448
M05
G1 X-0.034Y0.03
M03 P30 S76.5
G1 X-0.385
M05
G1 X0.043Y0.03
M03 P30 S76.5
G1 X0.296
M05
G1 X-0.09Y0.03
M03 P30 S76.5
G1 X-0.105
M05
G1 X1.652Y-4.559
M03 P30 S76.5
G1 Y0.252
M05
G1 X-0.03Y0.054
M03 P30 S76.5
G1 Y-0.349
M05
G1 X-0.03Y-0.031
M03 P30 S76.5
G1 Y0.412
M05
G1 X-0.03Y0.026
M03 P30 S76.5
G1 Y-0.458
M05
G1 X-0.03Y-0.017
M03 P30 S76.5
G1 Y0.491
M05
G1 X-0.03Y0.016
M03 P30 S76.5
G1 Y-0.518
M05
G1 X-0.03Y-0.011
M03 P30 S76.5
G1 Y0.537
M05
G1 X-0.03Y0.009
M03 P30 S76.5
G1 Y-0.552
M05
G1 X-0.03Y-0.007
M03 P30 S76.5
G1 Y0.564
M05
G1 X-0.03
M03 P30 S76.5
G1 Y-0.567
M05
G1 X-0.03
M03 P30 S76.5
G1 Y0.574
M05
G1 X-0.03
M03 P30 S76.5
G1 Y-0.578
M05
G1 X-0.03
M03 P30 S76.5
G1 Y0.581
M05
G1 X-0.03
M03 P30 S76.5
G1 Y-0.584
M05
G1 X-0.03
M03 P30 S76.5
G1 Y0.583
M05
G1 X-0.03
M03 P30 S76.5
G1 Y-0.583
M05
G1 X-0.03
M03 P30 S76.5
G1 Y0.583
M05
G1 X-0.03
M03 P30 S76.5
G1 Y-0.583
M05
G1 X-0.03
M03 P30 S76.5
G1 Y0.583
M05
G1 X-0.03
M03 P30 S76.5
G1 Y-0.583
M05
G1 X-0.03
M03 P30 S76.5
G1 Y0.583
M05
G1 X-0.03
M03 P30 S76.5
G1 Y-0.583
M05
G1 X-0.03
M03 P30 S76.5
G1 Y0.583
M05
G1 X-0.03
M03 P30 S76.5
G1 Y-0.583
M05
G1 X-0.03
M03 P30 S76.5
G1 Y0.583
M05
G1 X-0.03
M03 P30 S76.5
G1 Y-0.583
M05
G1 X-0.03
M03 P30 S76.5
G1 Y0.583
M05
G1 X-0.03
M03 P30 S76.5
G1 Y-0.583
M05
G1 X-0.03
M03 P30 S76.5
G1 Y0.583
M05
G1 X-0.03
M03 P30 S76.5
G1 Y-0.583
M05
G1 X-0.03
M03 P30 S76.5
G1 Y0.583
M05
G1 X-0.03
M03 P30 S76.5
G1 Y-0.583
M05
G1 X-0.03
M03 P30 S76.5
G1 Y0.583
M05
G1 X-0.03
M03 P30 S76.5
G1 Y-0.583
M05
G1 X-0.03
M03 P30 S76.5
G1 Y0.583
M05
G1 X-0.03
M03 P30 S76.5
G1 Y-0.583
M05
G1 X-0.03
M03 P30 S76.5
G1 Y0.583
M05
G1 X-0.03
M03 P30 S76.5
G1 Y-0.583
M05
G1 X-0.03
M03 P30 S76.5
G1 Y0.583
M05
G1 X-0.03
M03 P30 S76.5
G1 Y-0.583
M05
G1 X-0.03
M03 P30 S76.5
G1 Y0.583
M05
G1 X-0.03
M03 P30 S76.5
G1 Y-0.583
M05
G1 X-0.03
M03 P30 S76.5
G1 Y0.583
M05
G1 X-0.03
M03 P30 S76.5
G1 Y-0.583
M05
G1 X-0.03
M03 P30 S76.5
G1 Y4.529
M05
G1 X-0.03Y0.062
M03 P30 S76.5
G1 Y-4.591
M05
G1 X-0.03
M03 P30 S76.5
G1 Y4.629
M05
G1 X-0.03Y0.026
M03 P30 S76.5
G1 Y-4.655
M05
G1 X-0.03
M03 P30 S76.5
G1 Y4.675
M05
G1 X-0.03Y0.017
M03 P30 S76.5
G1 Y-4.692
M05
G1 X-0.03
M03 P30 S76.5
G1 Y4.703
M05
G1 X-0.03Y0.008
M03 P30 S76.5
G1 Y-4.711
M05
G1 X-0.03
M03 P30 S76.5
G1 Y4.717
M05
G1 X-0.03
M03 P30 S76.5
G1 Y-4.717
M05
G1 X-0.03
M03 P30 S76.5
G1 Y4.719
M05
G1 X-0.03
M03 P30 S76.5
G1 Y-4.719
M05
G1 X-0.03
M03 P30 S76.5
G1 Y4.712
M05
G1 X-0.03Y-0.009
M03 P30 S76.5
G1 Y-4.703
M05
G1 X-0.03
M03 P30 S76.5
G1 Y4.691
M05
G1 X-0.03Y-0.017
M03 P30 S76.5
G1 Y-4.674
M05
G1 X-0.03
M03 P30 S76.5
G1 Y4.651
M05
G1 X-0.03Y-0.033
M03 P30 S76.5
G1 Y-4.618
M05
G1 X-0.03
M03 P30 S76.5
G1 Y4.576
M05
G1 X-0.03Y-0.104
M03 P30 S76.5
G1 Y-4.472
M05
G1 X-0.03
M03 P30 S76.5
G1 Y0.583
M05
G1 X-0.03
M03 P30 S76.5
G1 Y-0.583
M05
G1 X-0.03
M03 P30 S76.5
G1 Y0.583
M05
G1 X-0.03
M03 P30 S76.5
G1 Y-0.583
M05
G1 X-0.03
M03 P30 S76.5
G1 Y0.583
M05
G1 X-0.03
M03 P30 S76.5
G1 Y-0.583
M05
G1 X-0.03
M03 P30 S76.5
G1 Y0.583
M05
G1 X-0.03
M03 P30 S76.5
G1 Y-0.583
M05
G1 X-0.03
M03 P30 S76.5
G1 Y0.583
M05
G1 X-0.03
M03 P30 S76.5
G1 Y-0.583
M05
G1 X-0.03
M03 P30 S76.5
G1 Y0.583
M05
G1 X-0.03
M03 P30 S76.5
G1 Y-0.583
M05
G1 X-0.03
M03 P30 S76.5
G1 Y0.583
M05
G1 X-0.03
M03 P30 S76.5
G1 Y-0.583
M05
G1 X-0.03
M03 P30 S76.5
G1 Y0.583
M05
G1 X-0.03
M03 P30 S76.5
G1 Y-0.583
M05
G1 X-0.03
M03 P30 S76.5
G1 Y0.583
M05
G1 X-0.03
M03 P30 S76.5
G1 Y-0.583
M05
G1 X-0.03
M03 P30 S76.5
G1 Y0.583
M05
G1 X-0.03
M03 P30 S76.5
G1 Y-0.583
M05
G1 X-0.03
M03 P30 S76.5
G1 Y0.583
M05
G1 X-0.03
M03 P30 S76.5
G1 Y-0.583
M05
G1 X-0.03
M03 P30 S76.5
G1 Y0.583
M05
G1 X-0.03
M03 P30 S76.5
G1 Y-0.583
M05
G1 X-0.03
M03 P30 S76.5
G1 Y0.583
M05
G1 X-0.03
M03 P30 S76.5
G1 Y-0.583
M05
G1 X-0.03
M03 P30 S76.5
G1 Y0.583
M05
G1 X-0.03
M03 P30 S76.5
G1 Y-0.582
M05
G1 X-0.03
M03 P30 S76.5
G1 Y0.582
M05
G1 X-0.03
M03 P30 S76.5
G1 Y-0.582
M05
G1 X-0.03
M03 P30 S76.5
G1 Y0.582
M05
G1 X-0.03
M03 P30 S76.5
G1 Y-0.582
M05
G1 X-0.03
M03 P30 S76.5
G1 Y0.579
M05
G1 X-0.03
M03 P30 S76.5
G1 Y-0.577
M05
G1 X-0.03
M03 P30 S76.5
G1 Y0.573
M05
G1 X-0.03
M03 P30 S76.5
G1 Y-0.566
M05
G1 X-0.03
M03 P30 S76.5
G1 Y0.559
M05
G1 X-0.03Y-0.006
M03 P30 S76.5
G1 Y-0.54
M05
G1 X-0.03Y0.009
M03 P30 S76.5
G1 Y0.521
M05
G1 X-0.03Y-0.012
M03 P30 S76.5
G1 Y-0.494
M05
G1 X-0.03Y0.016
M03 P30 S76.5
G1 Y0.462
M05
G1 X-0.03Y-0.022
M03 P30 S76.5
G1 Y-0.414
M05
G1 X-0.03Y0.031
M03 P30 S76.5
G1 Y0.351
M05
G1 X-0.03Y-0.047
M03 P30 S76.5
G1 Y-0.25
M05
G0 X4.225 Y-0.169 F0
M03 P30 S76.5
G1 X2.658 F2300
M05
G1 X0.126Y0.03
M03 P30 S76.5
G1 X-2.905
M05
G1 X-0.054Y0.03
M03 P30 S76.5
G1 X3.008
M05
G1 X0.031Y0.03
M03 P30 S76.5
G1 X-3.073
M05
G1 X-0.021Y0.03
M03 P30 S76.5
G1 X3.115
M05
G1 X0.013Y0.03
M03 P30 S76.5
G1 X-3.146
M05
G1 X-0.009Y0.03
M03 P30 S76.5
G1 X3.165
M05
G1 X0.01Y0.03
M03 P30 S76.5
G1 X-3.183
M05
G1 Y0.03
M03 P30 S76.5
G1 X3.187
M05
G1 Y0.03
M03 P30 S76.5
G1 X-3.192
M05
G1 Y0.03
M03 P30 S76.5
G1 X3.199
M05
G1 Y0.03
M03 P30 S76.5
G1 X-3.197
M05
G1 Y0.03
M03 P30 S76.5
G1 X3.197
M05
G1 Y0.03
M03 P30 S76.5
G1 X-3.185
M05
G1 X0.009Y0.03
M03 P30 S76.5
G1 X3.176
M05
G1 Y0.03
M03 P30 S76.5
G1 X-3.156
M05
G1 X0.02Y0.03
M03 P30 S76.5
G1 X3.136
M05
G1 Y0.03
M03 P30 S76.5
G1 X-3.099
M05
G1 X0.054Y0.03
M03 P30 S76.5
G1 X3.045
M05
G1 Y0.03
M03 P30 S76.5
G1 X-2.942
M05
G1 X2.359Y0.03
M03 P30 S76.5
G1 X0.583
M05
G1 Y0.03
M03 P30 S76.5
G1 X-0.583
M05
G1 Y0.03
M03 P30 S76.5
G1 X0.583
M05
G1 Y0.03
M03 P30 S76.5
G1 X-0.583
M05
G1 Y0.03
M03 P30 S76.5
G1 X0.583
M05
G1 Y0.03
M03 P30 S76.5
G1 X-0.583
M05
G1 Y0.03
M03 P30 S76.5
G1 X0.583
M05
G1 Y0.03
M03 P30 S76.5
G1 X-0.583
M05
G1 Y0.03
M03 P30 S76.5
G1 X0.583
M05
G1 Y0.03
M03 P30 S76.5
G1 X-0.583
M05
G1 Y0.03
M03 P30 S76.5
G1 X0.583
M05
G1 Y0.03
M03 P30 S76.5
G1 X-0.583
M05
G1 Y0.03
M03 P30 S76.5
G1 X0.583
M05
G1 Y0.03
M03 P30 S76.5
G1 X-0.583
M05
G1 Y0.03
M03 P30 S76.5
G1 X0.583
M05
G1 Y0.03
M03 P30 S76.5
G1 X-0.583
M05
G1 Y0.03
M03 P30 S76.5
G1 X0.583
M05
G1 Y0.03
M03 P30 S76.5
G1 X-0.583
M05
G1 Y0.03
M03 P30 S76.5
G1 X0.583
M05
G1 Y0.03
M03 P30 S76.5
G1 X-0.583
M05
G1 Y0.03
M03 P30 S76.5
G1 X0.583
M05
G1 Y0.03
M03 P30 S76.5
G1 X-0.583
M05
G1 Y0.03
M03 P30 S76.5
G1 X0.583
M05
G1 Y0.03
M03 P30 S76.5
G1 X-0.583
M05
G1 Y0.03
M03 P30 S76.5
G1 X0.583
M05
G1 Y0.03
M03 P30 S76.5
G1 X-0.583
M05
G1 Y0.03
M03 P30 S76.5
G1 X0.583
M05
G1 Y0.03
M03 P30 S76.5
G1 X-0.583
M05
G1 Y0.03
M03 P30 S76.5
G1 X0.583
M05
G1 Y0.03
M03 P30 S76.5
G1 X-0.583
M05
G1 Y0.03
M03 P30 S76.5
G1 X0.583
M05
G1 Y0.03
M03 P30 S76.5
G1 X-0.583
M05
G1 Y0.03
M03 P30 S76.5
G1 X0.583
M05
G1 Y0.03
M03 P30 S76.5
G1 X-0.583
M05
G1 Y0.03
M03 P30 S76.5
G1 X0.583
M05
G1 Y0.03
M03 P30 S76.5
G1 X-0.583
M05
G1 Y0.03
M03 P30 S76.5
G1 X0.583
M05
G1 Y0.03
M03 P30 S76.5
G1 X-0.583
M05
G1 Y0.03
M03 P30 S76.5
G1 X0.583
M05
G1 Y0.03
M03 P30 S76.5
G1 X-2.285
M05
G1 X-0.134Y0.03
M03 P30 S76.5
G1 X2.419
M05
G1 Y0.03
M03 P30 S76.5
G1 X-2.475
M05
G1 X-0.033Y0.03
M03 P30 S76.5
G1 X2.508
M05
G1 Y0.03
M03 P30 S76.5
G1 X-2.531
M05
G1 X-0.018Y0.03
M03 P30 S76.5
G1 X2.549
M05
G1 Y0.03
M03 P30 S76.5
G1 X-2.56
M05
G1 X-0.008Y0.03
M03 P30 S76.5
G1 X2.568
M05
G1 Y0.03
M03 P30 S76.5
G1 X-2.573
M05
G1 Y0.03
M03 P30 S76.5
G1 X2.573
M05
G1 Y0.03
M03 P30 S76.5
G1 X-2.576
M05
G1 Y0.03
M03 P30 S76.5
G1 X2.576
M05
G1 Y0.03
M03 P30 S76.5
G1 X-2.573
M05
G1 X0.008Y0.03
M03 P30 S76.5
G1 X2.565
M05
G1 Y0.03
M03 P30 S76.5
G1 X-2.556
M05
G1 X0.016Y0.03
M03 P30 S76.5
G1 X2.54
M05
G1 Y0.03
M03 P30 S76.5
G1 X-2.519
M05
G1 X0.034Y0.03
M03 P30 S76.5
G1 X2.485
M05
G1 Y0.03
M03 P30 S76.5
G1 X-2.437
M05
G1 X0.096Y0.03
M03 P30 S76.5
G1 X2.341
M05
G1 Y0.03
M03 P30 S76.5
G1 X-0.583
M05
G1 Y0.03
M03 P30 S76.5
G1 X0.583
M05
G1 Y0.03
M03 P30 S76.5
G1 X-0.583
M05
G1 Y0.03
M03 P30 S76.5
G1 X0.583
M05
G1 Y0.03
M03 P30 S76.5
G1 X-0.583
M05
G1 Y0.03
M03 P30 S76.5
G1 X0.583
M05
G1 Y0.03
M03 P30 S76.5
G1 X-0.583
M05
G1 Y0.03
M03 P30 S76.5
G1 X0.583
M05
G1 Y0.03
M03 P30 S76.5
G1 X-0.583
M05
G1 Y0.03
M03 P30 S76.5
G1 X0.583
M05
G1 Y0.03
M03 P30 S76.5
G1 X-0.583
M05
G1 Y0.03
M03 P30 S76.5
G1 X0.583
M05
G1 Y0.03
M03 P30 S76.5
G1 X-0.583
M05
G1 Y0.03
M03 P30 S76.5
G1 X0.583
M05
G1 Y0.03
M03 P30 S76.5
G1 X-0.583
M05
G1 Y0.03
M03 P30 S76.5
G1 X0.583
M05
G1 Y0.03
M03 P30 S76.5
G1 X-0.583
M05
G1 Y0.03
M03 P30 S76.5
G1 X0.583
M05
G1 Y0.03
M03 P30 S76.5
G1 X-0.583
M05
G1 Y0.03
M03 P30 S76.5
G1 X0.583
M05
G1 Y0.03
M03 P30 S76.5
G1 X-0.583
M05
G1 Y0.03
M03 P30 S76.5
G1 X0.583
M05
G1 Y0.03
M03 P30 S76.5
G1 X-0.583
M05
G1 Y0.03
M03 P30 S76.5
G1 X0.583
M05
G1 Y0.03
M03 P30 S76.5
G1 X-0.583
M05
G1 Y0.03
M03 P30 S76.5
G1 X0.583
M05
G1 Y0.03
M03 P30 S76.5
G1 X-0.583
M05
G1 Y0.03
M03 P30 S76.5
G1 X0.583
M05
G1 Y0.03
M03 P30 S76.5
G1 X-0.583
M05
G1 Y0.03
M03 P30 S76.5
G1 X0.583
M05
G1 Y0.03
M03 P30 S76.5
G1 X-0.583
M05
G1 Y0.03
M03 P30 S76.5
G1 X0.583
M05
G1 Y0.03
M03 P30 S76.5
G1 X-0.583
M05
G1 Y0.03
M03 P30 S76.5
G1 X0.583
M05
G1 Y0.03
M03 P30 S76.5
G1 X-0.583
M05
G1 Y0.03
M03 P30 S76.5
G1 X0.583
M05
G1 Y0.03
M03 P30 S76.5
G1 X-0.583
M05
G1 Y0.03
M03 P30 S76.5
G1 X0.583
M05
G1 Y0.03
M03 P30 S76.5
G1 X-0.583
M05
G1 Y0.03
M03 P30 S76.5
G1 X0.583
M05
G1 Y0.03
M03 P30 S76.5
G1 X-0.583
M05
G1 Y0.03
M03 P30 S76.5
G1 X0.583
M05
G1 Y0.03
M03 P30 S76.5
G1 X-0.583
M05
G1 Y0.03
M03 P30 S76.5
G1 X0.583
M05
G1 Y0.03
M03 P30 S76.5
G1 X-0.583
M05
G1 Y0.03
M03 P30 S76.5
G1 X0.583
M05
G1 Y0.03
M03 P30 S76.5
G1 X-0.583
M05
G1 Y0.03
M03 P30 S76.5
G1 X0.583
M05
G1 Y0.03
M03 P30 S76.5
G1 X-0.583
M05
G1 Y0.03
M03 P30 S76.5
G1 X0.583
M05
G1 Y0.03
M03 P30 S76.5
G1 X-0.583
M05
G1 Y0.03
M03 P30 S76.5
G1 X0.583
M05
G1 Y0.03
M03 P30 S76.5
G1 X-0.583
M05
G1 Y0.03
M03 P30 S76.5
G1 X0.583
M05
G1 Y0.03
M03 P30 S76.5
G1 X-0.583
M05
G1 Y0.03
M03 P30 S76.5
G1 X0.583
M05
G1 Y0.03
M03 P30 S76.5
G1 X-0.583
M05
G1 Y0.03
M03 P30 S76.5
G1 X0.583
M05
G1 Y0.03
M03 P30 S76.5
G1 X-0.583
M05
G1 X-2.411Y0.03
M03 P30 S76.5
G1 X2.994
M05
G1 Y0.03
M03 P30 S76.5
G1 X-3.066
M05
G1 X-0.054Y0.03
M03 P30 S76.5
G1 X3.12
M05
G1 Y0.03
M03 P30 S76.5
G1 X-3.153
M05
G1 X-0.024Y0.03
M03 P30 S76.5
G1 X3.177
M05
G1 Y0.03
M03 P30 S76.5
G1 X-3.194
M05
G1 X-0.013Y0.03
M03 P30 S76.5
G1 X3.207
M05
G1 Y0.03
M03 P30 S76.5
G1 X-3.216
M05
G1 Y0.03
M03 P30 S76.5
G1 X3.217
M05
G1 Y0.03
M03 P30 S76.5
G1 X-3.227
M05
G1 Y0.03
M03 P30 S76.5
G1 X3.225
M05
G1 Y0.03
M03 P30 S76.5
G1 X-3.226
M05
G1 Y0.03
M03 P30 S76.5
G1 X3.218
M05
G1 X-0.008Y0.03
M03 P30 S76.5
G1 X-3.198
M05
G1 X0.01Y0.03
M03 P30 S76.5
G1 X3.18
M05
G1 X-0.014Y0.03
M03 P30 S76.5
G1 X-3.15
M05
G1 X0.025Y0.03
M03 P30 S76.5
G1 X3.106
M05
G1 X-0.03Y0.03
M03 P30 S76.5
G1 X-3.036
M05
G1 X0.058Y0.03
M03 P30 S76.5
G1 X2.932
M05
G1 X-0.118Y0.03
M03 P30 S76.5
G1 X-2.678
M05
G1 X2.922Y-4.483
M03 P30 S76.5
G1 Y4.272
M05
G1 X-0.03Y0.091
M03 P30 S76.5
G1 Y-4.459
M05
G1 X-0.03Y-0.045
M03 P30 S76.5
G1 Y4.547
M05
G1 X-0.03Y0.026
M03 P30 S76.5
G1 Y-4.601
M05
G1 X-0.03Y-0.019
M03 P30 S76.5
G1 Y4.638
M05
G1 X-0.03Y0.011
M03 P30 S76.5
G1 Y-4.663
M05
G1 X-0.03Y-0.009
M03 P30 S76.5
G1 Y4.682
M05
G1 X-0.03Y0.008
M03 P30 S76.5
G1 Y-4.699
M05
G1 X-0.03
M03 P30 S76.5
G1 Y4.703
M05
G1 X-0.03
M03 P30 S76.5
G1 Y-4.711
M05
G1 X-0.03
M03 P30 S76.5
G1 Y4.716
M05
G1 X-0.03
M03 P30 S76.5
G1 Y-4.719
M05
G1 X-0.03
M03 P30 S76.5
G1 Y4.719
M05
G1 X-0.03
M03 P30 S76.5
G1 Y-4.72
M05
G1 X-0.03
M03 P30 S76.5
G1 Y4.72
M05
G1 X-0.03
M03 P30 S76.5
G1 Y-4.72
M05
G1 X-0.03
M03 P30 S76.5
G1 Y4.72
M05
G1 X-0.03
M03 P30 S76.5
G1 Y-4.72
M05
G1 X-0.03
M03 P30 S76.5
G1 Y4.72
M05
G1 X-0.03
M03 P30 S76.5
G1 Y-4.72
M05
G1 X-0.03Y4.138
M03 P30 S76.5
G1 Y0.582
M05
G1 X-0.03
M03 P30 S76.5
G1 Y-0.582
M05
G1 X-0.03
M03 P30 S76.5
G1 Y0.582
M05
G1 X-0.03
M03 P30 S76.5
G1 Y-0.582
M05
G1 X-0.03
M03 P30 S76.5
G1 Y0.582
M05
G1 X-0.03
M03 P30 S76.5
G1 Y-0.582
M05
G1 X-0.03
M03 P30 S76.5
G1 Y0.582
M05
G1 X-0.03
M03 P30 S76.5
G1 Y-0.582
M05
G1 X-0.03
M03 P30 S76.5
G1 Y0.582
M05
G1 X-0.03
M03 P30 S76.5
G1 Y-0.582
M05
G1 X-0.03
M03 P30 S76.5
G1 Y0.582
M05
G1 X-0.03
M03 P30 S76.5
G1 Y-0.582
M05
G1 X-0.03
M03 P30 S76.5
G1 Y0.582
M05
G1 X-0.03
M03 P30 S76.5
G1 Y-0.582
M05
G1 X-0.03
M03 P30 S76.5
G1 Y0.582
M05
G1 X-0.03
M03 P30 S76.5
G1 Y-0.582
M05
G1 X-0.03
M03 P30 S76.5
G1 Y0.582
M05
G1 X-0.03
M03 P30 S76.5
G1 Y-0.582
M05
G1 X-0.03
M03 P30 S76.5
G1 Y0.582
M05
G1 X-0.03
M03 P30 S76.5
G1 Y-0.582
M05
G1 X-0.03
M03 P30 S76.5
G1 Y0.582
M05
G1 X-0.03
M03 P30 S76.5
G1 Y-0.582
M05
G1 X-0.03
M03 P30 S76.5
G1 Y0.582
M05
G1 X-0.03
M03 P30 S76.5
G1 Y-0.582
M05
G1 X-0.03
M03 P30 S76.5
G1 Y0.582
M05
G1 X-0.03
M03 P30 S76.5
G1 Y-0.582
M05
G1 X-0.03
M03 P30 S76.5
G1 Y0.582
M05
G1 X-0.03
M03 P30 S76.5
G1 Y-0.582
M05
G1 X-0.03
M03 P30 S76.5
G1 Y0.582
M05
G1 X-0.03
M03 P30 S76.5
G1 Y-0.582
M05
G1 X-0.03
M03 P30 S76.5
G1 Y0.582
M05
G1 X-0.03
M03 P30 S76.5
G1 Y-0.582
M05
G1 X-0.03
M03 P30 S76.5
G1 Y0.582
M05
G1 X-0.03
M03 P30 S76.5
G1 Y-0.582
M05
G1 X-0.03
M03 P30 S76.5
G1 Y0.582
M05
G1 X-0.03
M03 P30 S76.5
G1 Y-0.582
M05
G1 X-0.03
M03 P30 S76.5
G1 Y0.582
M05
G1 X-0.03
M03 P30 S76.5
G1 Y-0.582
M05
G1 X-0.03
M03 P30 S76.5
G1 Y0.582
M05
G1 X-0.03
M03 P30 S76.5
G1 Y-0.582
M05
G1 X-0.03
M03 P30 S76.5
G1 Y0.582
M05
G1 X-0.03
M03 P30 S76.5
G1 Y-0.582
M05
G1 X-0.03
M03 P30 S76.5
G1 Y0.582
M05
G1 X-0.03
M03 P30 S76.5
G1 Y-0.582
M05
G1 X-0.03
M03 P30 S76.5
G1 Y0.582
M05
G1 X-0.03
M03 P30 S76.5
G1 Y-0.582
M05
G1 X-0.03
M03 P30 S76.5
G1 Y0.582
M05
G1 X-0.03
M03 P30 S76.5
G1 Y-0.582
M05
G1 X-0.03
M03 P30 S76.5
G1 Y0.582
M05
G1 X-0.03
M03 P30 S76.5
G1 Y-0.582
M05
G1 X-0.03
M03 P30 S76.5
G1 Y0.582
M05
G1 X-0.03
M03 P30 S76.5
G1 Y-0.582
M05
G1 X-0.03
M03 P30 S76.5
G1 Y0.582
M05
G1 X-0.03
M03 P30 S76.5
G1 Y-0.582
M05
G1 X-0.03
M03 P30 S76.5
G1 Y0.583
M05
G1 X-0.03
M03 P30 S76.5
G1 Y-0.583
M05
G1 X-0.03
M03 P30 S76.5
G1 Y0.583
M05
G1 X-0.03
M03 P30 S76.5
G1 Y-0.583
M05
G1 X-0.03
M03 P30 S76.5
G1 Y0.583
M05
G1 X-0.03
M03 P30 S76.5
G1 Y-0.583
M05
G1 X-0.03
M03 P30 S76.5
G1 Y0.583
M05
G1 X-0.03
M03 P30 S76.5
G1 Y-0.583
M05
G1 X-0.03
M03 P30 S76.5
G1 Y0.583
M05
G1 X-0.03
M03 P30 S76.5
G1 Y-0.583
M05
G1 X-0.03
M03 P30 S76.5
G1 Y0.583
M05
G1 X-0.03
M03 P30 S76.5
G1 Y-0.583
M05
G1 X-0.03
M03 P30 S76.5
G1 Y0.583
M05
G1 X-0.03
M03 P30 S76.5
G1 Y-0.583
M05
G1 X-0.03
M03 P30 S76.5
G1 Y0.583
M05
G1 X-0.03
M03 P30 S76.5
G1 Y-0.583
M05
G1 X-0.03
M03 P30 S76.5
G1 Y0.583
M05
G1 X-0.03
M03 P30 S76.5
G1 Y-0.583
M05
G1 X-0.03
M03 P30 S76.5
G1 Y0.583
M05
G1 X-0.03
M03 P30 S76.5
G1 Y-0.583
M05
G1 X-0.03
M03 P30 S76.5
G1 Y0.582
M05
G1 X-0.03
M03 P30 S76.5
G1 Y-0.582
M05
G1 X-0.03
M03 P30 S76.5
G1 Y0.579
M05
G1 X-0.03
M03 P30 S76.5
G1 Y-0.578
M05
G1 X-0.03
M03 P30 S76.5
G1 Y0.575
M05
G1 X-0.03
M03 P30 S76.5
G1 Y-0.571
M05
G1 X-0.03Y0.007
M03 P30 S76.5
G1 Y0.553
M05
G1 X-0.03Y-0.008
M03 P30 S76.5
G1 Y-0.535
M05
G1 X-0.03Y0.016
M03 P30 S76.5
G1 Y0.508
M05
G1 X-0.03Y-0.012
M03 P30 S76.5
G1 Y-0.48
M05
G1 X-0.03Y0.02
M03 P30 S76.5
G1 Y0.44
M05
G1 X-0.03Y-0.021
M03 P30 S76.5
G1 Y-0.389
M05
G1 X-0.03Y0.042
M03 P30 S76.5
G1 Y0.312
M05
G1 X-0.03Y-0.069
M03 P30 S76.5
G1 Y-0.156
M05
G1 X2.61Y-4.371
M03 P30 S76.5
G1 Y0.583
M05
G1 Y1.19
M03 P30 S76.5
G1 Y0.583
M05
G1 X-0.03
M03 P30 S76.5
G1 Y-0.583
M05
G1 Y-1.191
M03 P30 S76.5
G1 Y-0.582
M05
G1 X-0.03
M03 P30 S76.5
G1 Y0.582
M05
G1 Y1.191
M03 P30 S76.5
G1 Y0.583
M05
G1 X-0.03
M03 P30 S76.5
G1 Y-0.583
M05
G1 Y-1.191
M03 P30 S76.5
G1 Y-0.582
M05
G1 X-0.03
M03 P30 S76.5
G1 Y0.582
M05
G1 Y1.191
M03 P30 S76.5
G1 Y0.583
M05
G1 X-0.03
M03 P30 S76.5
G1 Y-0.583
M05
G1 Y-1.191
M03 P30 S76.5
G1 Y-0.582
M05
G1 X-0.03
M03 P30 S76.5
G1 Y0.582
M05
G1 Y1.191
M03 P30 S76.5
G1 Y0.583
M05
G1 X-0.03
M03 P30 S76.5
G1 Y-0.583
M05
G1 Y-1.191
M03 P30 S76.5
G1 Y-0.582
M05
G1 X-0.03
M03 P30 S76.5
G1 Y0.582
M05
G1 Y1.191
M03 P30 S76.5
G1 Y0.583
M05
G1 X-0.03
M03 P30 S76.5
G1 Y-0.583
M05
G1 Y-1.191
M03 P30 S76.5
G1 Y-0.582
M05
G1 X-0.03
M03 P30 S76.5
G1 Y0.582
M05
G1 Y1.191
M03 P30 S76.5
G1 Y0.583
M05
G1 X-0.03
M03 P30 S76.5
G1 Y-0.583
M05
G1 Y-1.191
M03 P30 S76.5
G1 Y-0.582
M05
G1 X-0.03
M03 P30 S76.5
G1 Y0.582
M05
G1 Y1.191
M03 P30 S76.5
G1 Y0.583
M05
G1 X-0.03
M03 P30 S76.5
G1 Y-0.583
M05
G1 Y-1.191
M03 P30 S76.5
G1 Y-0.582
M05
G1 X-0.03
M03 P30 S76.5
G1 Y0.582
M05
G1 Y1.191
M03 P30 S76.5
G1 Y0.583
M05
G1 X-0.03
M03 P30 S76.5
G1 Y-0.583
M05
G1 Y-1.191
M03 P30 S76.5
G1 Y-0.582
M05
G1 X-0.03
M03 P30 S76.5
G1 Y0.582
M05
G1 Y1.191
M03 P30 S76.5
G1 Y0.583
M05
G1 X-0.03
M03 P30 S76.5
G1 Y-0.583
M05
G1 Y-1.191
M03 P30 S76.5
G1 Y-0.582
M05
G1 X-0.03
M03 P30 S76.5
G1 Y0.582
M05
G1 Y1.191
M03 P30 S76.5
G1 Y0.583
M05
G1 X-0.03
M03 P30 S76.5
G1 Y-0.583
M05
G1 Y-1.191
M03 P30 S76.5
G1 Y-0.582
M05
G1 X-0.03
M03 P30 S76.5
G1 Y0.582
M05
G1 Y1.191
M03 P30 S76.5
G1 Y0.583
M05
G1 X-0.03
M03 P30 S76.5
G1 Y-0.583
M05
G1 Y-1.191
M03 P30 S76.5
G1 Y-0.582
M05
G1 X-0.03
M03 P30 S76.5
G1 Y0.582
M05
G1 Y1.191
M03 P30 S76.5
G1 Y0.583
M05
G1 X-0.03
M03 P30 S76.5
G1 Y-0.583
M05
G1 Y-1.191
M03 P30 S76.5
G1 Y-0.582
M05
G1 X-0.03
M03 P30 S76.5
G1 Y0.582
M05
G1 Y1.191
M03 P30 S76.5
G1 Y0.583
M05
G1 X-0.03
M03 P30 S76.5
G1 Y-0.583
M05
G1 Y-1.191
M03 P30 S76.5
G1 Y-0.582
M05
G1 X-0.03
M03 P30 S76.5
G1 Y0.582
M05
G1 Y1.191
M03 P30 S76.5
G1 Y0.583
M05
G1 X-0.03
M03 P30 S76.5
G1 Y-0.583
M05
G1 Y-1.191
M03 P30 S76.5
G1 Y-0.582
M05
G1 X-0.03
M03 P30 S76.5
G1 Y0.582
M05
G1 Y1.191
M03 P30 S76.5
G1 Y0.583
M05
G1 X-0.03
M03 P30 S76.5
G1 Y-0.583
M05
G1 Y-1.191
M03 P30 S76.5
G1 Y-0.582
M05
G1 X-0.03
M03 P30 S76.5
G1 Y0.582
M05
G1 Y1.191
M03 P30 S76.5
G1 Y0.583
M05
G1 X-0.03
M03 P30 S76.5
G1 Y-0.583
M05
G1 Y-1.191
M03 P30 S76.5
G1 Y-0.582
M05
G1 X-0.03
M03 P30 S76.5
G1 Y0.582
M05
G1 Y1.191
M03 P30 S76.5
G1 Y0.583
M05
G1 X-0.03
M03 P30 S76.5
G1 Y-0.583
M05
G1 Y-1.191
M03 P30 S76.5
G1 Y-0.582
M05
G1 X-0.03
M03 P30 S76.5
G1 Y0.582
M05
G1 Y1.191
M03 P30 S76.5
G1 Y0.583
M05
G1 X-0.03
M03 P30 S76.5
G1 Y-0.583
M05
G1 Y-1.191
M03 P30 S76.5
G1 Y-0.582
M05
G1 X-0.03
M03 P30 S76.5
G1 Y0.582
M05
G1 Y1.191
M03 P30 S76.5
G1 Y0.583
M05
G1 X-0.03
M03 P30 S76.5
G1 Y-0.583
M05
G1 Y-1.191
M03 P30 S76.5
G1 Y-0.582
M05
G1 X-0.03
M03 P30 S76.5
G1 Y0.582
M05
G1 Y1.191
M03 P30 S76.5
G1 Y0.583
M05
G1 X-0.03
M03 P30 S76.5
G1 Y-0.583
M05
G1 Y-1.191
M03 P30 S76.5
G1 Y-0.582
M05
G1 X-0.03
M03 P30 S76.5
G1 Y0.582
M05
G1 Y1.191
M03 P30 S76.5
G1 Y0.583
M05
G1 X-0.03
M03 P30 S76.5
G1 Y-0.583
M05
G1 Y-1.191
M03 P30 S76.5
G1 Y-0.582
M05
G1 X-0.03
M03 P30 S76.5
G1 Y0.582
M05
G1 Y1.191
M03 P30 S76.5
G1 Y0.583
M05
G1 X-0.03
M03 P30 S76.5
G1 Y-0.583
M05
G1 Y-1.191
M03 P30 S76.5
G1 Y-0.582
M05
G1 X-0.03
M03 P30 S76.5
G1 Y0.582
M05
G1 Y1.191
M03 P30 S76.5
G1 Y0.582
M05
G1 X-0.03
M03 P30 S76.5
G1 Y-0.582
M05
G1 Y-1.191
M03 P30 S76.5
G1 Y-0.582
M05
G1 X-0.03
M03 P30 S76.5
G1 Y0.582
M05
G1 Y1.191
M03 P30 S76.5
G1 Y0.582
M05
G1 X-0.03
M03 P30 S76.5
G1 Y-0.582
M05
G1 Y-1.191
M03 P30 S76.5
G1 Y-0.582
M05
G1 X-0.03
M03 P30 S76.5
G1 Y0.582
M05
G1 Y1.191
M03 P30 S76.5
G1 Y0.582
M05
G1 X-0.03
M03 P30 S76.5
G1 Y-0.582
M05
G1 Y-1.191
M03 P30 S76.5
G1 Y-0.582
M05
G1 X-0.03
M03 P30 S76.5
G1 Y0.582
M05
G1 Y1.191
M03 P30 S76.5
G1 Y0.582
M05
G1 X-0.03
M03 P30 S76.5
G1 Y-0.582
M05
G1 Y-1.191
M03 P30 S76.5
G1 Y-0.582
M05
G1 X-0.03
M03 P30 S76.5
G1 Y0.582
M05
G1 Y1.191
M03 P30 S76.5
G1 Y0.582
M05
G1 X-0.03
M03 P30 S76.5
G1 Y-0.582
M05
G1 Y-1.191
M03 P30 S76.5
G1 Y-0.582
M05
G1 X-0.03
M03 P30 S76.5
G1 Y0.582
M05
G1 Y1.191
M03 P30 S76.5
G1 Y0.582
M05
G1 X-0.03
M03 P30 S76.5
G1 Y-0.581
M05
G1 Y-1.192
M03 P30 S76.5
G1 Y-0.582
M05
G1 X-0.03
M03 P30 S76.5
G1 Y0.582
M05
G1 Y1.194
M03 P30 S76.5
G1 Y0.576
M05
G1 X-0.03
M03 P30 S76.5
G1 Y-0.572
M05
G1 Y-1.198
M03 P30 S76.5
G1 Y-0.582
M05
G1 X-0.03
M03 P30 S76.5
G1 Y0.582
M05
G1 Y1.202
M03 P30 S76.5
G1 Y0.559
M05
G1 X-0.03Y-0.006
M03 P30 S76.5
G1 Y-0.545
M05
G1 Y-1.21
M03 P30 S76.5
G1 Y-0.582
M05
G1 X-0.03
M03 P30 S76.5
G1 Y0.582
M05
G1 Y1.219
M03 P30 S76.5
G1 Y0.526
M05
G1 X-0.03Y-0.013
M03 P30 S76.5
G1 Y-0.499
M05
G1 Y-1.233
M03 P30 S76.5
G1 Y-0.582
M05
G1 X-0.03
M03 P30 S76.5
G1 Y0.582
M05
G1 Y1.248
M03 P30 S76.5
G1 Y0.468
M05
G1 X-0.03Y-0.023
M03 P30 S76.5
G1 Y-0.418
M05
G1 Y-1.275
M03 P30 S76.5
G1 Y-0.582
M05
G1 X-0.03
M03 P30 S76.5
G1 Y0.582
M05
G1 Y1.308
M03 P30 S76.5
G1 Y0.352
M05
G1 X-0.03Y-0.054
M03 P30 S76.5
G1 Y-0.239
M05
G1 Y-1.367
M03 P30 S76.5
G1 Y-0.582
M05
G1 X-0.03
M03 P30 S76.5
G1 Y0.582
M05
G1 X-0.03
M03 P30 S76.5
G1 Y-0.582
M05
G1 X-0.03
M03 P30 S76.5
G1 Y0.582
M05
G1 X-0.03
M03 P30 S76.5
G1 Y-0.581
M05
G1 X-0.03
M03 P30 S76.5
G1 Y0.581
M05
G1 X-0.03
M03 P30 S76.5
G1 Y-0.581
M05
G1 X-0.03
M03 P30 S76.5
G1 Y0.581
M05
G1 X-0.03
M03 P30 S76.5
G1 Y-0.581
M05
G1 X-0.03
M03 P30 S76.5
G1 Y0.581
M05
G1 X-0.03
M03 P30 S76.5
G1 Y-0.581
M05
G1 X-0.03
M03 P30 S76.5
G1 Y0.58
M05
G1 X-0.03
M03 P30 S76.5
G1 Y-0.577
M05
G1 X-0.03
M03 P30 S76.5
G1 Y0.57
M05
G1 X-0.03Y-0.007
M03 P30 S76.5
G1 Y-0.554
M05
G1 X-0.03Y0.008
M03 P30 S76.5
G1 Y0.539
M05
G1 X-0.03Y-0.012
M03 P30 S76.5
G1 Y-0.519
M05
G1 X-0.03Y0.015
M03 P30 S76.5
G1 Y0.491
M05
G1 X-0.03Y-0.02
M03 P30 S76.5
G1 Y-0.455
M05
G1 X-0.03Y0.027
M03 P30 S76.5
G1 Y0.404
M05
G1 X-0.03Y-0.039
M03 P30 S76.5
G1 Y-0.328
M05
G1 X-0.03Y0.07
M03 P30 S76.5
G1 Y0.19
M05
G0 X4.171 Y-0.378 F0
M03 P30 S76.5
G1 X0.121 F2300
M05
G1 X0.079Y0.03
M03 P30 S76.5
G1 X-0.311
M05
G1 X-0.046Y0.03
M03 P30 S76.5
G1 X0.398
M05
G1 X0.025Y0.03
M03 P30 S76.5
G1 X-0.453
M05
G1 X-0.018Y0.03
M03 P30 S76.5
G1 X0.49
M05
G1 X0.014Y0.03
M03 P30 S76.5
G1 X-0.523
M05
G1 X-0.012Y0.03
M03 P30 S76.5
G1 X0.545
M05
G1 X0.008Y0.03
M03 P30 S76.5
G1 X-0.56
M05
G1 Y0.03
M03 P30 S76.5
G1 X0.567
M05
G1 Y0.03
M03 P30 S76.5
G1 X-0.573
M05
G1 Y0.03
M03 P30 S76.5
G1 X0.579
M05
G1 Y0.03
M03 P30 S76.5
G1 X-0.581
M05
G1 Y0.03
M03 P30 S76.5
G1 X0.583
M05
G1 Y0.03
M03 P30 S76.5
G1 X-0.584
M05
G1 Y0.03
M03 P30 S76.5
G1 X0.584
M05
G1 Y0.03
M03 P30 S76.5
G1 X-0.584
M05
G1 Y0.03
M03 P30 S76.5
G1 X0.584
M05
G1 Y0.03
M03 P30 S76.5
G1 X-0.584
M05
G1 Y0.03
M03 P30 S76.5
G1 X0.584
M05
G1 Y0.03
M03 P30 S76.5
G1 X-0.584
M05
G1 Y0.03
M03 P30 S76.5
G1 X0.584
M05
G1 Y0.03
M03 P30 S76.5
G1 X-0.584
M05
G1 Y0.03
M03 P30 S76.5
G1 X0.584
M05
G1 Y0.03
M03 P30 S76.5
G1 X-0.584
M05
G1 Y0.03
M03 P30 S76.5
G1 X0.584
M05
G1 Y0.03
M03 P30 S76.5
G1 X-0.584
M05
G1 Y0.03
M03 P30 S76.5
G1 X0.584
M05
G1 Y0.03
M03 P30 S76.5
G1 X-0.584
M05
G1 Y0.03
M03 P30 S76.5
G1 X0.584
M05
G1 Y0.03
M03 P30 S76.5
G1 X-0.584
M05
G1 Y0.03
M03 P30 S76.5
G1 X0.584
M05
G1 Y0.03
M03 P30 S76.5
G1 X-0.584
M05
G1 Y0.03
M03 P30 S76.5
G1 X0.584
M05
G1 Y0.03
M03 P30 S76.5
G1 X-0.584
M05
G1 Y0.03
M03 P30 S76.5
G1 X0.584
M05
G1 Y0.03
M03 P30 S76.5
G1 X-0.584
M05
G1 Y0.03
M03 P30 S76.5
G1 X0.584
M05
G1 Y0.03
M03 P30 S76.5
G1 X-0.584
M05
G1 Y0.03
M03 P30 S76.5
G1 X0.584
M05
G1 Y0.03
M03 P30 S76.5
G1 X-0.584
M05
G1 Y0.03
M03 P30 S76.5
G1 X0.584
M05
G1 Y0.03
M03 P30 S76.5
G1 X-0.584
M05
G1 Y0.03
M03 P30 S76.5
G1 X0.584
M05
G1 Y0.03
M03 P30 S76.5
G1 X-0.584
M05
G1 Y0.03
M03 P30 S76.5
G1 X0.584
M05
G1 Y0.03
M03 P30 S76.5
G1 X-0.584
M05
G1 Y0.03
M03 P30 S76.5
G1 X0.584
M05
G1 Y0.03
M03 P30 S76.5
G1 X-0.584
M05
G1 Y0.03
M03 P30 S76.5
G1 X0.584
M05
G1 Y0.03
M03 P30 S76.5
G1 X-0.584
M05
G1 Y0.03
M03 P30 S76.5
G1 X0.583
M05
G1 Y0.03
M03 P30 S76.5
G1 X-0.583
M05
G1 Y0.03
M03 P30 S76.5
G1 X0.583
M05
G1 Y0.03
M03 P30 S76.5
G1 X-0.583
M05
G1 Y0.03
M03 P30 S76.5
G1 X0.583
M05
G1 Y0.03
M03 P30 S76.5
G1 X-0.583
M05
G1 Y0.03
M03 P30 S76.5
G1 X0.583
M05
G1 Y0.03
M03 P30 S76.5
G1 X-0.583
M05
G1 Y0.03
M03 P30 S76.5
G1 X0.583
M05
G1 Y0.03
M03 P30 S76.5
G1 X-0.582
M05
G1 Y0.03
M03 P30 S76.5
G1 X0.582
M05
G1 Y0.03
M03 P30 S76.5
G1 X-0.582
M05
G1 Y0.03
M03 P30 S76.5
G1 X0.582
M05
G1 Y0.03
M03 P30 S76.5
G1 X-0.582
M05
G1 Y0.03
M03 P30 S76.5
G1 X0.582
M05
G1 Y0.03
M03 P30 S76.5
G1 X-0.582
M05
G1 Y0.03
M03 P30 S76.5
G1 X0.582
M05
G1 Y0.03
M03 P30 S76.5
G1 X-0.582
M05
G1 Y0.03
M03 P30 S76.5
G1 X0.582
M05
G1 Y0.03
M03 P30 S76.5
G1 X-0.582
M05
G1 Y0.03
M03 P30 S76.5
G1 X0.582
M05
G1 Y0.03
M03 P30 S76.5
G1 X-0.582
M05
G1 Y0.03
M03 P30 S76.5
G1 X0.582
M05
G1 Y0.03
M03 P30 S76.5
G1 X-0.582
M05
G1 Y0.03
M03 P30 S76.5
G1 X0.582
M05
G1 Y0.03
M03 P30 S76.5
G1 X-0.582
M05
G1 Y0.03
M03 P30 S76.5
G1 X0.582
M05
G1 Y0.03
M03 P30 S76.5
G1 X-0.582
M05
G1 Y0.03
M03 P30 S76.5
G1 X0.582
M05
G1 Y0.03
M03 P30 S76.5
G1 X-0.582
M05
G1 Y0.03
M03 P30 S76.5
G1 X0.582
M05
G1 Y0.03
M03 P30 S76.5
G1 X-0.582
M05
G1 Y0.03
M03 P30 S76.5
G1 X0.582
M05
G1 Y0.03
M03 P30 S76.5
G1 X-0.582
M05
G1 Y0.03
M03 P30 S76.5
G1 X0.582
M05
G1 Y0.03
M03 P30 S76.5
G1 X-0.582
M05
G1 Y0.03
M03 P30 S76.5
G1 X0.582
M05
G1 Y0.03
M03 P30 S76.5
G1 X-0.582
M05
G1 Y0.03
M03 P30 S76.5
G1 X0.582
M05
G1 Y0.03
M03 P30 S76.5
G1 X-0.582
M05
G1 Y0.03
M03 P30 S76.5
G1 X0.582
M05
G1 Y0.03
M03 P30 S76.5
G1 X-0.582
M05
G1 Y0.03
M03 P30 S76.5
G1 X0.582
M05
G1 Y0.03
M03 P30 S76.5
G1 X-0.582
M05
G1 Y0.03
M03 P30 S76.5
G1 X0.582
M05
G1 Y0.03
M03 P30 S76.5
G1 X-0.582
M05
G1 Y0.03
M03 P30 S76.5
G1 X0.583
M05
G1 Y0.03
M03 P30 S76.5
G1 X-0.583
M05
G1 Y0.03
M03 P30 S76.5
G1 X0.585
M05
G1 Y0.03
M03 P30 S76.5
G1 X-0.585
M05
G1 Y0.03
M03 P30 S76.5
G1 X0.587
M05
G1 Y0.03
M03 P30 S76.5
G1 X-0.585
M05
G1 Y0.03
M03 P30 S76.5
G1 X0.588
M05
G1 Y0.03
M03 P30 S76.5
G1 X-0.587
M05
G1 Y0.03
M03 P30 S76.5
G1 X0.594
M05
G1 Y0.03
M03 P30 S76.5
G1 X-0.591
M05
G1 Y0.03
M03 P30 S76.5
G1 X0.598
M05
G1 Y0.03
M03 P30 S76.5
G1 X-0.593
M05
G1 Y0.03
M03 P30 S76.5
G1 X0.6
M05
G1 X0.006Y0.03
M03 P30 S76.5
G1 X-0.6
M05
G1 Y0.03
M03 P30 S76.5
G1 X0.605
M05
G1 X0.006Y0.03
M03 P30 S76.5
G1 X-0.603
M05
G1 X0.006Y0.03
M03 P30 S76.5
G1 X0.605
M05
G1 X0.008Y0.03
M03 P30 S76.5
G1 X-0.607
M05
G1 X0.006Y0.03
M03 P30 S76.5
G1 X0.609
M05
G1 X0.011Y0.03
M03 P30 S76.5
G1 X-0.614
M05
G1 X0.007Y0.03
M03 P30 S76.5
G1 X0.618
M05
G1 X0.011Y0.03
M03 P30 S76.5
G1 X-0.62
M05
G1 X0.009Y0.03
M03 P30 S76.5
G1 X0.626
M05
G1 X0.015Y0.03
M03 P30 S76.5
G1 X-0.631
M05
G1 X0.009Y0.03
M03 P30 S76.5
G1 X0.638
M05
G1 X0.021Y0.03
M03 P30 S76.5
G1 X-0.649
M05
G1 X0.01Y0.03
M03 P30 S76.5
G1 X0.66
M05
G1 X0.02Y0.03
M03 P30 S76.5
G1 X-0.667
M05
G1 X0.013Y0.03
M03 P30 S76.5
G1 X0.677
M05
G1 X0.028Y0.03
M03 P30 S76.5
G1 X-0.691
M05
G1 X0.014Y0.03
M03 P30 S76.5
G1 X0.704
M05
G1 X0.028Y0.03
M03 P30 S76.5
G1 X-0.717
M05
G1 X0.016Y0.03
M03 P30 S76.5
G1 X0.735
M05
G1 X1.494
M03 P30 S76.5
G1 X0.748
M05
G1 X-0.019Y0.03
M03 P30 S76.5
G1 X-0.762
M05
G1 X-1.425
M03 P30 S76.5
G1 X-0.755
M05
G1 X0.017Y0.03
M03 P30 S76.5
G1 X0.773
M05
G1 X1.353
M03 P30 S76.5
G1 X0.781
M05
G1 X-0.018Y0.03
M03 P30 S76.5
G1 X-0.803
M05
G1 X-1.269
M03 P30 S76.5
G1 X-0.799
M05
G1 X0.019Y0.03
M03 P30 S76.5
G1 X0.827
M05
G1 X1.178
M03 P30 S76.5
G1 X0.829
M05
G1 X-0.021Y0.03
M03 P30 S76.5
G1 X-0.857
M05
G1 X-1.081
M03 P30 S76.5
G1 X-0.857
M05
G1 X0.022Y0.03
M03 P30 S76.5
G1 X0.898
M05
G1 X0.96
M03 P30 S76.5
G1 X0.893
M05
G1 X-0.023Y0.03
M03 P30 S76.5
G1 X-0.936
M05
G1 X-0.831
M03 P30 S76.5
G1 X-0.939
M05
G1 X0.022Y0.03
M03 P30 S76.5
G1 X1.009
M05
G1 X0.656
M03 P30 S76.5
G1 X0.997
M05
G1 X-0.023Y0.03
M03 P30 S76.5
G1 X-1.096
M05
G1 X-0.411
M03 P30 S76.5
G1 X-1.107
M05
G1 X0.026Y0.03
M03 P30 S76.5
G1 X2.56
M05
G1 X-0.027Y0.03
M03 P30 S76.5
G1 X-2.508
M05
G1 X0.028Y0.03
M03 P30 S76.5
G1 X2.452
M05
G1 X-0.028Y0.03
M03 P30 S76.5
G1 X-2.395
M05
G1 X0.03Y0.03
M03 P30 S76.5
G1 X2.332
M05
G1 X-0.033Y0.03
M03 P30 S76.5
G1 X-2.266
M05
G1 X0.035Y0.03
M03 P30 S76.5
G1 X2.197
M05
G1 X-0.036Y0.03
M03 P30 S76.5
G1 X-2.125
M05
G1 X0.04Y0.03
M03 P30 S76.5
G1 X2.044
M05
G1 X-0.041Y0.03
M03 P30 S76.5
G1 X-1.962
M05
G1 X0.043Y0.03
M03 P30 S76.5
G1 X1.877
M05
G1 X-0.051Y0.03
M03 P30 S76.5
G1 X-1.778
M05
G1 X0.049Y0.03
M03 P30 S76.5
G1 X1.677
M05
G1 X-0.055Y0.03
M03 P30 S76.5
G1 X-1.565
M05
G1 X0.061Y0.03
M03 P30 S76.5
G1 X1.437
M05
G1 X-0.066Y0.03
M03 P30 S76.5
G1 X-1.3
M05
G1 X0.081Y0.03
M03 P30 S76.5
G1 X1.131
M05
G1 X-0.097Y0.03
M03 P30 S76.5
G1 X-0.938
M05
G1 X0.125Y0.03
M03 P30 S76.5
G1 X0.682
M05
G1 X-0.254Y0.03
M03 P30 S76.5
G1 X-0.213
M05
G1 X1.498Y-2.1
M03 P30 S76.5
G1 X0.043
M05
G1 X0.118Y0.03
M03 P30 S76.5
G1 X-0.272
M05
G1 X-0.054Y0.03
M03 P30 S76.5
G1 X0.377
M05
G1 X0.036Y0.03
M03 P30 S76.5
G1 X-0.447
M05
G1 X-0.018Y0.03
M03 P30 S76.5
G1 X0.488
M05
G1 X0.019Y0.03
M03 P30 S76.5
G1 X-0.525
M05
G1 X-0.01Y0.03
M03 P30 S76.5
G1 X0.552
M05
G1 X0.008Y0.03
M03 P30 S76.5
G1 X-0.566
M05
G1 Y0.03
M03 P30 S76.5
G1 X0.574
M05
G1 Y0.03
M03 P30 S76.5
G1 X-0.581
M05
G1 Y0.03
M03 P30 S76.5
G1 X0.588
M05
G1 Y0.03
M03 P30 S76.5
G1 X-0.591
M05
G1 Y0.03
M03 P30 S76.5
G1 X0.593
M05
G1 Y0.03
M03 P30 S76.5
G1 X-0.594
M05
G1 Y0.03
M03 P30 S76.5
G1 X0.596
M05
G1 Y0.03
M03 P30 S76.5
G1 X-0.598
M05
G1 Y0.03
M03 P30 S76.5
G1 X0.594
M05
G1 Y0.03
M03 P30 S76.5
G1 X-0.599
M05
G1 Y0.03
M03 P30 S76.5
G1 X0.595
M05
G1 Y0.03
M03 P30 S76.5
G1 X-0.602
M05
G1 Y0.03
M03 P30 S76.5
G1 X0.597
M05
G1 Y0.03
M03 P30 S76.5
G1 X-0.605
M05
G1 X-0.007Y0.03
M03 P30 S76.5
G1 X0.603
M05
G1 Y0.03
M03 P30 S76.5
G1 X-0.61
M05
G1 X-0.007Y0.03
M03 P30 S76.5
G1 X0.608
M05
G1 Y0.03
M03 P30 S76.5
G1 X-0.617
M05
G1 X-0.01Y0.03
M03 P30 S76.5
G1 X0.616
M05
G1 X-0.007Y0.03
M03 P30 S76.5
G1 X-0.62
M05
G1 X-0.01Y0.03
M03 P30 S76.5
G1 X0.622
M05
G1 X-0.007Y0.03
M03 P30 S76.5
G1 X-0.629
M05
G1 X-0.013Y0.03
M03 P30 S76.5
G1 X0.635
M05
G1 X-0.009Y0.03
M03 P30 S76.5
G1 X-0.64
M05
G1 X-0.017Y0.03
M03 P30 S76.5
G1 X0.647
M05
G1 X-0.01Y0.03
M03 P30 S76.5
G1 X-0.655
M05
G1 X-0.018Y0.03
M03 P30 S76.5
G1 X0.662
M05
G1 X-0.01Y0.03
M03 P30 S76.5
G1 X-0.672
M05
G1 X-0.023Y0.03
M03 P30 S76.5
G1 X0.683
M05
G1 X-0.014Y0.03
M03 P30 S76.5
G1 X-0.691
M05
G1 X-0.026Y0.03
M03 P30 S76.5
G1 X0.704
M05
G1 X-0.014Y0.03
M03 P30 S76.5
G1 X-0.717
M05
G1 X-0.027Y0.03
M03 P30 S76.5
G1 X0.73
M05
G1 X0.163Y-1.011
M03 P30 S76.5
G1 Y0.49
M05
G1 X-0.03Y0.153
M03 P30 S76.5
G1 Y-0.699
M05
G1 X-0.03Y-0.042
M03 P30 S76.5
G1 Y0.853
M05
G1 X-0.03Y0.087
M03 P30 S76.5
G1 Y-0.966
M05
G1 X-0.03Y-0.021
M03 P30 S76.5
G1 Y1.062
M05
G1 X-0.03Y0.065
M03 P30 S76.5
G1 Y-1.142
M05
G1 X-0.03Y-0.013
M03 P30 S76.5
G1 Y1.216
M05
G1 X-0.03Y0.049
M03 P30 S76.5
G1 Y-1.273
M05
G1 X-0.03
M03 P30 S76.5
G1 Y1.322
M05
G1 X-0.03Y0.047
M03 P30 S76.5
G1 Y-1.378
M05
G1 X-0.03
M03 P30 S76.5
G1 Y1.418
M05
G1 X-0.03Y0.04
M03 P30 S76.5
G1 Y-1.455
M05
G1 X-0.03
M03 P30 S76.5
G1 Y1.495
M05
G1 X-0.03Y0.033
M03 P30 S76.5
G1 Y-1.513
M05
G1 X-0.03Y0.013
M03 P30 S76.5
G1 Y1.532
M05
G1 X-0.03Y0.033
M03 P30 S76.5
G1 Y-1.551
M05
G1 X-0.03Y0.02
M03 P30 S76.5
G1 Y1.562
M05
G1 X-0.03Y0.027
M03 P30 S76.5
G1 Y-1.561
M05
G1 X-0.03Y0.05
M03 P30 S76.5
G1 Y1.538
M05
G1 X-0.03Y0.027
M03 P30 S76.5
G1 Y-1.38
M05
G1 X-0.03Y0.332
M03 P30 S76.5
G1 Y1.074
M05
G1 X-0.03Y0.022
M03 P30 S76.5
G1 Y-0.985
M05
G1 X-0.03Y0.082
M03 P30 S76.5
G1 Y0.925
M05
G1 X-0.03Y0.022
M03 P30 S76.5
G1 Y-0.881
M05
G1 X-0.03Y0.055
M03 P30 S76.5
G1 Y0.848
M05
G1 X-0.03Y0.019
M03 P30 S76.5
G1 Y-0.817
M05
G1 X-0.03Y0.042
M03 P30 S76.5
G1 Y0.792
M05
G1 X-0.03Y0.017
M03 P30 S76.5
G1 Y-0.769
M05
G1 X-0.03Y0.036
M03 P30 S76.5
G1 Y0.751
M05
G1 X-0.03Y0.017
M03 P30 S76.5
G1 Y-0.735
M05
G1 X-0.03Y0.032
M03 P30 S76.5
G1 Y0.717
M05
G1 X-0.03Y0.014
M03 P30 S76.5
G1 Y-0.704
M05
G1 X-0.03Y0.028
M03 P30 S76.5
G1 Y0.689
M05
G1 X-0.03Y0.014
M03 P30 S76.5
G1 Y-0.679
M05
G1 X-0.03Y0.023
M03 P30 S76.5
G1 Y0.67
M05
G1 X-0.03Y0.01
M03 P30 S76.5
G1 Y-0.658
M05
G1 X-0.03Y0.019
M03 P30 S76.5
G1 Y0.65
M05
G1 X-0.03Y0.01
M03 P30 S76.5
G1 Y-0.641
M05
G1 X-0.03Y0.018
M03 P30 S76.5
G1 Y0.633
M05
G1 X-0.03Y0.01
M03 P30 S76.5
G1 Y-0.628
M05
G1 X-0.03Y0.015
M03 P30 S76.5
G1 Y0.622
M05
G1 X-0.03Y0.006
M03 P30 S76.5
G1 Y-0.614
M05
G1 X-0.03Y0.012
M03 P30 S76.5
G1 Y0.609
M05
G1 X-0.03Y0.007
M03 P30 S76.5
G1 Y-0.605
M05
G1 X-0.03Y0.011
M03 P30 S76.5
G1 Y0.601
M05
G1 X-0.03Y0.007
M03 P30 S76.5
G1 Y-0.598
M05
G1 X-0.03Y0.007
M03 P30 S76.5
G1 Y0.595
M05
G1 X-0.03
M03 P30 S76.5
G1 Y-0.587
M05
G1 X-0.03Y0.007
M03 P30 S76.5
G1 Y0.588
M05
G1 X-0.03
M03 P30 S76.5
G1 Y-0.583
M05
G1 X-0.03Y0.005
M03 P30 S76.5
G1 Y0.587
M05
G1 X-0.03
M03 P30 S76.5
G1 Y-0.582
M05
G1 X-0.03
M03 P30 S76.5
G1 Y0.587
M05
G1 X-0.03
M03 P30 S76.5
G1 Y-0.581
M05
G1 X-0.03
M03 P30 S76.5
G1 Y0.584
M05
G1 X-0.03
M03 P30 S76.5
G1 Y-0.58
M05
G1 X-0.03
M03 P30 S76.5
G1 Y0.584
M05
G1 X-0.03
M03 P30 S76.5
G1 Y-0.586
M05
G1 X-0.03
M03 P30 S76.5
G1 Y0.583
M05
G1 X-0.03
M03 P30 S76.5
G1 Y-0.588
M05
G1 X-0.03
M03 P30 S76.5
G1 Y0.586
M05
G1 X-0.03
M03 P30 S76.5
G1 Y-0.593
M05
G1 X-0.03Y-0.006
M03 P30 S76.5
G1 Y0.593
M05
G1 X-0.03
M03 P30 S76.5
G1 Y-0.599
M05
G1 X-0.03Y-0.006
M03 P30 S76.5
G1 Y0.599
M05
G1 X-0.03Y-0.005
M03 P30 S76.5
G1 Y-0.6
M05
G1 X-0.03Y-0.009
M03 P30 S76.5
G1 Y0.603
M05
G1 X-0.03Y-0.005
M03 P30 S76.5
G1 Y-0.608
M05
G1 X-0.03Y-0.01
M03 P30 S76.5
G1 Y0.612
M05
G1 X-0.03Y-0.006
M03 P30 S76.5
G1 Y-0.616
M05
G1 X-0.03Y-0.011
M03 P30 S76.5
G1 Y0.619
M05
G1 X-0.03Y-0.008
M03 P30 S76.5
G1 Y-0.626
M05
G1 X-0.03Y-0.014
M03 P30 S76.5
G1 Y0.632
M05
G1 X-0.03Y-0.008
M03 P30 S76.5
G1 Y-0.639
M05
G1 X-0.03Y-0.015
M03 P30 S76.5
G1 Y0.643
M05
G1 X-0.03Y-0.01
M03 P30 S76.5
G1 Y-0.652
M05
G1 X-0.03Y-0.019
M03 P30 S76.5
G1 Y0.661
M05
G1 X-0.03Y-0.011
M03 P30 S76.5
G1 Y-0.669
M05
G1 X-0.03Y-0.02
M03 P30 S76.5
G1 Y0.676
M05
G1 X-0.03Y-0.013
M03 P30 S76.5
G1 Y-0.688
M05
G1 X-0.03Y-0.025
M03 P30 S76.5
G1 Y0.701
M05
G1 X-0.03Y-0.015
M03 P30 S76.5
G1 Y-0.711
M05
G1 X-0.03Y-0.028
M03 P30 S76.5
G1 Y0.724
M05
G1 X-0.03Y-0.016
M03 P30 S76.5
G1 Y-0.741
M05
G1 X-0.03Y-0.033
M03 P30 S76.5
G1 Y0.758
M05
G1 X-0.03Y-0.018
M03 P30 S76.5
G1 Y-0.774
M05
G1 X-0.03Y-0.043
M03 P30 S76.5
G1 Y0.798
M05
G1 X-0.03Y-0.019
M03 P30 S76.5
G1 Y-0.823
M05
G1 X-0.03Y-0.05
M03 P30 S76.5
G1 Y0.853
M05
G1 X-0.03Y-0.022
M03 P30 S76.5
G1 Y-0.892
M05
G1 X-0.03Y-0.083
M03 P30 S76.5
G1 Y0.953
M05
G1 X-0.03Y-0.022
M03 P30 S76.5
G1 Y-1.049
M05
G1 X-0.03Y-0.218
M03 P30 S76.5
G1 Y1.241
M05
G1 X-0.03Y-0.025
M03 P30 S76.5
G1 Y-4.112
M05
G1 X-0.03Y-0.077
M03 P30 S76.5
G1 Y4.164
M05
G1 X-0.03Y-0.03
M03 P30 S76.5
G1 Y-4.175
M05
G1 X-0.03Y-0.03
M03 P30 S76.5
G1 Y4.174
M05
G1 X-0.03Y-0.03
M03 P30 S76.5
G1 Y-4.162
M05
G1 X-0.03Y-0.014
M03 P30 S76.5
G1 Y4.141
M05
G1 X-0.03Y-0.035
M03 P30 S76.5
G1 Y-4.114
M05
G1 X-0.03Y-0.007
M03 P30 S76.5
G1 Y4.085
M05
G1 X-0.03Y-0.041
M03 P30 S76.5
G1 Y-4.045
M05
G1 X-0.03
M03 P30 S76.5
G1 Y4.004
M05
G1 X-0.03Y-0.046
M03 P30 S76.5
G1 Y-3.955
M05
G1 X-0.03
M03 P30 S76.5
G1 Y3.905
M05
G1 X-0.03Y-0.053
M03 P30 S76.5
G1 Y-3.844
M05
G1 X-0.03Y0.009
M03 P30 S76.5
G1 Y3.778
M05
G1 X-0.03Y-0.064
M03 P30 S76.5
G1 Y-3.701
M05
G1 X-0.03Y0.018
M03 P30 S76.5
G1 Y3.614
M05
G1 X-0.03Y-0.092
M03 P30 S76.5
G1 Y-3.498
M05
G1 X-0.03Y0.037
M03 P30 S76.5
G1 Y3.362
M05
G1 X-0.03Y-0.148
M03 P30 S76.5
G1 Y-3.166
M05
G0 X6.417 Y-0.156 F0
M03 P30 S76.5
G1 X2.636 F2300
M05
G1 X0.158Y0.03
M03 P30 S76.5
G1 X-2.921
M05
G1 X-0.057Y0.03
M03 P30 S76.5
G1 X3.039
M05
G1 X0.041Y0.03
M03 P30 S76.5
G1 X-3.113
M05
G1 X-0.025Y0.03
M03 P30 S76.5
G1 X3.162
M05
G1 X0.02Y0.03
M03 P30 S76.5
G1 X-3.2
M05
G1 X-0.013Y0.03
M03 P30 S76.5
G1 X3.225
M05
G1 X0.007Y0.03
M03 P30 S76.5
G1 X-3.241
M05
G1 X-0.006Y0.03
M03 P30 S76.5
G1 X3.249
M05
G1 Y0.03
M03 P30 S76.5
G1 X-3.252
M05
G1 Y0.03
M03 P30 S76.5
G1 X3.253
M05
G1 Y0.03
M03 P30 S76.5
G1 X-3.253
M05
G1 Y0.03
M03 P30 S76.5
G1 X3.245
M05
G1 X-0.009Y0.03
M03 P30 S76.5
G1 X-3.224
M05
G1 X0.01Y0.03
M03 P30 S76.5
G1 X3.202
M05
G1 X-0.018Y0.03
M03 P30 S76.5
G1 X-3.166
M05
G1 X0.022Y0.03
M03 P30 S76.5
G1 X3.12
M05
G1 X-0.034Y0.03
M03 P30 S76.5
G1 X-3.05
M05
G1 X0.054Y0.03
M03 P30 S76.5
G1 X2.942
M05
G1 X-0.11Y0.03
M03 P30 S76.5
G1 X-2.713
M05
G1 X1.067Y0.03
M03 P30 S76.5
G1 X0.583
M05
G1 Y0.03
M03 P30 S76.5
G1 X-0.583
M05
G1 Y0.03
M03 P30 S76.5
G1 X0.583
M05
G1 Y0.03
M03 P30 S76.5
G1 X-0.583
M05
G1 Y0.03
M03 P30 S76.5
G1 X0.583
M05
G1 Y0.03
M03 P30 S76.5
G1 X-0.583
M05
G1 Y0.03
M03 P30 S76.5
G1 X0.583
M05
G1 Y0.03
M03 P30 S76.5
G1 X-0.583
M05
G1 Y0.03
M03 P30 S76.5
G1 X0.583
M05
G1 Y0.03
M03 P30 S76.5
G1 X-0.583
M05
G1 Y0.03
M03 P30 S76.5
G1 X0.583
M05
G1 Y0.03
M03 P30 S76.5
G1 X-0.583
M05
G1 Y0.03
M03 P30 S76.5
G1 X0.583
M05
G1 Y0.03
M03 P30 S76.5
G1 X-0.583
M05
G1 Y0.03
M03 P30 S76.5
G1 X0.583
M05
G1 Y0.03
M03 P30 S76.5
G1 X-0.583
M05
G1 Y0.03
M03 P30 S76.5
G1 X0.583
M05
G1 Y0.03
M03 P30 S76.5
G1 X-0.583
M05
G1 Y0.03
M03 P30 S76.5
G1 X0.583
M05
G1 Y0.03
M03 P30 S76.5
G1 X-0.583
M05
G1 Y0.03
M03 P30 S76.5
G1 X0.583
M05
G1 Y0.03
M03 P30 S76.5
G1 X-0.583
M05
G1 Y0.03
M03 P30 S76.5
G1 X0.583
M05
G1 Y0.03
M03 P30 S76.5
G1 X-0.583
M05
G1 Y0.03
M03 P30 S76.5
G1 X0.583
M05
G1 Y0.03
M03 P30 S76.5
G1 X-0.583
M05
G1 Y0.03
M03 P30 S76.5
G1 X0.583
M05
G1 Y0.03
M03 P30 S76.5
G1 X-0.583
M05
G1 Y0.03
M03 P30 S76.5
G1 X0.583
M05
G1 Y0.03
M03 P30 S76.5
G1 X-0.583
M05
G1 Y0.03
M03 P30 S76.5
G1 X0.583
M05
G1 Y0.03
M03 P30 S76.5
G1 X-0.583
M05
G1 Y0.03
M03 P30 S76.5
G1 X0.583
M05
G1 Y0.03
M03 P30 S76.5
G1 X-0.583
M05
G1 Y0.03
M03 P30 S76.5
G1 X0.583
M05
G1 Y0.03
M03 P30 S76.5
G1 X-0.583
M05
G1 Y0.03
M03 P30 S76.5
G1 X0.583
M05
G1 Y0.03
M03 P30 S76.5
G1 X-0.583
M05
G1 Y0.03
M03 P30 S76.5
G1 X0.583
M05
G1 Y0.03
M03 P30 S76.5
G1 X-0.583
M05
G1 Y0.03
M03 P30 S76.5
G1 X0.583
M05
G1 Y0.03
M03 P30 S76.5
G1 X-0.583
M05
G1 Y0.03
M03 P30 S76.5
G1 X0.583
M05
G1 Y0.03
M03 P30 S76.5
G1 X-0.583
M05
G1 Y0.03
M03 P30 S76.5
G1 X0.583
M05
G1 Y0.03
M03 P30 S76.5
G1 X-0.583
M05
G1 Y0.03
M03 P30 S76.5
G1 X0.583
M05
G1 Y0.03
M03 P30 S76.5
G1 X-0.583
M05
G1 Y0.03
M03 P30 S76.5
G1 X0.583
M05
G1 Y0.03
M03 P30 S76.5
G1 X-0.583
M05
G1 Y0.03
M03 P30 S76.5
G1 X0.583
M05
G1 Y0.03
M03 P30 S76.5
G1 X-0.583
M05
G1 Y0.03
M03 P30 S76.5
G1 X0.583
M05
G1 Y0.03
M03 P30 S76.5
G1 X-0.583
M05
G1 Y0.03
M03 P30 S76.5
G1 X0.583
M05
G1 Y0.03
M03 P30 S76.5
G1 X-0.583
M05
G1 Y0.03
M03 P30 S76.5
G1 X0.584
M05
G1 Y0.03
M03 P30 S76.5
G1 X-0.584
M05
G1 Y0.03
M03 P30 S76.5
G1 X0.584
M05
G1 Y0.03
M03 P30 S76.5
G1 X-0.584
M05
G1 Y0.03
M03 P30 S76.5
G1 X0.584
M05
G1 Y0.03
M03 P30 S76.5
G1 X-0.584
M05
G1 Y0.03
M03 P30 S76.5
G1 X0.584
M05
G1 Y0.03
M03 P30 S76.5
G1 X-0.584
M05
G1 Y0.03
M03 P30 S76.5
G1 X0.584
M05
G1 Y0.03
M03 P30 S76.5
G1 X-0.584
M05
G1 Y0.03
M03 P30 S76.5
G1 X0.584
M05
G1 Y0.03
M03 P30 S76.5
G1 X-0.584
M05
G1 Y0.03
M03 P30 S76.5
G1 X0.584
M05
G1 Y0.03
M03 P30 S76.5
G1 X-0.584
M05
G1 Y0.03
M03 P30 S76.5
G1 X0.584
M05
G1 Y0.03
M03 P30 S76.5
G1 X-0.584
M05
G1 Y0.03
M03 P30 S76.5
G1 X0.584
M05
G1 Y0.03
M03 P30 S76.5
G1 X-0.584
M05
G1 Y0.03
M03 P30 S76.5
G1 X0.584
M05
G1 Y0.03
M03 P30 S76.5
G1 X-0.584
M05
G1 Y0.03
M03 P30 S76.5
G1 X0.584
M05
G1 Y0.03
M03 P30 S76.5
G1 X-0.584
M05
G1 Y0.03
M03 P30 S76.5
G1 X0.584
M05
G1 Y0.03
M03 P30 S76.5
G1 X-0.584
M05
G1 Y0.03
M03 P30 S76.5
G1 X0.584
M05
G1 Y0.03
M03 P30 S76.5
G1 X-0.584
M05
G1 Y0.03
M03 P30 S76.5
G1 X0.584
M05
G1 Y0.03
M03 P30 S76.5
G1 X-0.584
M05
G1 Y0.03
M03 P30 S76.5
G1 X0.584
M05
G1 Y0.03
M03 P30 S76.5
G1 X-0.584
M05
G1 Y0.03
M03 P30 S76.5
G1 X0.584
M05
G1 Y0.03
M03 P30 S76.5
G1 X-0.584
M05
G1 Y0.03
M03 P30 S76.5
G1 X0.584
M05
G1 Y0.03
M03 P30 S76.5
G1 X-0.584
M05
G1 Y0.03
M03 P30 S76.5
G1 X0.584
M05
G1 Y0.03
M03 P30 S76.5
G1 X-0.584
M05
G1 Y0.03
M03 P30 S76.5
G1 X0.584
M05
G1 Y0.03
M03 P30 S76.5
G1 X-0.584
M05
G1 Y0.03
M03 P30 S76.5
G1 X0.584
M05
G1 Y0.03
M03 P30 S76.5
G1 X-0.584
M05
G1 Y0.03
M03 P30 S76.5
G1 X0.584
M05
G1 Y0.03
M03 P30 S76.5
G1 X-0.584
M05
G1 Y0.03
M03 P30 S76.5
G1 X0.584
M05
G1 Y0.03
M03 P30 S76.5
G1 X-0.584
M05
G1 Y0.03
M03 P30 S76.5
G1 X0.584
M05
G1 Y0.03
M03 P30 S76.5
G1 X-0.584
M05
G1 Y0.03
M03 P30 S76.5
G1 X0.584
M05
G1 Y0.03
M03 P30 S76.5
G1 X-0.584
M05
G1 Y0.03
M03 P30 S76.5
G1 X0.584
M05
G1 Y0.03
M03 P30 S76.5
G1 X-0.584
M05
G1 Y0.03
M03 P30 S76.5
G1 X0.584
M05
G1 Y0.03
M03 P30 S76.5
G1 X-0.584
M05
G1 Y0.03
M03 P30 S76.5
G1 X0.584
M05
G1 Y0.03
M03 P30 S76.5
G1 X-0.584
M05
G1 Y0.03
M03 P30 S76.5
G1 X0.584
M05
G1 Y0.03
M03 P30 S76.5
G1 X-0.584
M05
G1 Y0.03
M03 P30 S76.5
G1 X0.584
M05
G1 Y0.03
M03 P30 S76.5
G1 X-0.584
M05
G1 Y0.03
M03 P30 S76.5
G1 X0.584
M05
G1 Y0.03
M03 P30 S76.5
G1 X-0.584
M05
G1 Y0.03
M03 P30 S76.5
G1 X0.584
M05
G1 Y0.03
M03 P30 S76.5
G1 X-0.584
M05
G1 Y0.03
M03 P30 S76.5
G1 X0.584
M05
G1 Y0.03
M03 P30 S76.5
G1 X-0.584
M05
G1 Y0.03
M03 P30 S76.5
G1 X0.584
M05
G1 Y0.03
M03 P30 S76.5
G1 X-0.584
M05
G1 Y0.03
M03 P30 S76.5
G1 X0.584
M05
G1 Y0.03
M03 P30 S76.5
G1 X-0.584
M05
G1 Y0.03
M03 P30 S76.5
G1 X0.584
M05
G1 Y0.03
M03 P30 S76.5
G1 X-0.584
M05
G1 Y0.03
M03 P30 S76.5
G1 X0.584
M05
G1 Y0.03
M03 P30 S76.5
G1 X-0.582
M05
G1 Y0.03
M03 P30 S76.5
G1 X0.58
M05
G1 Y0.03
M03 P30 S76.5
G1 X-0.578
M05
G1 X0.005Y0.03
M03 P30 S76.5
G1 X0.569
M05
G1 X-0.007Y0.03
M03 P30 S76.5
G1 X-0.554
M05
G1 X0.01Y0.03
M03 P30 S76.5
G1 X0.533
M05
G1 X-0.019Y0.03
M03 P30 S76.5
G1 X-0.494
M05
G1 X0.021Y0.03
M03 P30 S76.5
G1 X0.449
M05
G1 X-0.034Y0.03
M03 P30 S76.5
G1 X-0.385
M05
G1 X0.043Y0.03
M03 P30 S76.5
G1 X0.295
M05
G1 X-0.089Y0.03
M03 P30 S76.5
G1 X-0.105
M05
G1 X1.652Y-4.559
M03 P30 S76.5
G1 Y0.252
M05
G1 X-0.03Y0.054
M03 P30 S76.5
G1 Y-0.349
M05
G1 X-0.03Y-0.031
M03 P30 S76.5
G1 Y0.412
M05
G1 X-0.03Y0.026
M03 P30 S76.5
G1 Y-0.458
M05
G1 X-0.03Y-0.017
M03 P30 S76.5
G1 Y0.491
M05
G1 X-0.03Y0.016
M03 P30 S76.5
G1 Y-0.518
M05
G1 X-0.03Y-0.011
M03 P30 S76.5
G1 Y0.537
M05
G1 X-0.03Y0.009
M03 P30 S76.5
G1 Y-0.552
M05
G1 X-0.03Y-0.007
M03 P30 S76.5
G1 Y0.564
M05
G1 X-0.03
M03 P30 S76.5
G1 Y-0.567
M05
G1 X-0.03
M03 P30 S76.5
G1 Y0.574
M05
G1 X-0.03
M03 P30 S76.5
G1 Y-0.578
M05
G1 X-0.03
M03 P30 S76.5
G1 Y0.581
M05
G1 X-0.03
M03 P30 S76.5
G1 Y-0.584
M05
G1 X-0.03
M03 P30 S76.5
G1 Y0.583
M05
G1 X-0.03
M03 P30 S76.5
G1 Y-0.583
M05
G1 X-0.03
M03 P30 S76.5
G1 Y0.583
M05
G1 X-0.03
M03 P30 S76.5
G1 Y-0.583
M05
G1 X-0.03
M03 P30 S76.5
G1 Y0.583
M05
G1 X-0.03
M03 P30 S76.5
G1 Y-0.583
M05
G1 X-0.03
M03 P30 S76.5
G1 Y0.583
M05
G1 X-0.03
M03 P30 S76.5
G1 Y-0.583
M05
G1 X-0.03
M03 P30 S76.5
G1 Y0.583
M05
G1 X-0.03
M03 P30 S76.5
G1 Y-0.583
M05
G1 X-0.03
M03 P30 S76.5
G1 Y0.583
M05
G1 X-0.03
M03 P30 S76.5
G1 Y-0.583
M05
G1 X-0.03
M03 P30 S76.5
G1 Y0.583
M05
G1 X-0.03
M03 P30 S76.5
G1 Y-0.583
M05
G1 X-0.03
M03 P30 S76.5
G1 Y0.583
M05
G1 X-0.03
M03 P30 S76.5
G1 Y-0.583
M05
G1 X-0.03
M03 P30 S76.5
G1 Y0.583
M05
G1 X-0.03
M03 P30 S76.5
G1 Y-0.583
M05
G1 X-0.03
M03 P30 S76.5
G1 Y0.583
M05
G1 X-0.03
M03 P30 S76.5
G1 Y-0.583
M05
G1 X-0.03
M03 P30 S76.5
G1 Y0.583
M05
G1 X-0.03
M03 P30 S76.5
G1 Y-0.583
M05
G1 X-0.03
M03 P30 S76.5
G1 Y0.583
M05
G1 X-0.03
M03 P30 S76.5
G1 Y-0.583
M05
G1 X-0.03
M03 P30 S76.5
G1 Y0.583
M05
G1 X-0.03
M03 P30 S76.5
G1 Y-0.583
M05
G1 X-0.03
M03 P30 S76.5
G1 Y0.583
M05
G1 X-0.03
M03 P30 S76.5
G1 Y-0.583
M05
G1 X-0.03
M03 P30 S76.5
G1 Y0.583
M05
G1 X-0.03
M03 P30 S76.5
G1 Y-0.583
M05
G1 X-0.03
M03 P30 S76.5
G1 Y4.529
M05
G1 X-0.03Y0.062
M03 P30 S76.5
G1 Y-4.591
M05
G1 X-0.03
M03 P30 S76.5
G1 Y4.629
M05
G1 X-0.03Y0.026
M03 P30 S76.5
G1 Y-4.655
M05
G1 X-0.03
M03 P30 S76.5
G1 Y4.675
M05
G1 X-0.03Y0.017
M03 P30 S76.5
G1 Y-4.692
M05
G1 X-0.03
M03 P30 S76.5
G1 Y4.703
M05
G1 X-0.03Y0.008
M03 P30 S76.5
G1 Y-4.711
M05
G1 X-0.03
M03 P30 S76.5
G1 Y4.717
M05
G1 X-0.03
M03 P30 S76.5
G1 Y-4.717
M05
G1 X-0.03
M03 P30 S76.5
G1 Y4.719
M05
G1 X-0.03
M03 P30 S76.5
G1 Y-4.719
M05
G1 X-0.03
M03 P30 S76.5
G1 Y4.712
M05
G1 X-0.03Y-0.009
M03 P30 S76.5
G1 Y-4.703
M05
G1 X-0.03
M03 P30 S76.5
G1 Y4.691
M05
G1 X-0.03Y-0.017
M03 P30 S76.5
G1 Y-4.674
M05
G1 X-0.03
M03 P30 S76.5
G1 Y4.651
M05
G1 X-0.03Y-0.033
M03 P30 S76.5
G1 Y-4.618
M05
G1 X-0.03
M03 P30 S76.5
G1 Y4.576
M05
G1 X-0.03Y-0.104
M03 P30 S76.5
G1 Y-4.472
M05
G1 X-0.03
M03 P30 S76.5
G1 Y0.583
M05
G1 X-0.03
M03 P30 S76.5
G1 Y-0.583
M05
G1 X-0.03
M03 P30 S76.5
G1 Y0.583
M05
G1 X-0.03
M03 P30 S76.5
G1 Y-0.583
M05
G1 X-0.03
M03 P30 S76.5
G1 Y0.583
M05
G1 X-0.03
M03 P30 S76.5
G1 Y-0.583
M05
G1 X-0.03
M03 P30 S76.5
G1 Y0.583
M05
G1 X-0.03
M03 P30 S76.5
G1 Y-0.583
M05
G1 X-0.03
M03 P30 S76.5
G1 Y0.583
M05
G1 X-0.03
M03 P30 S76.5
G1 Y-0.583
M05
G1 X-0.03
M03 P30 S76.5
G1 Y0.583
M05
G1 X-0.03
M03 P30 S76.5
G1 Y-0.583
M05
G1 X-0.03
M03 P30 S76.5
G1 Y0.583
M05
G1 X-0.03
M03 P30 S76.5
G1 Y-0.583
M05
G1 X-0.03
M03 P30 S76.5
G1 Y0.583
M05
G1 X-0.03
M03 P30 S76.5
G1 Y-0.583
M05
G1 X-0.03
M03 P30 S76.5
G1 Y0.583
M05
G1 X-0.03
M03 P30 S76.5
G1 Y-0.583
M05
G1 X-0.03
M03 P30 S76.5
G1 Y0.583
M05
G1 X-0.03
M03 P30 S76.5
G1 Y-0.583
M05
G1 X-0.03
M03 P30 S76.5
G1 Y0.583
M05
G1 X-0.03
M03 P30 S76.5
G1 Y-0.583
M05
G1 X-0.03
M03 P30 S76.5
G1 Y0.583
M05
G1 X-0.03
M03 P30 S76.5
G1 Y-0.583
M05
G1 X-0.03
M03 P30 S76.5
G1 Y0.583
M05
G1 X-0.03
M03 P30 S76.5
G1 Y-0.583
M05
G1 X-0.03
M03 P30 S76.5
G1 Y0.583
M05
G1 X-0.03
M03 P30 S76.5
G1 Y-0.582
M05
G1 X-0.03
M03 P30 S76.5
G1 Y0.582
M05
G1 X-0.03
M03 P30 S76.5
G1 Y-0.582
M05
G1 X-0.03
M03 P30 S76.5
G1 Y0.582
M05
G1 X-0.03
M03 P30 S76.5
G1 Y-0.582
M05
G1 X-0.03
M03 P30 S76.5
G1 Y0.579
M05
G1 X-0.03
M03 P30 S76.5
G1 Y-0.577
M05
G1 X-0.03
M03 P30 S76.5
G1 Y0.573
M05
G1 X-0.03
M03 P30 S76.5
G1 Y-0.566
M05
G1 X-0.03
M03 P30 S76.5
G1 Y0.559
M05
G1 X-0.03Y-0.006
M03 P30 S76.5
G1 Y-0.54
M05
G1 X-0.03Y0.009
M03 P30 S76.5
G1 Y0.521
M05
G1 X-0.03Y-0.012
M03 P30 S76.5
G1 Y-0.494
M05
G1 X-0.03Y0.016
M03 P30 S76.5
G1 Y0.462
M05
G1 X-0.03Y-0.022
M03 P30 S76.5
G1 Y-0.414
M05
G1 X-0.03Y0.031
M03 P30 S76.5
G1 Y0.351
M05
G1 X-0.03Y-0.047
M03 P30 S76.5
G1 Y-0.25
M05
G0 X5.232 Y-0.169 F0
M03 P30 S76.5
G1 X0.166 F2300
M05
G1 X0.243Y0.03
M03 P30 S76.5
G1 X-0.634
M05
G1 X-0.111Y0.03
M03 P30 S76.5
G1 X0.866
M05
G1 X0.1Y0.03
M03 P30 S76.5
G1 X-1.06
M05
G1 X-0.066Y0.03
M03 P30 S76.5
G1 X1.197
M05
G1 X0.069Y0.03
M03 P30 S76.5
G1 X-1.33
M05
G1 X-0.056Y0.03
M03 P30 S76.5
G1 X1.448
M05
G1 X0.05Y0.03
M03 P30 S76.5
G1 X-1.546
M05
G1 X-0.049Y0.03
M03 P30 S76.5
G1 X1.645
M05
G1 X0.049Y0.03
M03 P30 S76.5
G1 X-1.737
M05
G1 X-0.039Y0.03
M03 P30 S76.5
G1 X1.815
M05
G1 X0.039Y0.03
M03 P30 S76.5
G1 X-1.893
M05
G1 X-0.039Y0.03
M03 P30 S76.5
G1 X1.971
M05
G1 X0.037Y0.03
M03 P30 S76.5
G1 X-2.041
M05
G1 X-0.032Y0.03
M03 P30 S76.5
G1 X2.105
M05
G1 X0.031Y0.03
M03 P30 S76.5
G1 X-2.169
M05
G1 X-0.032Y0.03
M03 P30 S76.5
G1 X2.233
M05
G1 X0.032Y0.03
M03 P30 S76.5
G1 X-2.293
M05
G1 X-0.027Y0.03
M03 P30 S76.5
G1 X2.347
M05
G1 X0.026Y0.03
M03 P30 S76.5
G1 X-2.401
M05
G1 X-0.027Y0.03
M03 P30 S76.5
G1 X1.022
M05
G1 X0.354
M03 P30 S76.5
G1 X1.078
M05
G1 X0.026Y0.03
M03 P30 S76.5
G1 X-0.989
M05
G1 X-0.572
M03 P30 S76.5
G1 X-0.945
M05
G1 X-0.024Y0.03
M03 P30 S76.5
G1 X0.899
M05
G1 X0.719
M03 P30 S76.5
G1 X0.938
M05
G1 X0.022Y0.03
M03 P30 S76.5
G1 X-0.888
M05
G1 X-0.851
M03 P30 S76.5
G1 X-0.86
M05
G1 X-0.021Y0.03
M03 P30 S76.5
G1 X0.835
M05
G1 X0.948
M03 P30 S76.5
G1 X0.859
M05
G1 X0.021Y0.03
M03 P30 S76.5
G1 X-0.829
M05
G1 X-1.044
M03 P30 S76.5
G1 X-0.805
M05
G1 X-0.012Y0.03
M03 P30 S76.5
G1 X0.779
M05
G1 X1.127
M03 P30 S76.5
G1 X0.806
M05
G1 X0.021Y0.03
M03 P30 S76.5
G1 X-0.788
M05
G1 X-1.203
M03 P30 S76.5
G1 X-0.751
M05
G1 Y0.03
M03 P30 S76.5
G1 X0.72
M05
G1 X1.272
M03 P30 S76.5
G1 X0.772
M05
G1 X0.018Y0.03
M03 P30 S76.5
G1 X-0.754
M05
G1 X-1.338
M03 P30 S76.5
G1 X-0.697
M05
G1 Y0.03
M03 P30 S76.5
G1 X0.669
M05
G1 X1.397
M03 P30 S76.5
G1 X0.742
M05
G1 X0.018Y0.03
M03 P30 S76.5
G1 X-0.729
M05
G1 X-1.454
M03 P30 S76.5
G1 X-0.638
M05
G1 X0.008Y0.03
M03 P30 S76.5
G1 X0.604
M05
G1 X1.511
M03 P30 S76.5
G1 X0.717
M05
G1 X0.018Y0.03
M03 P30 S76.5
G1 X-0.709
M05
G1 X0.025Y0.03
M03 P30 S76.5
G1 X0.703
M05
G1 X0.016Y0.03
M03 P30 S76.5
G1 X-0.693
M05
G1 X0.025Y0.03
M03 P30 S76.5
G1 X0.683
M05
G1 X0.015Y0.03
M03 P30 S76.5
G1 X-0.676
M05
G1 X0.021Y0.03
M03 P30 S76.5
G1 X0.671
M05
G1 X0.015Y0.03
M03 P30 S76.5
G1 X-0.664
M05
G1 X0.021Y0.03
M03 P30 S76.5
G1 X0.658
M05
G1 X0.015Y0.03
M03 P30 S76.5
G1 X-0.654
M05
G1 X0.018Y0.03
M03 P30 S76.5
G1 X0.649
M05
G1 X0.012Y0.03
M03 P30 S76.5
G1 X-0.643
M05
G1 X0.018Y0.03
M03 P30 S76.5
G1 X0.637
M05
G1 X0.013Y0.03
M03 P30 S76.5
G1 X-0.634
M05
G1 X0.015Y0.03
M03 P30 S76.5
G1 X0.631
M05
G1 X0.012Y0.03
M03 P30 S76.5
G1 X-0.628
M05
G1 X0.015Y0.03
M03 P30 S76.5
G1 X0.626
M05
G1 X0.009Y0.03
M03 P30 S76.5
G1 X-0.62
M05
G1 X0.013Y0.03
M03 P30 S76.5
G1 X0.617
M05
G1 X0.01Y0.03
M03 P30 S76.5
G1 X-0.615
M05
G1 X0.012Y0.03
M03 P30 S76.5
G1 X0.612
M05
G1 X0.01Y0.03
M03 P30 S76.5
G1 X-0.61
M05
G1 X0.011Y0.03
M03 P30 S76.5
G1 X0.609
M05
G1 X0.009Y0.03
M03 P30 S76.5
G1 X-0.608
M05
G1 X0.01Y0.03
M03 P30 S76.5
G1 X0.606
M05
G1 X0.007Y0.03
M03 P30 S76.5
G1 X-0.604
M05
G1 X0.01Y0.03
M03 P30 S76.5
G1 X0.601
M05
G1 X0.006Y0.03
M03 P30 S76.5
G1 X-0.599
M05
G1 X0.007Y0.03
M03 P30 S76.5
G1 X0.599
M05
G1 X0.007Y0.03
M03 P30 S76.5
G1 X-0.598
M05
G1 X0.007Y0.03
M03 P30 S76.5
G1 X0.598
M05
G1 X0.006Y0.03
M03 P30 S76.5
G1 X-0.597
M05
G1 X0.006Y0.03
M03 P30 S76.5
G1 X0.595
M05
G1 Y0.03
M03 P30 S76.5
G1 X-0.59
M05
G1 Y0.03
M03 P30 S76.5
G1 X0.598
M05
G1 Y0.03
M03 P30 S76.5
G1 X-0.588
M05
G1 X0.005Y0.03
M03 P30 S76.5
G1 X0.592
M05
G1 Y0.03
M03 P30 S76.5
G1 X-0.588
M05
G1 Y0.03
M03 P30 S76.5
G1 X0.595
M05
G1 Y0.03
M03 P30 S76.5
G1 X-0.589
M05
G1 Y0.03
M03 P30 S76.5
G1 X0.592
M05
G1 Y0.03
M03 P30 S76.5
G1 X-0.585
M05
G1 Y0.03
M03 P30 S76.5
G1 X0.588
M05
G1 Y0.03
M03 P30 S76.5
G1 X-0.584
M05
G1 Y0.03
M03 P30 S76.5
G1 X0.587
M05
G1 Y0.03
M03 P30 S76.5
G1 X-0.584
M05
G1 Y0.03
M03 P30 S76.5
G1 X0.585
M05
G1 Y0.03
M03 P30 S76.5
G1 X-0.584
M05
G1 Y0.03
M03 P30 S76.5
G1 X0.581
M05
G1 Y0.03
M03 P30 S76.5
G1 X-0.584
M05
G1 Y0.03
M03 P30 S76.5
G1 X0.582
M05
G1 Y0.03
M03 P30 S76.5
G1 X-0.585
M05
G1 Y0.03
M03 P30 S76.5
G1 X0.582
M05
G1 Y0.03
M03 P30 S76.5
G1 X-0.587
M05
G1 Y0.03
M03 P30 S76.5
G1 X0.582
M05
G1 Y0.03
M03 P30 S76.5
G1 X-0.59
M05
G1 Y0.03
M03 P30 S76.5
G1 X0.583
M05
G1 Y0.03
M03 P30 S76.5
G1 X-0.592
M05
G1 Y0.03
M03 P30 S76.5
G1 X0.585
M05
G1 Y0.03
M03 P30 S76.5
G1 X-0.594
M05
G1 X-0.007Y0.03
M03 P30 S76.5
G1 X0.594
M05
G1 Y0.03
M03 P30 S76.5
G1 X-0.601
M05
G1 X-0.008Y0.03
M03 P30 S76.5
G1 X0.598
M05
G1 X-0.006Y0.03
M03 P30 S76.5
G1 X-0.599
M05
G1 X-0.007Y0.03
M03 P30 S76.5
G1 X0.6
M05
G1 X-0.006Y0.03
M03 P30 S76.5
G1 X-0.601
M05
G1 X-0.009Y0.03
M03 P30 S76.5
G1 X0.604
M05
G1 X-0.006Y0.03
M03 P30 S76.5
G1 X-0.608
M05
G1 X-0.01Y0.03
M03 P30 S76.5
G1 X0.612
M05
G1 X-0.009Y0.03
M03 P30 S76.5
G1 X-0.612
M05
G1 X-0.01Y0.03
M03 P30 S76.5
G1 X0.614
M05
G1 X-0.008Y0.03
M03 P30 S76.5
G1 X-0.616
M05
G1 X-0.012Y0.03
M03 P30 S76.5
G1 X0.62
M05
G1 X-0.009Y0.03
M03 P30 S76.5
G1 X-0.624
M05
G1 X-0.013Y0.03
M03 P30 S76.5
G1 X0.629
M05
G1 X-0.008Y0.03
M03 P30 S76.5
G1 X-0.633
M05
G1 X-0.013Y0.03
M03 P30 S76.5
G1 X0.635
M05
G1 X-0.011Y0.03
M03 P30 S76.5
G1 X-0.637
M05
G1 X-0.015Y0.03
M03 P30 S76.5
G1 X0.641
M05
G1 X-0.011Y0.03
M03 P30 S76.5
G1 X-0.646
M05
G1 X-0.016Y0.03
M03 P30 S76.5
G1 X0.651
M05
G1 X-0.011Y0.03
M03 P30 S76.5
G1 X-0.655
M05
G1 X-0.016Y0.03
M03 P30 S76.5
G1 X0.66
M05
G1 X-0.014Y0.03
M03 P30 S76.5
G1 X-0.664
M05
G1 X-0.019Y0.03
M03 P30 S76.5
G1 X0.669
M05
G1 X-0.014Y0.03
M03 P30 S76.5
G1 X-0.674
M05
G1 X-0.019Y0.03
M03 P30 S76.5
G1 X0.68
M05
G1 X-0.014Y0.03
M03 P30 S76.5
G1 X-0.685
M05
G1 X-0.021Y0.03
M03 P30 S76.5
G1 X0.692
M05
G1 X-0.014Y0.03
M03 P30 S76.5
G1 X-0.701
M05
G1 X-0.023Y0.03
M03 P30 S76.5
G1 X0.707
M05
G1 X-0.017Y0.03
M03 P30 S76.5
G1 X-0.713
M05
G1 X-0.024Y0.03
M03 P30 S76.5
G1 X0.72
M05
G1 X-0.017Y0.03
M03 P30 S76.5
G1 X-0.727
M05
G1 X-1.524
M03 P30 S76.5
G1 X-0.602
M05
G1 X-0.005Y0.03
M03 P30 S76.5
G1 X0.633
M05
G1 X1.47
M03 P30 S76.5
G1 X0.737
M05
G1 X-0.017Y0.03
M03 P30 S76.5
G1 X-0.748
M05
G1 X-1.414
M03 P30 S76.5
G1 X-0.664
M05
G1 Y0.03
M03 P30 S76.5
G1 X0.692
M05
G1 X1.356
M03 P30 S76.5
G1 X0.76
M05
G1 X-0.021Y0.03
M03 P30 S76.5
G1 X-0.773
M05
G1 X-1.291
M03 P30 S76.5
G1 X-0.72
M05
G1 X0.007Y0.03
M03 P30 S76.5
G1 X0.747
M05
G1 X1.224
M03 P30 S76.5
G1 X0.785
M05
G1 X-0.021Y0.03
M03 P30 S76.5
G1 X-0.803
M05
G1 X-1.151
M03 P30 S76.5
G1 X-0.771
M05
G1 X0.016Y0.03
M03 P30 S76.5
G1 X0.795
M05
G1 X1.07
M03 P30 S76.5
G1 X0.823
M05
G1 X-0.021Y0.03
M03 P30 S76.5
G1 X-0.849
M05
G1 X-0.982
M03 P30 S76.5
G1 X-0.818
M05
G1 X0.019Y0.03
M03 P30 S76.5
G1 X0.848
M05
G1 X0.881
M03 P30 S76.5
G1 X0.879
M05
G1 X-0.025Y0.03
M03 P30 S76.5
G1 X-0.916
M05
G1 X-0.766
M03 P30 S76.5
G1 X-0.88
M05
G1 X0.025Y0.03
M03 P30 S76.5
G1 X0.927
M05
G1 X0.623
M03 P30 S76.5
G1 X0.962
M05
G1 X-0.025Y0.03
M03 P30 S76.5
G1 X-1.043
M05
G1 X-0.421
M03 P30 S76.5
G1 X-0.999
M05
G1 X0.026Y0.03
M03 P30 S76.5
G1 X2.412
M05
G1 X-0.027Y0.03
M03 P30 S76.5
G1 X-2.358
M05
G1 X0.027Y0.03
M03 P30 S76.5
G1 X2.301
M05
G1 X-0.029Y0.03
M03 P30 S76.5
G1 X-2.242
M05
G1 X0.031Y0.03
M03 P30 S76.5
G1 X2.181
M05
G1 X-0.03Y0.03
M03 P30 S76.5
G1 X-2.12
M05
G1 X0.031Y0.03
M03 P30 S76.5
G1 X2.055
M05
G1 X-0.037Y0.03
M03 P30 S76.5
G1 X-1.982
M05
G1 X0.037Y0.03
M03 P30 S76.5
G1 X1.908
M05
G1 X-0.036Y0.03
M03 P30 S76.5
G1 X-1.836
M05
G1 X0.042Y0.03
M03 P30 S76.5
G1 X1.751
M05
G1 X-0.047Y0.03
M03 P30 S76.5
G1 X-1.659
M05
G1 X0.045Y0.03
M03 P30 S76.5
G1 X1.567
M05
G1 X-0.048Y0.03
M03 P30 S76.5
G1 X-1.466
M05
G1 X0.058Y0.03
M03 P30 S76.5
G1 X1.35
M05
G1 X-0.064Y0.03
M03 P30 S76.5
G1 X-1.224
M05
G1 X0.078Y0.03
M03 P30 S76.5
G1 X1.073
M05
G1 X-0.089Y0.03
M03 P30 S76.5
G1 X-0.896
M05
G1 X0.11Y0.03
M03 P30 S76.5
G1 X0.67
M05
G1 X-0.236Y0.03
M03 P30 S76.5
G1 X-0.215
M05
G1 X-1.227Y-3.72
M03 P30 S76.5
G1 X0.57
M05
G1 X-0.024Y0.03
M03 P30 S76.5
G1 X-0.531
M05
G1 X0.017Y0.03
M03 P30 S76.5
G1 X0.488
M05
G1 X-0.029Y0.03
M03 P30 S76.5
G1 X-0.435
M05
G1 X0.032Y0.03
M03 P30 S76.5
G1 X0.373
M05
G1 X-0.04Y0.03
M03 P30 S76.5
G1 X-0.289
M05
G1 X0.076Y0.03
M03 P30 S76.5
G1 X0.138
M05
G1 X0.006Y2.37
M03 P30 S76.5
G1 X-0.177
M05
G1 X-0.071Y0.03
M03 P30 S76.5
G1 X0.313
M05
G1 X0.037Y0.03
M03 P30 S76.5
G1 X-0.389
M05
G1 X-0.028Y0.03
M03 P30 S76.5
G1 X0.446
M05
G1 X0.025Y0.03
M03 P30 S76.5
G1 X-0.494
M05
G1 X-0.014Y0.03
M03 P30 S76.5
G1 X0.533
M05
G1 X0.024Y0.03
M03 P30 S76.5
G1 X-0.57
M05
G1 X3.211Y-1.672
M03 P30 S76.5
G1 Y0.56
M05
G1 X-0.03Y0.22
M03 P30 S76.5
G1 Y-0.98
M05
G1 X-0.03Y-0.129
M03 P30 S76.5
G1 Y1.26
M05
G1 X-0.03Y0.112
M03 P30 S76.5
G1 Y-1.484
M05
G1 X-0.03Y-0.093
M03 P30 S76.5
G1 Y1.685
M05
G1 X-0.03Y0.085
M03 P30 S76.5
G1 Y-1.859
M05
G1 X-0.03Y-0.073
M03 P30 S76.5
G1 Y2.014
M05
G1 X-0.03Y0.076
M03 P30 S76.5
G1 Y-2.163
M05
G1 X-0.03Y-0.068
M03 P30 S76.5
G1 Y2.297
M05
G1 X-0.03Y0.065
M03 P30 S76.5
G1 Y-2.421
M05
G1 X-0.03Y-0.059
M03 P30 S76.5
G1 Y2.543
M05
G1 X-0.03Y0.053
M03 P30 S76.5
G1 Y-2.655
M05
G1 X-0.03Y-0.05
M03 P30 S76.5
G1 Y2.757
M05
G1 X-0.03Y0.053
M03 P30 S76.5
G1 Y-2.858
M05
G1 X-0.03Y-0.049
M03 P30 S76.5
G1 Y2.956
M05
G1 X-0.03Y0.043
M03 P30 S76.5
G1 Y-3.048
M05
G1 X-0.03Y-0.041
M03 P30 S76.5
G1 Y3.132
M05
G1 X-0.03Y0.043
M03 P30 S76.5
G1 Y-3.217
M05
G1 X-0.03Y-0.042
M03 P30 S76.5
G1 Y3.302
M05
G1 X-0.03Y0.036
M03 P30 S76.5
G1 Y-1.641
M05
G1 Y-0.122
M03 P30 S76.5
G1 Y-1.616
M05
G1 X-0.03Y-0.037
M03 P30 S76.5
G1 Y1.361
M05
G1 Y0.703
M03 P30 S76.5
G1 Y1.388
M05
G1 X-0.03Y0.035
M03 P30 S76.5
G1 Y-1.285
M05
G1 Y-0.994
M03 P30 S76.5
G1 Y-1.242
M05
G1 X-0.03Y-0.035
M03 P30 S76.5
G1 Y1.161
M05
G1 Y1.222
M03 P30 S76.5
G1 Y1.209
M05
G1 X-0.03Y0.031
M03 P30 S76.5
G1 Y-1.147
M05
G1 Y-1.409
M03 P30 S76.5
G1 Y-1.101
M05
G1 X-0.03Y2.593
M03 P30 S76.5
G1 Y1.094
M05
G1 X-0.03Y0.03
M03 P30 S76.5
G1 Y-1.052
M05
G1 X-0.03Y0.071
M03 P30 S76.5
G1 Y1.012
M05
G1 X-0.03Y0.028
M03 P30 S76.5
G1 Y-0.983
M05
G1 X-0.03Y0.058
M03 P30 S76.5
G1 Y0.949
M05
G1 X-0.03Y0.025
M03 P30 S76.5
G1 Y-0.918
M05
G1 X-0.03Y0.047
M03 P30 S76.5
G1 Y0.896
M05
G1 X-0.03Y0.024
M03 P30 S76.5
G1 Y-0.873
M05
G1 X-0.03Y0.047
M03 P30 S76.5
G1 Y0.849
M05
G1 X-0.03Y0.019
M03 P30 S76.5
G1 Y-0.827
M05
G1 X-0.03Y0.038
M03 P30 S76.5
G1 Y0.808
M05
G1 X-0.03Y0.019
M03 P30 S76.5
G1 Y-0.788
M05
G1 X-0.03Y0.038
M03 P30 S76.5
G1 Y0.77
M05
G1 X-0.03Y0.019
M03 P30 S76.5
G1 Y-0.755
M05
G1 X-0.03Y0.032
M03 P30 S76.5
G1 Y0.739
M05
G1 X-0.03Y0.015
M03 P30 S76.5
G1 Y-0.723
M05
G1 X-0.03Y0.027
M03 P30 S76.5
G1 Y0.712
M05
G1 X-0.03Y0.013
M03 P30 S76.5
G1 Y-0.698
M05
G1 X-0.03Y0.025
M03 P30 S76.5
G1 Y0.686
M05
G1 X-0.03Y0.013
M03 P30 S76.5
G1 Y-0.676
M05
G1 X-0.03Y0.022
M03 P30 S76.5
G1 Y0.665
M05
G1 X-0.03Y0.011
M03 P30 S76.5
G1 Y-0.655
M05
G1 X-0.03Y0.017
M03 P30 S76.5
G1 Y0.648
M05
G1 X-0.03Y0.009
M03 P30 S76.5
G1 Y-0.64
M05
G1 X-0.03Y0.018
M03 P30 S76.5
G1 Y0.63
M05
G1 X-0.03Y0.009
M03 P30 S76.5
G1 Y-0.626
M05
G1 X-0.03Y0.013
M03 P30 S76.5
G1 Y0.62
M05
G1 X-0.03Y0.006
M03 P30 S76.5
G1 Y-0.613
M05
G1 X-0.03Y0.012
M03 P30 S76.5
G1 Y0.608
M05
G1 X-0.03Y0.005
M03 P30 S76.5
G1 Y-0.604
M05
G1 X-0.03Y0.008
M03 P30 S76.5
G1 Y0.601
M05
G1 X-0.03
M03 P30 S76.5
G1 Y-0.592
M05
G1 X-0.03Y0.006
M03 P30 S76.5
G1 Y0.593
M05
G1 X-0.03
M03 P30 S76.5
G1 Y-0.588
M05
G1 X-0.03
M03 P30 S76.5
G1 Y0.591
M05
G1 X-0.03
M03 P30 S76.5
G1 Y-0.582
M05
G1 X-0.03
M03 P30 S76.5
G1 Y0.586
M05
G1 X-0.03
M03 P30 S76.5
G1 Y-0.583
M05
G1 X-0.03
M03 P30 S76.5
G1 Y0.586
M05
G1 X-0.03
M03 P30 S76.5
G1 Y-0.583
M05
G1 X-0.03
M03 P30 S76.5
G1 Y0.58
M05
G1 X-0.03
M03 P30 S76.5
G1 Y-0.583
M05
G1 X-0.03
M03 P30 S76.5
G1 Y0.58
M05
G1 X-0.03
M03 P30 S76.5
G1 Y-0.584
M05
G1 X-0.03Y-0.006
M03 P30 S76.5
G1 Y0.584
M05
G1 X-0.03
M03 P30 S76.5
G1 Y-0.591
M05
G1 X-0.03Y-0.007
M03 P30 S76.5
G1 Y0.589
M05
G1 X-0.03
M03 P30 S76.5
G1 Y-0.596
M05
G1 X-0.03Y-0.011
M03 P30 S76.5
G1 Y0.598
M05
G1 X-0.03Y-0.006
M03 P30 S76.5
G1 Y-0.604
M05
G1 X-0.03Y-0.011
M03 P30 S76.5
G1 Y0.607
M05
G1 X-0.03Y-0.008
M03 P30 S76.5
G1 Y-0.613
M05
G1 X-0.03Y-0.017
M03 P30 S76.5
G1 Y0.622
M05
G1 X-0.03Y-0.009
M03 P30 S76.5
G1 Y-0.63
M05
G1 X-0.03Y-0.017
M03 P30 S76.5
G1 Y0.639
M05
G1 X-0.03Y-0.012
M03 P30 S76.5
G1 Y-0.649
M05
G1 X-0.03Y-0.022
M03 P30 S76.5
G1 Y0.66
M05
G1 X-0.03Y-0.012
M03 P30 S76.5
G1 Y-0.67
M05
G1 X-0.03Y-0.026
M03 P30 S76.5
G1 Y0.684
M05
G1 X-0.03Y-0.012
M03 P30 S76.5
G1 Y-0.699
M05
G1 X-0.03Y-0.027
M03 P30 S76.5
G1 Y0.71
M05
G1 X-0.03Y-0.015
M03 P30 S76.5
G1 Y-0.726
M05
G1 X-0.03Y-0.033
M03 P30 S76.5
G1 Y0.743
M05
G1 X-0.03Y-0.016
M03 P30 S76.5
G1 Y-0.76
M05
G1 X-0.03Y-0.036
M03 P30 S76.5
G1 Y0.779
M05
G1 X-0.03Y-0.021
M03 P30 S76.5
G1 Y-0.795
M05
G1 X-0.03Y-0.037
M03 P30 S76.5
G1 Y0.812
M05
G1 X-0.03Y-0.02
M03 P30 S76.5
G1 Y-0.828
M05
G1 X-0.03Y-0.024
M03 P30 S76.5
G1 Y0.832
M05
G1 X-0.03Y-0.025
M03 P30 S76.5
G1 Y-0.831
M05
G1 X-0.03Y-0.015
M03 P30 S76.5
G1 Y0.821
M05
G1 X-0.03Y-0.025
M03 P30 S76.5
G1 Y-0.805
M05
G1 X-0.03Y-0.005
M03 P30 S76.5
G1 Y0.786
M05
G1 X-0.03Y-0.029
M03 P30 S76.5
G1 Y-0.76
M05
G1 X-0.03
M03 P30 S76.5
G1 Y0.731
M05
G1 X-0.03Y-0.03
M03 P30 S76.5
G1 Y-0.701
M05
G1 X-0.03
M03 P30 S76.5
G1 Y0.672
M05
G1 X-0.03Y-0.033
M03 P30 S76.5
G1 Y-0.628
M05
G1 X-0.03Y0.01
M03 P30 S76.5
G1 Y0.584
M05
G1 X-0.03Y-0.035
M03 P30 S76.5
G1 Y-0.533
M05
G1 X-0.03Y0.021
M03 P30 S76.5
G1 Y0.475
M05
G1 X-0.03Y-0.039
M03 P30 S76.5
G1 Y-0.409
M05
G1 X-0.03Y0.04
M03 P30 S76.5
G1 Y0.32
M05
G1 X-0.03Y-0.059
M03 P30 S76.5
G1 Y-0.198
M05
G1 X2.49Y-3.218
M03 P30 S76.5
G1 Y1.053
M05
G1 X-0.03Y-0.073
M03 P30 S76.5
G1 Y-1.009
M05
G1 X-0.03Y-0.028
M03 P30 S76.5
G1 Y0.975
M05
G1 X-0.03Y-0.06
M03 P30 S76.5
G1 Y-0.944
M05
G1 X-0.03Y-0.028
M03 P30 S76.5
G1 Y0.918
M05
G1 X-0.03Y-0.05
M03 P30 S76.5
G1 Y-0.892
M05
G1 X-0.03Y-0.023
M03 P30 S76.5
G1 Y0.865
M05
G1 X-0.03Y-0.042
M03 P30 S76.5
G1 Y-0.846
M05
G1 X-0.03Y-0.023
M03 P30 S76.5
G1 Y0.827
M05
G1 X-0.03Y-0.042
M03 P30 S76.5
G1 Y-0.808
M05
G1 X-0.03Y-0.019
M03 P30 S76.5
G1 Y0.792
M05
G1 X-0.03Y-0.035
M03 P30 S76.5
G1 Y-0.775
M05
G1 X-0.03Y-0.018
M03 P30 S76.5
G1 Y0.757
M05
G1 X-0.03Y-0.03
M03 P30 S76.5
G1 Y-0.745
M05
G1 X-0.03Y-0.018
M03 P30 S76.5
G1 Y0.733
M05
G1 X-0.03Y-0.029
M03 P30 S76.5
G1 Y-0.72
M05
G1 X-0.03Y-0.013
M03 P30 S76.5
G1 Y0.705
M05
G1 X-0.03Y-0.024
M03 P30 S76.5
G1 Y-0.694
M05
G1 X-0.03Y-0.013
M03 P30 S76.5
G1 Y0.684
M05
G1 X-0.03Y-0.023
M03 P30 S76.5
G1 Y-0.674
M05
G1 X-0.03Y-0.014
M03 P30 S76.5
G1 Y0.666
M05
G1 X-0.03Y-0.018
M03 P30 S76.5
G1 Y-0.658
M05
G1 X-0.03Y-0.009
M03 P30 S76.5
G1 Y0.649
M05
G1 X-0.03Y-0.018
M03 P30 S76.5
G1 Y-0.64
M05
G1 X-0.03Y-0.009
M03 P30 S76.5
G1 Y0.632
M05
G1 X-0.03Y-0.013
M03 P30 S76.5
G1 Y-0.628
M05
G1 X-0.03Y-0.009
M03 P30 S76.5
G1 Y0.624
M05
G1 X-0.03Y-0.012
M03 P30 S76.5
G1 Y-0.619
M05
G1 X-0.03Y-0.005
M03 P30 S76.5
G1 Y0.611
M05
G1 X-0.03Y-0.011
M03 P30 S76.5
G1 Y-0.605
M05
G1 X-0.03Y-0.005
M03 P30 S76.5
G1 Y0.602
M05
G1 X-0.03Y-0.008
M03 P30 S76.5
G1 Y-0.599
M05
G1 X-0.03Y-0.005
M03 P30 S76.5
G1 Y0.597
M05
G1 X-0.03Y-0.008
M03 P30 S76.5
G1 Y-0.594
M05
G1 X-0.03
M03 P30 S76.5
G1 Y0.588
M05
G1 X-0.03
M03 P30 S76.5
G1 Y-0.592
M05
G1 X-0.03
M03 P30 S76.5
G1 Y0.585
M05
G1 X-0.03
M03 P30 S76.5
G1 Y-0.588
M05
G1 X-0.03
M03 P30 S76.5
G1 Y0.582
M05
G1 X-0.03
M03 P30 S76.5
G1 Y-0.586
M05
G1 X-0.03
M03 P30 S76.5
G1 Y0.586
M05
G1 X-0.03
M03 P30 S76.5
G1 Y-0.582
M05
G1 X-0.03
M03 P30 S76.5
G1 Y0.586
M05
G1 X-0.03
M03 P30 S76.5
G1 Y-0.583
M05
G1 X-0.03
M03 P30 S76.5
G1 Y0.594
M05
G1 X-0.03Y0.005
M03 P30 S76.5
G1 Y-0.595
M05
G1 X-0.03Y0.006
M03 P30 S76.5
G1 Y0.596
M05
G1 X-0.03Y0.01
M03 P30 S76.5
G1 Y-0.6
M05
G1 X-0.03Y0.005
M03 P30 S76.5
G1 Y0.605
M05
G1 X-0.03Y0.01
M03 P30 S76.5
G1 Y-0.609
M05
G1 X-0.03Y0.005
M03 P30 S76.5
G1 Y0.618
M05
G1 X-0.03Y0.015
M03 P30 S76.5
G1 Y-0.625
M05
G1 X-0.03Y0.009
M03 P30 S76.5
G1 Y0.631
M05
G1 X-0.03Y0.018
M03 P30 S76.5
G1 Y-0.639
M05
G1 X-0.03Y0.009
M03 P30 S76.5
G1 Y0.649
M05
G1 X-0.03Y0.019
M03 P30 S76.5
G1 Y-0.658
M05
G1 X-0.03Y0.009
M03 P30 S76.5
G1 Y0.672
M05
G1 X-0.03Y0.024
M03 P30 S76.5
G1 Y-0.682
M05
G1 X-0.03Y0.014
M03 P30 S76.5
G1 Y0.692
M05
G1 X-0.03Y0.029
M03 P30 S76.5
G1 Y-0.707
M05
G1 X-0.03Y0.014
M03 P30 S76.5
G1 Y0.723
M05
G1 X-0.03Y0.031
M03 P30 S76.5
G1 Y-0.74
M05
G1 X-0.03Y0.016
M03 P30 S76.5
G1 Y0.759
M05
G1 X-0.03Y0.034
M03 P30 S76.5
G1 Y-0.774
M05
G1 X-0.03Y0.019
M03 P30 S76.5
G1 Y0.792
M05
G1 X-0.03Y0.037
M03 P30 S76.5
G1 Y-0.811
M05
G1 X-0.03Y0.019
M03 P30 S76.5
G1 Y0.823
M05
G1 X-0.03Y0.031
M03 P30 S76.5
G1 Y-0.832
M05
G1 X-0.03Y0.023
M03 P30 S76.5
G1 Y0.834
M05
G1 X-0.03Y0.019
M03 P30 S76.5
G1 Y-0.83
M05
G1 X-0.03Y0.023
M03 P30 S76.5
G1 Y0.821
M05
G1 X-0.03Y0.008
M03 P30 S76.5
G1 Y-0.805
M05
G1 X-0.03Y0.028
M03 P30 S76.5
G1 Y0.783
M05
G1 X-0.03
M03 P30 S76.5
G1 Y-0.756
M05
G1 X-0.03Y0.028
M03 P30 S76.5
G1 Y0.729
M05
G1 X-0.03
M03 P30 S76.5
G1 Y-0.701
M05
G1 X-0.03Y0.032
M03 P30 S76.5
G1 Y0.659
M05
G1 X-0.03Y-0.009
M03 P30 S76.5
G1 Y-0.618
M05
G1 X-0.03Y0.033
M03 P30 S76.5
G1 Y0.571
M05
G1 X-0.03Y-0.018
M03 P30 S76.5
G1 Y-0.521
M05
G1 X-0.03Y0.037
M03 P30 S76.5
G1 Y0.459
M05
G1 X-0.03Y-0.031
M03 P30 S76.5
G1 Y-0.389
M05
G1 X-0.03Y0.044
M03 P30 S76.5
G1 Y0.301
M05
G1 X-0.03Y-0.078
M03 P30 S76.5
G1 Y-0.153
M05
G0 X4.238 Y-0.795 F0
M03 P30 S76.5
G1 X2.658 F2300
M05
G1 X0.126Y0.03
M03 P30 S76.5
G1 X-2.905
M05
G1 X-0.054Y0.03
M03 P30 S76.5
G1 X3.008
M05
G1 X0.031Y0.03
M03 P30 S76.5
G1 X-3.073
M05
G1 X-0.021Y0.03
M03 P30 S76.5
G1 X3.114
M05
G1 X0.014Y0.03
M03 P30 S76.5
G1 X-3.146
M05
G1 X-0.009Y0.03
M03 P30 S76.5
G1 X3.165
M05
G1 X0.009Y0.03
M03 P30 S76.5
G1 X-3.183
M05
G1 Y0.03
M03 P30 S76.5
G1 X3.188
M05
G1 Y0.03
M03 P30 S76.5
G1 X-3.193
M05
G1 Y0.03
M03 P30 S76.5
G1 X3.2
M05
G1 Y0.03
M03 P30 S76.5
G1 X-3.198
M05
G1 Y0.03
M03 P30 S76.5
G1 X3.198
M05
G1 Y0.03
M03 P30 S76.5
G1 X-3.185
M05
G1 X0.009Y0.03
M03 P30 S76.5
G1 X3.176
M05
G1 Y0.03
M03 P30 S76.5
G1 X-3.156
M05
G1 X0.02Y0.03
M03 P30 S76.5
G1 X3.136
M05
G1 Y0.03
M03 P30 S76.5
G1 X-3.099
M05
G1 X0.054Y0.03
M03 P30 S76.5
G1 X3.045
M05
G1 Y0.03
M03 P30 S76.5
G1 X-2.942
M05
G1 X2.359Y0.03
M03 P30 S76.5
G1 X0.583
M05
G1 Y0.03
M03 P30 S76.5
G1 X-0.583
M05
G1 Y0.03
M03 P30 S76.5
G1 X0.583
M05
G1 Y0.03
M03 P30 S76.5
G1 X-0.583
M05
G1 Y0.03
M03 P30 S76.5
G1 X0.583
M05
G1 Y0.03
M03 P30 S76.5
G1 X-0.583
M05
G1 Y0.03
M03 P30 S76.5
G1 X0.583
M05
G1 Y0.03
M03 P30 S76.5
G1 X-0.583
M05
G1 Y0.03
M03 P30 S76.5
G1 X0.583
M05
G1 Y0.03
M03 P30 S76.5
G1 X-0.583
M05
G1 Y0.03
M03 P30 S76.5
G1 X0.583
M05
G1 Y0.03
M03 P30 S76.5
G1 X-0.583
M05
G1 Y0.03
M03 P30 S76.5
G1 X0.583
M05
G1 Y0.03
M03 P30 S76.5
G1 X-0.583
M05
G1 Y0.03
M03 P30 S76.5
G1 X0.583
M05
G1 Y0.03
M03 P30 S76.5
G1 X-0.583
M05
G1 Y0.03
M03 P30 S76.5
G1 X0.583
M05
G1 Y0.03
M03 P30 S76.5
G1 X-0.583
M05
G1 Y0.03
M03 P30 S76.5
G1 X0.583
M05
G1 Y0.03
M03 P30 S76.5
G1 X-0.583
M05
G1 Y0.03
M03 P30 S76.5
G1 X0.583
M05
G1 Y0.03
M03 P30 S76.5
G1 X-0.583
M05
G1 Y0.03
M03 P30 S76.5
G1 X0.583
M05
G1 Y0.03
M03 P30 S76.5
G1 X-0.583
M05
G1 Y0.03
M03 P30 S76.5
G1 X0.583
M05
G1 Y0.03
M03 P30 S76.5
G1 X-0.583
M05
G1 Y0.03
M03 P30 S76.5
G1 X0.583
M05
G1 Y0.03
M03 P30 S76.5
G1 X-0.583
M05
G1 Y0.03
M03 P30 S76.5
G1 X0.583
M05
G1 Y0.03
M03 P30 S76.5
G1 X-0.583
M05
G1 Y0.03
M03 P30 S76.5
G1 X0.583
M05
G1 Y0.03
M03 P30 S76.5
G1 X-0.583
M05
G1 Y0.03
M03 P30 S76.5
G1 X0.583
M05
G1 Y0.03
M03 P30 S76.5
G1 X-0.583
M05
G1 Y0.03
M03 P30 S76.5
G1 X0.583
M05
G1 Y0.03
M03 P30 S76.5
G1 X-0.583
M05
G1 Y0.03
M03 P30 S76.5
G1 X0.583
M05
G1 Y0.03
M03 P30 S76.5
G1 X-0.583
M05
G1 Y0.03
M03 P30 S76.5
G1 X0.583
M05
G1 Y0.03
M03 P30 S76.5
G1 X-2.285
M05
G1 X-0.134Y0.03
M03 P30 S76.5
G1 X2.419
M05
G1 Y0.03
M03 P30 S76.5
G1 X-2.475
M05
G1 X-0.033Y0.03
M03 P30 S76.5
G1 X2.508
M05
G1 Y0.03
M03 P30 S76.5
G1 X-2.532
M05
G1 X-0.017Y0.03
M03 P30 S76.5
G1 X2.549
M05
G1 Y0.03
M03 P30 S76.5
G1 X-2.56
M05
G1 X-0.008Y0.03
M03 P30 S76.5
G1 X2.568
M05
G1 Y0.03
M03 P30 S76.5
G1 X-2.573
M05
G1 Y0.03
M03 P30 S76.5
G1 X2.573
M05
G1 Y0.03
M03 P30 S76.5
G1 X-2.576
M05
G1 Y0.03
M03 P30 S76.5
G1 X2.576
M05
G1 Y0.03
M03 P30 S76.5
G1 X-2.573
M05
G1 X0.008Y0.03
M03 P30 S76.5
G1 X2.565
M05
G1 Y0.03
M03 P30 S76.5
G1 X-2.556
M05
G1 X0.016Y0.03
M03 P30 S76.5
G1 X2.54
M05
G1 Y0.03
M03 P30 S76.5
G1 X-2.52
M05
G1 X0.034Y0.03
M03 P30 S76.5
G1 X2.486
M05
G1 Y0.03
M03 P30 S76.5
G1 X-2.437
M05
G1 X0.096Y0.03
M03 P30 S76.5
G1 X2.341
M05
G1 Y0.03
M03 P30 S76.5
G1 X-0.583
M05
G1 Y0.03
M03 P30 S76.5
G1 X0.583
M05
G1 Y0.03
M03 P30 S76.5
G1 X-0.583
M05
G1 Y0.03
M03 P30 S76.5
G1 X0.583
M05
G1 Y0.03
M03 P30 S76.5
G1 X-0.583
M05
G1 Y0.03
M03 P30 S76.5
G1 X0.583
M05
G1 Y0.03
M03 P30 S76.5
G1 X-0.583
M05
G1 Y0.03
M03 P30 S76.5
G1 X0.583
M05
G1 Y0.03
M03 P30 S76.5
G1 X-0.583
M05
G1 Y0.03
M03 P30 S76.5
G1 X0.583
M05
G1 Y0.03
M03 P30 S76.5
G1 X-0.583
M05
G1 Y0.03
M03 P30 S76.5
G1 X0.583
M05
G1 Y0.03
M03 P30 S76.5
G1 X-0.583
M05
G1 Y0.03
M03 P30 S76.5
G1 X0.583
M05
G1 Y0.03
M03 P30 S76.5
G1 X-0.583
M05
G1 Y0.03
M03 P30 S76.5
G1 X0.583
M05
G1 Y0.03
M03 P30 S76.5
G1 X-0.583
M05
G1 Y0.03
M03 P30 S76.5
G1 X0.583
M05
G1 Y0.03
M03 P30 S76.5
G1 X-0.583
M05
G1 Y0.03
M03 P30 S76.5
G1 X0.583
M05
G1 Y0.03
M03 P30 S76.5
G1 X-0.583
M05
G1 Y0.03
M03 P30 S76.5
G1 X0.583
M05
G1 Y0.03
M03 P30 S76.5
G1 X-0.583
M05
G1 Y0.03
M03 P30 S76.5
G1 X0.583
M05
G1 Y0.03
M03 P30 S76.5
G1 X-0.583
M05
G1 Y0.03
M03 P30 S76.5
G1 X0.583
M05
G1 Y0.03
M03 P30 S76.5
G1 X-0.583
M05
G1 Y0.03
M03 P30 S76.5
G1 X0.583
M05
G1 Y0.03
M03 P30 S76.5
G1 X-0.583
M05
G1 Y0.03
M03 P30 S76.5
G1 X0.583
M05
G1 Y0.03
M03 P30 S76.5
G1 X-0.583
M05
G1 Y0.03
M03 P30 S76.5
G1 X0.583
M05
G1 Y0.03
M03 P30 S76.5
G1 X-0.583
M05
G1 Y0.03
M03 P30 S76.5
G1 X0.583
M05
G1 Y0.03
M03 P30 S76.5
G1 X-0.583
M05
G1 Y0.03
M03 P30 S76.5
G1 X0.583
M05
G1 Y0.03
M03 P30 S76.5
G1 X-0.583
M05
G1 Y0.03
M03 P30 S76.5
G1 X0.583
M05
G1 Y0.03
M03 P30 S76.5
G1 X-0.583
M05
G1 Y0.03
M03 P30 S76.5
G1 X0.583
M05
G1 Y0.03
M03 P30 S76.5
G1 X-0.583
M05
G1 Y0.03
M03 P30 S76.5
G1 X0.583
M05
G1 Y0.03
M03 P30 S76.5
G1 X-0.583
M05
G1 Y0.03
M03 P30 S76.5
G1 X0.583
M05
G1 Y0.03
M03 P30 S76.5
G1 X-0.583
M05
G1 Y0.03
M03 P30 S76.5
G1 X0.583
M05
G1 Y0.03
M03 P30 S76.5
G1 X-0.583
M05
G1 Y0.03
M03 P30 S76.5
G1 X0.583
M05
G1 Y0.03
M03 P30 S76.5
G1 X-0.583
M05
G1 Y0.03
M03 P30 S76.5
G1 X0.583
M05
G1 Y0.03
M03 P30 S76.5
G1 X-0.583
M05
G1 Y0.03
M03 P30 S76.5
G1 X0.583
M05
G1 Y0.03
M03 P30 S76.5
G1 X-0.583
M05
G1 Y0.03
M03 P30 S76.5
G1 X0.583
M05
G1 Y0.03
M03 P30 S76.5
G1 X-0.583
M05
G1 Y0.03
M03 P30 S76.5
G1 X0.583
M05
G1 Y0.03
M03 P30 S76.5
G1 X-0.583
M05
G1 Y0.03
M03 P30 S76.5
G1 X0.583
M05
G1 Y0.03
M03 P30 S76.5
G1 X-0.583
M05
G1 X-2.411Y0.03
M03 P30 S76.5
G1 X2.994
M05
G1 Y0.03
M03 P30 S76.5
G1 X-3.067
M05
G1 X-0.053Y0.03
M03 P30 S76.5
G1 X3.12
M05
G1 Y0.03
M03 P30 S76.5
G1 X-3.153
M05
G1 X-0.025Y0.03
M03 P30 S76.5
G1 X3.178
M05
G1 Y0.03
M03 P30 S76.5
G1 X-3.195
M05
G1 X-0.012Y0.03
M03 P30 S76.5
G1 X3.207
M05
G1 Y0.03
M03 P30 S76.5
G1 X-3.216
M05
G1 X-0.005Y0.03
M03 P30 S76.5
G1 X3.222
M05
G1 Y0.03
M03 P30 S76.5
G1 X-3.227
M05
G1 Y0.03
M03 P30 S76.5
G1 X3.225
M05
G1 Y0.03
M03 P30 S76.5
G1 X-3.226
M05
G1 Y0.03
M03 P30 S76.5
G1 X3.218
M05
G1 X-0.008Y0.03
M03 P30 S76.5
G1 X-3.199
M05
G1 X0.01Y0.03
M03 P30 S76.5
G1 X3.181
M05
G1 X-0.014Y0.03
M03 P30 S76.5
G1 X-3.15
M05
G1 X0.025Y0.03
M03 P30 S76.5
G1 X3.105
M05
G1 X-0.029Y0.03
M03 P30 S76.5
G1 X-3.036
M05
G1 X0.058Y0.03
M03 P30 S76.5
G1 X2.932
M05
G1 X-0.118Y0.03
M03 P30 S76.5
G1 X-2.678
M05
G1 X2.921Y-4.483
M03 P30 S76.5
G1 Y4.272
M05
G1 X-0.03Y0.091
M03 P30 S76.5
G1 Y-4.459
M05
G1 X-0.03Y-0.045
M03 P30 S76.5
G1 Y4.547
M05
G1 X-0.03Y0.026
M03 P30 S76.5
G1 Y-4.601
M05
G1 X-0.03Y-0.019
M03 P30 S76.5
G1 Y4.638
M05
G1 X-0.03Y0.011
M03 P30 S76.5
G1 Y-4.663
M05
G1 X-0.03Y-0.009
M03 P30 S76.5
G1 Y4.682
M05
G1 X-0.03Y0.008
M03 P30 S76.5
G1 Y-4.699
M05
G1 X-0.03
M03 P30 S76.5
G1 Y4.703
M05
G1 X-0.03
M03 P30 S76.5
G1 Y-4.711
M05
G1 X-0.03
M03 P30 S76.5
G1 Y4.716
M05
G1 X-0.03
M03 P30 S76.5
G1 Y-4.719
M05
G1 X-0.03
M03 P30 S76.5
G1 Y4.719
M05
G1 X-0.03
M03 P30 S76.5
G1 Y-4.72
M05
G1 X-0.03
M03 P30 S76.5
G1 Y4.72
M05
G1 X-0.03
M03 P30 S76.5
G1 Y-4.72
M05
G1 X-0.03
M03 P30 S76.5
G1 Y4.72
M05
G1 X-0.03
M03 P30 S76.5
G1 Y-4.72
M05
G1 X-0.03
M03 P30 S76.5
G1 Y4.72
M05
G1 X-0.03
M03 P30 S76.5
G1 Y-4.72
M05
G1 X-0.03Y4.138
M03 P30 S76.5
G1 Y0.582
M05
G1 X-0.03
M03 P30 S76.5
G1 Y-0.582
M05
G1 X-0.03
M03 P30 S76.5
G1 Y0.582
M05
G1 X-0.03
M03 P30 S76.5
G1 Y-0.582
M05
G1 X-0.03
M03 P30 S76.5
G1 Y0.582
M05
G1 X-0.03
M03 P30 S76.5
G1 Y-0.582
M05
G1 X-0.03
M03 P30 S76.5
G1 Y0.582
M05
G1 X-0.03
M03 P30 S76.5
G1 Y-0.582
M05
G1 X-0.03
M03 P30 S76.5
G1 Y0.582
M05
G1 X-0.03
M03 P30 S76.5
G1 Y-0.582
M05
G1 X-0.03
M03 P30 S76.5
G1 Y0.582
M05
G1 X-0.03
M03 P30 S76.5
G1 Y-0.582
M05
G1 X-0.03
M03 P30 S76.5
G1 Y0.582
M05
G1 X-0.03
M03 P30 S76.5
G1 Y-0.582
M05
G1 X-0.03
M03 P30 S76.5
G1 Y0.582
M05
G1 X-0.03
M03 P30 S76.5
G1 Y-0.582
M05
G1 X-0.03
M03 P30 S76.5
G1 Y0.582
M05
G1 X-0.03
M03 P30 S76.5
G1 Y-0.582
M05
G1 X-0.03
M03 P30 S76.5
G1 Y0.582
M05
G1 X-0.03
M03 P30 S76.5
G1 Y-0.582
M05
G1 X-0.03
M03 P30 S76.5
G1 Y0.582
M05
G1 X-0.03
M03 P30 S76.5
G1 Y-0.582
M05
G1 X-0.03
M03 P30 S76.5
G1 Y0.582
M05
G1 X-0.03
M03 P30 S76.5
G1 Y-0.582
M05
G1 X-0.03
M03 P30 S76.5
G1 Y0.582
M05
G1 X-0.03
M03 P30 S76.5
G1 Y-0.582
M05
G1 X-0.03
M03 P30 S76.5
G1 Y0.582
M05
G1 X-0.03
M03 P30 S76.5
G1 Y-0.582
M05
G1 X-0.03
M03 P30 S76.5
G1 Y0.582
M05
G1 X-0.03
M03 P30 S76.5
G1 Y-0.582
M05
G1 X-0.03
M03 P30 S76.5
G1 Y0.582
M05
G1 X-0.03
M03 P30 S76.5
G1 Y-0.582
M05
G1 X-0.03
M03 P30 S76.5
G1 Y0.582
M05
G1 X-0.03
M03 P30 S76.5
G1 Y-0.582
M05
G1 X-0.03
M03 P30 S76.5
G1 Y0.582
M05
G1 X-0.03
M03 P30 S76.5
G1 Y-0.582
M05
G1 X-0.03
M03 P30 S76.5
G1 Y0.582
M05
G1 X-0.03
M03 P30 S76.5
G1 Y-0.582
M05
G1 X-0.03
M03 P30 S76.5
G1 Y0.582
M05
G1 X-0.03
M03 P30 S76.5
G1 Y-0.582
M05
G1 X-0.03
M03 P30 S76.5
G1 Y0.582
M05
G1 X-0.03
M03 P30 S76.5
G1 Y-0.582
M05
G1 X-0.03
M03 P30 S76.5
G1 Y0.582
M05
G1 X-0.03
M03 P30 S76.5
G1 Y-0.582
M05
G1 X-0.03
M03 P30 S76.5
G1 Y0.582
M05
G1 X-0.03
M03 P30 S76.5
G1 Y-0.582
M05
G1 X-0.03
M03 P30 S76.5
G1 Y0.582
M05
G1 X-0.03
M03 P30 S76.5
G1 Y-0.582
M05
G1 X-0.03
M03 P30 S76.5
G1 Y0.582
M05
G1 X-0.03
M03 P30 S76.5
G1 Y-0.582
M05
G1 X-0.03
M03 P30 S76.5
G1 Y0.582
M05
G1 X-0.03
M03 P30 S76.5
G1 Y-0.582
M05
G1 X-0.03
M03 P30 S76.5
G1 Y0.582
M05
G1 X-0.03
M03 P30 S76.5
G1 Y-0.582
M05
G1 X-0.03
M03 P30 S76.5
G1 Y0.583
M05
G1 X-0.03
M03 P30 S76.5
G1 Y-0.583
M05
G1 X-0.03
M03 P30 S76.5
G1 Y0.583
M05
G1 X-0.03
M03 P30 S76.5
G1 Y-0.583
M05
G1 X-0.03
M03 P30 S76.5
G1 Y0.583
M05
G1 X-0.03
M03 P30 S76.5
G1 Y-0.583
M05
G1 X-0.03
M03 P30 S76.5
G1 Y0.583
M05
G1 X-0.03
M03 P30 S76.5
G1 Y-0.583
M05
G1 X-0.03
M03 P30 S76.5
G1 Y0.583
M05
G1 X-0.03
M03 P30 S76.5
G1 Y-0.583
M05
G1 X-0.03
M03 P30 S76.5
G1 Y0.583
M05
G1 X-0.03
M03 P30 S76.5
G1 Y-0.583
M05
G1 X-0.03
M03 P30 S76.5
G1 Y0.583
M05
G1 X-0.03
M03 P30 S76.5
G1 Y-0.583
M05
G1 X-0.03
M03 P30 S76.5
G1 Y0.583
M05
G1 X-0.03
M03 P30 S76.5
G1 Y-0.583
M05
G1 X-0.03
M03 P30 S76.5
G1 Y0.583
M05
G1 X-0.03
M03 P30 S76.5
G1 Y-0.583
M05
G1 X-0.03
M03 P30 S76.5
G1 Y0.583
M05
G1 X-0.03
M03 P30 S76.5
G1 Y-0.583
M05
G1 X-0.03
M03 P30 S76.5
G1 Y0.582
M05
G1 X-0.03
M03 P30 S76.5
G1 Y-0.582
M05
G1 X-0.03
M03 P30 S76.5
G1 Y0.579
M05
G1 X-0.03
M03 P30 S76.5
G1 Y-0.578
M05
G1 X-0.03
M03 P30 S76.5
G1 Y0.575
M05
G1 X-0.03
M03 P30 S76.5
G1 Y-0.571
M05
G1 X-0.03Y0.007
M03 P30 S76.5
G1 Y0.553
M05
G1 X-0.03Y-0.008
M03 P30 S76.5
G1 Y-0.535
M05
G1 X-0.03Y0.016
M03 P30 S76.5
G1 Y0.508
M05
G1 X-0.03Y-0.012
M03 P30 S76.5
G1 Y-0.48
M05
G1 X-0.03Y0.02
M03 P30 S76.5
G1 Y0.44
M05
G1 X-0.03Y-0.021
M03 P30 S76.5
G1 Y-0.389
M05
G1 X-0.03Y0.042
M03 P30 S76.5
G1 Y0.312
M05
G1 X-0.03Y-0.069
M03 P30 S76.5
G1 Y-0.156
M05
G1 X2.61Y-4.371
M03 P30 S76.5
G1 Y0.583
M05
G1 Y1.19
M03 P30 S76.5
G1 Y0.583
M05
G1 X-0.03
M03 P30 S76.5
G1 Y-0.583
M05
G1 Y-1.191
M03 P30 S76.5
G1 Y-0.582
M05
G1 X-0.03
M03 P30 S76.5
G1 Y0.582
M05
G1 Y1.191
M03 P30 S76.5
G1 Y0.583
M05
G1 X-0.03
M03 P30 S76.5
G1 Y-0.583
M05
G1 Y-1.191
M03 P30 S76.5
G1 Y-0.582
M05
G1 X-0.03
M03 P30 S76.5
G1 Y0.582
M05
G1 Y1.191
M03 P30 S76.5
G1 Y0.583
M05
G1 X-0.03
M03 P30 S76.5
G1 Y-0.583
M05
G1 Y-1.191
M03 P30 S76.5
G1 Y-0.582
M05
G1 X-0.03
M03 P30 S76.5
G1 Y0.582
M05
G1 Y1.191
M03 P30 S76.5
G1 Y0.583
M05
G1 X-0.03
M03 P30 S76.5
G1 Y-0.583
M05
G1 Y-1.191
M03 P30 S76.5
G1 Y-0.582
M05
G1 X-0.03
M03 P30 S76.5
G1 Y0.582
M05
G1 Y1.191
M03 P30 S76.5
G1 Y0.583
M05
G1 X-0.03
M03 P30 S76.5
G1 Y-0.583
M05
G1 Y-1.191
M03 P30 S76.5
G1 Y-0.582
M05
G1 X-0.03
M03 P30 S76.5
G1 Y0.582
M05
G1 Y1.191
M03 P30 S76.5
G1 Y0.583
M05
G1 X-0.03
M03 P30 S76.5
G1 Y-0.583
M05
G1 Y-1.191
M03 P30 S76.5
G1 Y-0.582
M05
G1 X-0.03
M03 P30 S76.5
G1 Y0.582
M05
G1 Y1.191
M03 P30 S76.5
G1 Y0.583
M05
G1 X-0.03
M03 P30 S76.5
G1 Y-0.583
M05
G1 Y-1.191
M03 P30 S76.5
G1 Y-0.582
M05
G1 X-0.03
M03 P30 S76.5
G1 Y0.582
M05
G1 Y1.191
M03 P30 S76.5
G1 Y0.583
M05
G1 X-0.03
M03 P30 S76.5
G1 Y-0.583
M05
G1 Y-1.191
M03 P30 S76.5
G1 Y-0.582
M05
G1 X-0.03
M03 P30 S76.5
G1 Y0.582
M05
G1 Y1.191
M03 P30 S76.5
G1 Y0.583
M05
G1 X-0.03
M03 P30 S76.5
G1 Y-0.583
M05
G1 Y-1.191
M03 P30 S76.5
G1 Y-0.582
M05
G1 X-0.03
M03 P30 S76.5
G1 Y0.582
M05
G1 Y1.191
M03 P30 S76.5
G1 Y0.583
M05
G1 X-0.03
M03 P30 S76.5
G1 Y-0.583
M05
G1 Y-1.191
M03 P30 S76.5
G1 Y-0.582
M05
G1 X-0.03
M03 P30 S76.5
G1 Y0.582
M05
G1 Y1.191
M03 P30 S76.5
G1 Y0.583
M05
G1 X-0.03
M03 P30 S76.5
G1 Y-0.583
M05
G1 Y-1.191
M03 P30 S76.5
G1 Y-0.582
M05
G1 X-0.03
M03 P30 S76.5
G1 Y0.582
M05
G1 Y1.191
M03 P30 S76.5
G1 Y0.583
M05
G1 X-0.03
M03 P30 S76.5
G1 Y-0.583
M05
G1 Y-1.191
M03 P30 S76.5
G1 Y-0.582
M05
G1 X-0.03
M03 P30 S76.5
G1 Y0.582
M05
G1 Y1.191
M03 P30 S76.5
G1 Y0.583
M05
G1 X-0.03
M03 P30 S76.5
G1 Y-0.583
M05
G1 Y-1.191
M03 P30 S76.5
G1 Y-0.582
M05
G1 X-0.03
M03 P30 S76.5
G1 Y0.582
M05
G1 Y1.191
M03 P30 S76.5
G1 Y0.583
M05
G1 X-0.03
M03 P30 S76.5
G1 Y-0.583
M05
G1 Y-1.191
M03 P30 S76.5
G1 Y-0.582
M05
G1 X-0.03
M03 P30 S76.5
G1 Y0.582
M05
G1 Y1.191
M03 P30 S76.5
G1 Y0.583
M05
G1 X-0.03
M03 P30 S76.5
G1 Y-0.583
M05
G1 Y-1.191
M03 P30 S76.5
G1 Y-0.582
M05
G1 X-0.03
M03 P30 S76.5
G1 Y0.582
M05
G1 Y1.191
M03 P30 S76.5
G1 Y0.583
M05
G1 X-0.03
M03 P30 S76.5
G1 Y-0.583
M05
G1 Y-1.191
M03 P30 S76.5
G1 Y-0.582
M05
G1 X-0.03
M03 P30 S76.5
G1 Y0.582
M05
G1 Y1.191
M03 P30 S76.5
G1 Y0.583
M05
G1 X-0.03
M03 P30 S76.5
G1 Y-0.583
M05
G1 Y-1.191
M03 P30 S76.5
G1 Y-0.582
M05
G1 X-0.03
M03 P30 S76.5
G1 Y0.582
M05
G1 Y1.191
M03 P30 S76.5
G1 Y0.583
M05
G1 X-0.03
M03 P30 S76.5
G1 Y-0.583
M05
G1 Y-1.191
M03 P30 S76.5
G1 Y-0.582
M05
G1 X-0.03
M03 P30 S76.5
G1 Y0.582
M05
G1 Y1.191
M03 P30 S76.5
G1 Y0.583
M05
G1 X-0.03
M03 P30 S76.5
G1 Y-0.583
M05
G1 Y-1.191
M03 P30 S76.5
G1 Y-0.582
M05
G1 X-0.03
M03 P30 S76.5
G1 Y0.582
M05
G1 Y1.191
M03 P30 S76.5
G1 Y0.583
M05
G1 X-0.03
M03 P30 S76.5
G1 Y-0.583
M05
G1 Y-1.191
M03 P30 S76.5
G1 Y-0.582
M05
G1 X-0.03
M03 P30 S76.5
G1 Y0.582
M05
G1 Y1.191
M03 P30 S76.5
G1 Y0.583
M05
G1 X-0.03
M03 P30 S76.5
G1 Y-0.583
M05
G1 Y-1.191
M03 P30 S76.5
G1 Y-0.582
M05
G1 X-0.03
M03 P30 S76.5
G1 Y0.582
M05
G1 Y1.191
M03 P30 S76.5
G1 Y0.583
M05
G1 X-0.03
M03 P30 S76.5
G1 Y-0.583
M05
G1 Y-1.191
M03 P30 S76.5
G1 Y-0.582
M05
G1 X-0.03
M03 P30 S76.5
G1 Y0.582
M05
G1 Y1.191
M03 P30 S76.5
G1 Y0.582
M05
G1 X-0.03
M03 P30 S76.5
G1 Y-0.582
M05
G1 Y-1.191
M03 P30 S76.5
G1 Y-0.582
M05
G1 X-0.03
M03 P30 S76.5
G1 Y0.582
M05
G1 Y1.191
M03 P30 S76.5
G1 Y0.582
M05
G1 X-0.03
M03 P30 S76.5
G1 Y-0.582
M05
G1 Y-1.191
M03 P30 S76.5
G1 Y-0.582
M05
G1 X-0.03
M03 P30 S76.5
G1 Y0.582
M05
G1 Y1.191
M03 P30 S76.5
G1 Y0.582
M05
G1 X-0.03
M03 P30 S76.5
G1 Y-0.582
M05
G1 Y-1.191
M03 P30 S76.5
G1 Y-0.582
M05
G1 X-0.03
M03 P30 S76.5
G1 Y0.582
M05
G1 Y1.191
M03 P30 S76.5
G1 Y0.582
M05
G1 X-0.03
M03 P30 S76.5
G1 Y-0.582
M05
G1 Y-1.191
M03 P30 S76.5
G1 Y-0.582
M05
G1 X-0.03
M03 P30 S76.5
G1 Y0.582
M05
G1 Y1.191
M03 P30 S76.5
G1 Y0.582
M05
G1 X-0.03
M03 P30 S76.5
G1 Y-0.582
M05
G1 Y-1.191
M03 P30 S76.5
G1 Y-0.582
M05
G1 X-0.03
M03 P30 S76.5
G1 Y0.582
M05
G1 Y1.191
M03 P30 S76.5
G1 Y0.582
M05
G1 X-0.03
M03 P30 S76.5
G1 Y-0.581
M05
G1 Y-1.192
M03 P30 S76.5
G1 Y-0.582
M05
G1 X-0.03
M03 P30 S76.5
G1 Y0.582
M05
G1 Y1.194
M03 P30 S76.5
G1 Y0.576
M05
G1 X-0.03
M03 P30 S76.5
G1 Y-0.572
M05
G1 Y-1.198
M03 P30 S76.5
G1 Y-0.582
M05
G1 X-0.03
M03 P30 S76.5
G1 Y0.582
M05
G1 Y1.202
M03 P30 S76.5
G1 Y0.559
M05
G1 X-0.03Y-0.006
M03 P30 S76.5
G1 Y-0.545
M05
G1 Y-1.21
M03 P30 S76.5
G1 Y-0.582
M05
G1 X-0.03
M03 P30 S76.5
G1 Y0.582
M05
G1 Y1.219
M03 P30 S76.5
G1 Y0.526
M05
G1 X-0.03Y-0.013
M03 P30 S76.5
G1 Y-0.499
M05
G1 Y-1.233
M03 P30 S76.5
G1 Y-0.582
M05
G1 X-0.03
M03 P30 S76.5
G1 Y0.582
M05
G1 Y1.248
M03 P30 S76.5
G1 Y0.468
M05
G1 X-0.03Y-0.023
M03 P30 S76.5
G1 Y-0.419
M05
G1 Y-1.274
M03 P30 S76.5
G1 Y-0.582
M05
G1 X-0.03
M03 P30 S76.5
G1 Y0.582
M05
G1 Y1.308
M03 P30 S76.5
G1 Y0.352
M05
G1 X-0.03Y-0.054
M03 P30 S76.5
G1 Y-0.239
M05
G1 Y-1.367
M03 P30 S76.5
G1 Y-0.582
M05
G1 X-0.03
M03 P30 S76.5
G1 Y0.582
M05
G1 X-0.03
M03 P30 S76.5
G1 Y-0.582
M05
G1 X-0.03
M03 P30 S76.5
G1 Y0.582
M05
G1 X-0.03
M03 P30 S76.5
G1 Y-0.581
M05
G1 X-0.03
M03 P30 S76.5
G1 Y0.581
M05
G1 X-0.03
M03 P30 S76.5
G1 Y-0.581
M05
G1 X-0.03
M03 P30 S76.5
G1 Y0.581
M05
G1 X-0.03
M03 P30 S76.5
G1 Y-0.581
M05
G1 X-0.03
M03 P30 S76.5
G1 Y0.581
M05
G1 X-0.03
M03 P30 S76.5
G1 Y-0.581
M05
G1 X-0.03
M03 P30 S76.5
G1 Y0.58
M05
G1 X-0.03
M03 P30 S76.5
G1 Y-0.577
M05
G1 X-0.03
M03 P30 S76.5
G1 Y0.57
M05
G1 X-0.03Y-0.007
M03 P30 S76.5
G1 Y-0.554
M05
G1 X-0.03Y0.008
M03 P30 S76.5
G1 Y0.539
M05
G1 X-0.03Y-0.012
M03 P30 S76.5
G1 Y-0.519
M05
G1 X-0.03Y0.015
M03 P30 S76.5
G1 Y0.49
M05
G1 X-0.03Y-0.019
M03 P30 S76.5
G1 Y-0.455
M05
G1 X-0.03Y0.027
M03 P30 S76.5
G1 Y0.404
M05
G1 X-0.03Y-0.039
M03 P30 S76.5
G1 Y-0.328
M05
G1 X-0.03Y0.07
M03 P30 S76.5
G1 Y0.19
M05
G0 X6.813 Y-0.378 F0
M03 P30 S76.5
G1 X0.116 F2300
M05
G1 X0.076Y0.03
M03 P30 S76.5
G1 X-0.271
M05
G1 X-0.04Y0.03
M03 P30 S76.5
G1 X0.351
M05
G1 X0.028Y0.03
M03 P30 S76.5
G1 X-0.406
M05
G1 X-0.015Y0.03
M03 P30 S76.5
G1 X0.436
M05
G1 X0.014Y0.03
M03 P30 S76.5
G1 X-0.463
M05
G1 X-0.009Y0.03
M03 P30 S76.5
G1 X0.482
M05
G1 X0.007Y0.03
M03 P30 S76.5
G1 X-0.495
M05
G1 Y0.03
M03 P30 S76.5
G1 X0.501
M05
G1 Y0.03
M03 P30 S76.5
G1 X-0.508
M05
G1 Y0.03
M03 P30 S76.5
G1 X0.513
M05
G1 Y0.03
M03 P30 S76.5
G1 X-0.517
M05
G1 Y0.03
M03 P30 S76.5
G1 X0.518
M05
G1 Y0.03
M03 P30 S76.5
G1 X-0.518
M05
G1 Y0.03
M03 P30 S76.5
G1 X0.518
M05
G1 Y0.03
M03 P30 S76.5
G1 X-0.518
M05
G1 Y0.03
M03 P30 S76.5
G1 X0.518
M05
G1 Y0.03
M03 P30 S76.5
G1 X-0.518
M05
G1 Y0.03
M03 P30 S76.5
G1 X0.518
M05
G1 Y0.03
M03 P30 S76.5
G1 X-0.518
M05
G1 Y0.03
M03 P30 S76.5
G1 X0.518
M05
G1 Y0.03
M03 P30 S76.5
G1 X-0.518
M05
G1 Y0.03
M03 P30 S76.5
G1 X0.518
M05
G1 Y0.03
M03 P30 S76.5
G1 X-0.518
M05
G1 Y0.03
M03 P30 S76.5
G1 X0.518
M05
G1 Y0.03
M03 P30 S76.5
G1 X-0.518
M05
G1 Y0.03
M03 P30 S76.5
G1 X0.518
M05
G1 Y0.03
M03 P30 S76.5
G1 X-0.518
M05
G1 Y0.03
M03 P30 S76.5
G1 X0.518
M05
G1 Y0.03
M03 P30 S76.5
G1 X-0.518
M05
G1 Y0.03
M03 P30 S76.5
G1 X0.518
M05
G1 Y0.03
M03 P30 S76.5
G1 X-0.518
M05
G1 Y0.03
M03 P30 S76.5
G1 X0.518
M05
G1 Y0.03
M03 P30 S76.5
G1 X-0.518
M05
G1 Y0.03
M03 P30 S76.5
G1 X0.518
M05
G1 Y0.03
M03 P30 S76.5
G1 X-0.518
M05
G1 Y0.03
M03 P30 S76.5
G1 X0.518
M05
G1 Y0.03
M03 P30 S76.5
G1 X-0.518
M05
G1 Y0.03
M03 P30 S76.5
G1 X0.518
M05
G1 Y0.03
M03 P30 S76.5
G1 X-0.518
M05
G1 Y0.03
M03 P30 S76.5
G1 X0.518
M05
G1 Y0.03
M03 P30 S76.5
G1 X-0.518
M05
G1 Y0.03
M03 P30 S76.5
G1 X0.518
M05
G1 Y0.03
M03 P30 S76.5
G1 X-0.518
M05
G1 Y0.03
M03 P30 S76.5
G1 X0.518
M05
G1 Y0.03
M03 P30 S76.5
G1 X-0.518
M05
G1 Y0.03
M03 P30 S76.5
G1 X0.518
M05
G1 Y0.03
M03 P30 S76.5
G1 X-0.518
M05
G1 Y0.03
M03 P30 S76.5
G1 X0.518
M05
G1 Y0.03
M03 P30 S76.5
G1 X-0.518
M05
G1 Y0.03
M03 P30 S76.5
G1 X0.518
M05
G1 Y0.03
M03 P30 S76.5
G1 X-0.518
M05
G1 Y0.03
M03 P30 S76.5
G1 X0.518
M05
G1 Y0.03
M03 P30 S76.5
G1 X-0.518
M05
G1 Y0.03
M03 P30 S76.5
G1 X0.518
M05
G1 Y0.03
M03 P30 S76.5
G1 X-0.518
M05
G1 Y0.03
M03 P30 S76.5
G1 X0.518
M05
G1 Y0.03
M03 P30 S76.5
G1 X-0.518
M05
G1 Y0.03
M03 P30 S76.5
G1 X0.518
M05
G1 Y0.03
M03 P30 S76.5
G1 X-0.518
M05
G1 Y0.03
M03 P30 S76.5
G1 X0.518
M05
G1 Y0.03
M03 P30 S76.5
G1 X-0.518
M05
G1 Y0.03
M03 P30 S76.5
G1 X0.518
M05
G1 Y0.03
M03 P30 S76.5
G1 X-0.518
M05
G1 Y0.03
M03 P30 S76.5
G1 X0.518
M05
G1 Y0.03
M03 P30 S76.5
G1 X-0.518
M05
G1 Y0.03
M03 P30 S76.5
G1 X0.518
M05
G1 Y0.03
M03 P30 S76.5
G1 X-0.518
M05
G1 Y0.03
M03 P30 S76.5
G1 X0.518
M05
G1 Y0.03
M03 P30 S76.5
G1 X-0.518
M05
G1 Y0.03
M03 P30 S76.5
G1 X0.518
M05
G1 Y0.03
M03 P30 S76.5
G1 X-0.518
M05
G1 Y0.03
M03 P30 S76.5
G1 X0.518
M05
G1 Y0.03
M03 P30 S76.5
G1 X-0.518
M05
G1 Y0.03
M03 P30 S76.5
G1 X0.518
M05
G1 Y0.03
M03 P30 S76.5
G1 X-0.518
M05
G1 Y0.03
M03 P30 S76.5
G1 X0.518
M05
G1 Y0.03
M03 P30 S76.5
G1 X-0.518
M05
G1 Y0.03
M03 P30 S76.5
G1 X0.518
M05
G1 Y0.03
M03 P30 S76.5
G1 X-0.518
M05
G1 Y0.03
M03 P30 S76.5
G1 X0.518
M05
G1 Y0.03
M03 P30 S76.5
G1 X-0.518
M05
G1 Y0.03
M03 P30 S76.5
G1 X0.518
M05
G1 Y0.03
M03 P30 S76.5
G1 X-0.518
M05
G1 Y0.03
M03 P30 S76.5
G1 X0.518
M05
G1 Y0.03
M03 P30 S76.5
G1 X-0.518
M05
G1 Y0.03
M03 P30 S76.5
G1 X0.518
M05
G1 Y0.03
M03 P30 S76.5
G1 X-0.518
M05
G1 Y0.03
M03 P30 S76.5
G1 X0.518
M05
G1 Y0.03
M03 P30 S76.5
G1 X-0.518
M05
G1 Y0.03
M03 P30 S76.5
G1 X0.517
M05
G1 Y0.03
M03 P30 S76.5
G1 X-0.517
M05
G1 Y0.03
M03 P30 S76.5
G1 X0.517
M05
G1 Y0.03
M03 P30 S76.5
G1 X-0.517
M05
G1 Y0.03
M03 P30 S76.5
G1 X0.517
M05
G1 Y0.03
M03 P30 S76.5
G1 X-0.517
M05
G1 Y0.03
M03 P30 S76.5
G1 X0.517
M05
G1 Y0.03
M03 P30 S76.5
G1 X-0.517
M05
G1 Y0.03
M03 P30 S76.5
G1 X0.517
M05
G1 Y0.03
M03 P30 S76.5
G1 X-0.517
M05
G1 Y0.03
M03 P30 S76.5
G1 X0.517
M05
G1 Y0.03
M03 P30 S76.5
G1 X-0.517
M05
G1 Y0.03
M03 P30 S76.5
G1 X0.517
M05
G1 Y0.03
M03 P30 S76.5
G1 X-0.517
M05
G1 Y0.03
M03 P30 S76.5
G1 X0.517
M05
G1 Y0.03
M03 P30 S76.5
G1 X-0.517
M05
G1 Y0.03
M03 P30 S76.5
G1 X0.517
M05
G1 Y0.03
M03 P30 S76.5
G1 X-0.517
M05
G1 Y0.03
M03 P30 S76.5
G1 X0.517
M05
G1 Y0.03
M03 P30 S76.5
G1 X-0.517
M05
G1 Y0.03
M03 P30 S76.5
G1 X0.517
M05
G1 Y0.03
M03 P30 S76.5
G1 X-0.517
M05
G1 Y0.03
M03 P30 S76.5
G1 X0.517
M05
G1 Y0.03
M03 P30 S76.5
G1 X-0.517
M05
G1 Y0.03
M03 P30 S76.5
G1 X0.517
M05
G1 Y0.03
M03 P30 S76.5
G1 X-0.517
M05
G1 Y0.03
M03 P30 S76.5
G1 X0.517
M05
G1 Y0.03
M03 P30 S76.5
G1 X-0.517
M05
G1 Y0.03
M03 P30 S76.5
G1 X0.517
M05
G1 Y0.03
M03 P30 S76.5
G1 X-0.517
M05
G1 Y0.03
M03 P30 S76.5
G1 X0.517
M05
G1 Y0.03
M03 P30 S76.5
G1 X-0.517
M05
G1 Y0.03
M03 P30 S76.5
G1 X0.517
M05
G1 Y0.03
M03 P30 S76.5
G1 X-0.517
M05
G1 Y0.03
M03 P30 S76.5
G1 X0.517
M05
G1 Y0.03
M03 P30 S76.5
G1 X-0.517
M05
G1 Y0.03
M03 P30 S76.5
G1 X0.517
M05
G1 Y0.03
M03 P30 S76.5
G1 X-0.517
M05
G1 Y0.03
M03 P30 S76.5
G1 X0.517
M05
G1 Y0.03
M03 P30 S76.5
G1 X-0.517
M05
G1 Y0.03
M03 P30 S76.5
G1 X0.517
M05
G1 Y0.03
M03 P30 S76.5
G1 X-0.517
M05
G1 Y0.03
M03 P30 S76.5
G1 X0.517
M05
G1 Y0.03
M03 P30 S76.5
G1 X-0.517
M05
G1 Y0.03
M03 P30 S76.5
G1 X0.517
M05
G1 Y0.03
M03 P30 S76.5
G1 X-0.517
M05
G1 Y0.03
M03 P30 S76.5
G1 X0.517
M05
G1 Y0.03
M03 P30 S76.5
G1 X-0.517
M05
G1 Y0.03
M03 P30 S76.5
G1 X0.517
M05
