;Header Start
;header_type: laser
;file_total_lines:1156
;max_x(mm): 165.6
;max_y(mm): 133.13
;max_z(mm): 0
;min_x(mm): 0.5
;min_y(mm): 0.5
;min_z(mm): 0
;Header End
; LightBurn 1.2.04
; SnapMaker device profile, user origin
; Bounds: X0.5 Y0.5 to X165.6 Y133.13

;USER START SCRIPT
M106 P0 S255
G28
G53
G0 Z45 F6000
G54
G92 Z0
G53
G0 X100 Y75 F6000
G54
G92 X0 Y0
M3 S0


;USER START SCRIPT

G21
G90
G0 X0 Y0 F0
G91
; Cut @ 1999.998 mm/min, 100% power
M106 P0 S255
M05
G0 X15.117 Y5.04 F0
; Layer NO CUT
M03 P100 S255
G1 X0.184 Y-0.211 F2000
G1 X0.212 Y-0.187
G1 X0.237 Y-0.159
G1 X0.257 Y-0.126
G1 X0.267 Y-0.09
G1 X0.275 Y-0.055
G1 X0.279 Y-0.018
G1 X0.278 Y0.018
G1 X0.275 Y0.055
G1 X0.267 Y0.09
G1 X0.257 Y0.126
G1 X0.237 Y0.159
G1 X0.212 Y0.187
G1 X0.184 Y0.211
G1 X0.155 Y0.232
G1 X0.123 Y0.251
G1 X0.09 Y0.265
G1 X0.056 Y0.277
G1 X0.018 Y0.285
G1 X-0.018 Y0.285
G1 X-0.056 Y0.277
G1 X-0.09 Y0.265
G1 X-0.123 Y0.251
G1 X-0.155 Y0.232
G1 X-0.184 Y0.211
G1 X-0.212 Y0.187
G1 X-0.237 Y0.159
G1 X-0.257 Y0.126
G1 X-0.267 Y0.09
G1 X-0.275 Y0.055
G1 X-0.279 Y0.018
G1 X-0.278 Y-0.018
G1 X-0.275 Y-0.055
G1 X-0.267 Y-0.09
G1 X-0.257 Y-0.126
G1 X-0.237 Y-0.159
G1 X-0.212 Y-0.187
G1 X-0.184 Y-0.211
G1 X-0.155 Y-0.232
G1 X-0.123 Y-0.251
G1 X-0.09 Y-0.265
G1 X-0.056 Y-0.277
G1 X-0.018 Y-0.285
G1 X0.018 Y-0.285
G1 X0.056 Y-0.277
G1 X0.09 Y-0.265
G1 X0.123 Y-0.251
G1 X0.155 Y-0.232
M05
G0 X20.851 Y25.289 F0
M03 P100 S255
G1 X0.591 Y-0.2 F2000
G1 X0.608 Y-0.12
G1 X0.616 Y-0.04
G1 X0.615 Y0.04
G1 X0.608 Y0.12
G1 X0.591 Y0.2
G1 X0.568 Y0.279
G1 X0.525 Y0.352
G1 X0.468 Y0.413
G1 X0.408 Y0.466
G1 X0.342 Y0.513
G1 X0.273 Y0.553
G1 X0.2 Y0.586
G1 X0.122 Y0.612
G1 X0.042 Y0.631
G1 X-0.042 Y0.632
G1 X-0.122 Y0.612
G1 X-0.2 Y0.586
G1 X-0.273 Y0.553
G1 X-0.342 Y0.513
G1 X-0.408 Y0.467
G1 X-0.468 Y0.412
G1 X-0.526 Y0.352
G1 X-0.567 Y0.279
G1 X-0.592 Y0.2
G1 X-0.607 Y0.12
G1 X-0.616 Y0.039
G1 X-0.615 Y-0.039
G1 X-0.608 Y-0.12
G1 X-0.591 Y-0.2
G1 X-0.568 Y-0.279
G1 X-0.525 Y-0.352
G1 X-0.468 Y-0.413
G1 X-0.408 Y-0.466
G1 X-0.342 Y-0.513
G1 X-0.273 Y-0.553
G1 X-0.2 Y-0.586
G1 X-0.122 Y-0.612
G1 X-0.042 Y-0.632
G1 X0.042 Y-0.631
G1 X0.122 Y-0.612
G1 X0.2 Y-0.586
G1 X0.273 Y-0.553
G1 X0.342 Y-0.513
G1 X0.408 Y-0.467
G1 X0.468 Y-0.412
G1 X0.526 Y-0.352
G1 X0.567 Y-0.279
M05
G0 X1.815 Y11.733 F0
M03 P100 S255
G1 X0.238 Y0.031 F2000
G1 X0.225 Y0.094
G1 X0.194 Y0.148
G1 X0.146 Y0.191
G1 X0.092 Y0.222
G1 X0.032 Y0.241
G1 X-0.032 Y0.243
G1 X-0.093 Y0.221
G1 X-0.146 Y0.191
G1 X-0.193 Y0.149
G1 X-0.226 Y0.093
G1 X-0.238 Y0.031
G1 X-0.238 Y-0.031
G1 X-0.225 Y-0.094
G1 X-0.194 Y-0.148
G1 X-0.146 Y-0.191
G1 X-0.092 Y-0.222
G1 X-0.032 Y-0.242
G1 X0.033 Y-0.242
G1 X0.092 Y-0.221
G1 X0.146 Y-0.191
G1 X0.193 Y-0.149
G1 X0.226 Y-0.093
G1 X0.238 Y-0.031
M05
G0 X43.217 Y15.482 F0
M03 P100 S255
G1 X0.261 Y-0.319 F2000
G1 X0.282 Y-0.302
G1 X0.302 Y-0.285
G1 X0.323 Y-0.265
G1 X0.341 Y-0.246
G1 X0.359 Y-0.223
G1 X0.374 Y-0.2
G1 X0.383 Y-0.172
G1 X0.391 Y-0.147
G1 X0.397 Y-0.119
G1 X0.403 Y-0.093
G1 X0.407 Y-0.067
G1 X0.41 Y-0.039
G1 X0.411 Y-0.014
G1 X0.411 Y0.014
G1 X0.409 Y0.04
G1 X0.407 Y0.066
G1 X0.403 Y0.093
G1 X0.398 Y0.12
G1 X0.39 Y0.146
G1 X0.383 Y0.173
G1 X0.374 Y0.2
G1 X0.359 Y0.224
G1 X0.341 Y0.245
G1 X0.322 Y0.265
G1 X0.303 Y0.285
G1 X0.282 Y0.303
G1 X0.261 Y0.319
G1 X0.239 Y0.335
G1 X0.217 Y0.349
G1 X0.194 Y0.362
G1 X0.17 Y0.375
G1 X0.145 Y0.386
G1 X0.121 Y0.395
G1 X0.095 Y0.404
G1 X0.069 Y0.412
G1 X0.042 Y0.417
G1 X0.014 Y0.423
G1 X-0.015 Y0.424
G1 X-0.041 Y0.418
G1 X-0.069 Y0.412
G1 X-0.095 Y0.404
G1 X-0.121 Y0.396
G1 X-0.146 Y0.385
G1 X-0.17 Y0.375
G1 X-0.194 Y0.363
G1 X-0.217 Y0.349
G1 X-0.24 Y0.335
G1 X-0.261 Y0.319
G1 X-0.282 Y0.302
G1 X-0.302 Y0.285
G1 X-0.322 Y0.265
G1 X-0.342 Y0.246
G1 X-0.359 Y0.223
G1 X-0.374 Y0.2
G1 X-0.383 Y0.172
G1 X-0.391 Y0.147
G1 X-0.397 Y0.119
G1 X-0.403 Y0.093
G1 X-0.407 Y0.067
G1 X-0.41 Y0.039
G1 X-0.411 Y0.014
G1 X-0.411 Y-0.014
G1 X-0.409 Y-0.04
G1 X-0.407 Y-0.066
G1 X-0.403 Y-0.093
G1 X-0.398 Y-0.12
G1 X-0.39 Y-0.146
G1 X-0.383 Y-0.173
G1 X-0.374 Y-0.2
G1 X-0.359 Y-0.224
G1 X-0.341 Y-0.245
G1 X-0.322 Y-0.265
G1 X-0.303 Y-0.285
G1 X-0.282 Y-0.302
G1 X-0.261 Y-0.32
G1 X-0.239 Y-0.335
G1 X-0.217 Y-0.349
G1 X-0.194 Y-0.362
G1 X-0.17 Y-0.375
G1 X-0.145 Y-0.386
G1 X-0.121 Y-0.395
G1 X-0.095 Y-0.404
G1 X-0.069 Y-0.412
G1 X-0.042 Y-0.417
G1 X-0.013 Y-0.424
G1 X0.014 Y-0.423
G1 X0.041 Y-0.418
G1 X0.069 Y-0.412
G1 X0.095 Y-0.404
G1 X0.121 Y-0.396
G1 X0.146 Y-0.385
G1 X0.17 Y-0.375
G1 X0.194 Y-0.363
G1 X0.217 Y-0.349
G1 X0.24 Y-0.335
M05
G0 X36.118 Y9.13 F0
M03 P100 S255
G1 X0.217 Y-0.349 F2000
G1 X0.239 Y-0.335
G1 X0.261 Y-0.319
G1 X0.282 Y-0.303
G1 X0.303 Y-0.284
G1 X0.322 Y-0.266
G1 X0.341 Y-0.245
G1 X0.359 Y-0.224
G1 X0.374 Y-0.2
G1 X0.383 Y-0.173
G1 X0.391 Y-0.146
G1 X0.398 Y-0.12
G1 X0.403 Y-0.093
G1 X0.407 Y-0.066
G1 X0.409 Y-0.04
G1 X0.411 Y-0.014
G1 X0.411 Y0.014
G1 X0.41 Y0.04
G1 X0.407 Y0.066
G1 X0.403 Y0.093
G1 X0.397 Y0.12
G1 X0.391 Y0.146
G1 X0.383 Y0.173
G1 X0.374 Y0.199
G1 X0.359 Y0.224
G1 X0.342 Y0.246
G1 X0.322 Y0.265
G1 X0.302 Y0.285
G1 X0.282 Y0.302
G1 X0.261 Y0.319
G1 X0.24 Y0.335
G1 X0.216 Y0.35
G1 X0.194 Y0.362
G1 X0.171 Y0.375
G1 X0.145 Y0.386
G1 X0.121 Y0.396
G1 X0.095 Y0.404
G1 X0.069 Y0.412
G1 X0.042 Y0.418
G1 X0.014 Y0.423
G1 X-0.015 Y0.423
G1 X-0.041 Y0.419
G1 X-0.069 Y0.411
G1 X-0.095 Y0.405
G1 X-0.121 Y0.395
G1 X-0.146 Y0.386
G1 X-0.17 Y0.375
G1 X-0.194 Y0.362
G1 X-0.217 Y0.35
G1 X-0.24 Y0.334
G1 X-0.261 Y0.32
G1 X-0.282 Y0.302
G1 X-0.302 Y0.284
G1 X-0.322 Y0.266
G1 X-0.342 Y0.245
G1 X-0.359 Y0.224
G1 X-0.374 Y0.199
G1 X-0.383 Y0.173
G1 X-0.391 Y0.146
G1 X-0.397 Y0.12
G1 X-0.403 Y0.093
G1 X-0.407 Y0.066
G1 X-0.41 Y0.04
G1 X-0.411 Y0.013
G1 X-0.411 Y-0.013
G1 X-0.409 Y-0.04
G1 X-0.407 Y-0.067
G1 X-0.403 Y-0.093
G1 X-0.398 Y-0.12
G1 X-0.39 Y-0.146
G1 X-0.383 Y-0.173
G1 X-0.374 Y-0.199
G1 X-0.359 Y-0.224
G1 X-0.341 Y-0.245
G1 X-0.322 Y-0.266
G1 X-0.303 Y-0.285
G1 X-0.282 Y-0.302
G1 X-0.261 Y-0.319
G1 X-0.239 Y-0.335
G1 X-0.217 Y-0.349
G1 X-0.194 Y-0.363
G1 X-0.17 Y-0.375
G1 X-0.145 Y-0.385
G1 X-0.121 Y-0.396
G1 X-0.095 Y-0.404
G1 X-0.069 Y-0.411
G1 X-0.042 Y-0.418
G1 X-0.013 Y-0.423
G1 X0.013 Y-0.423
G1 X0.042 Y-0.418
G1 X0.069 Y-0.412
G1 X0.095 Y-0.404
G1 X0.12 Y-0.396
G1 X0.146 Y-0.385
G1 X0.17 Y-0.375
G1 X0.194 Y-0.363
M05
G0 X23.967 Y-21.828 F0
M03 P100 S255
G1 X-0.366 Y-0.199 F2000
G1 X-0.319 Y-0.262
G1 X-0.263 Y-0.319
G1 X-0.198 Y-0.366
G1 X-0.125 Y-0.404
G1 X-0.044 Y-0.434
G1 X0.044 Y-0.433
G1 X0.125 Y-0.404
G1 X0.198 Y-0.366
G1 X0.263 Y-0.319
G1 X0.319 Y-0.263
G1 X0.366 Y-0.198
G1 X0.404 Y-0.125
G1 X0.434 Y-0.044
G1 X0.433 Y0.044
G1 X0.404 Y0.125
G1 X0.366 Y0.198
G1 X0.319 Y0.263
G1 X0.263 Y0.319
G1 X0.198 Y0.366
G1 X0.125 Y0.404
G1 X0.044 Y0.433
G1 X-0.044 Y0.434
G1 X-0.125 Y0.404
G1 X-0.198 Y0.366
G1 X-0.263 Y0.319
G1 X-0.319 Y0.262
G1 X-0.366 Y0.199
G1 X-0.404 Y0.125
G1 X-0.433 Y0.044
G1 X-0.434 Y-0.044
G1 X-0.404 Y-0.125
M05
G0 X-16.049 Y-16.431 F0
M03 P100 S255
G1 X-0.391 Y0.147 F2000
G1 X-0.397 Y0.119
G1 X-0.403 Y0.093
G1 X-0.407 Y0.067
G1 X-0.41 Y0.039
G1 X-0.411 Y0.014
G1 X-0.411 Y-0.014
G1 X-0.409 Y-0.04
G1 X-0.407 Y-0.066
G1 X-0.403 Y-0.093
G1 X-0.398 Y-0.12
G1 X-0.39 Y-0.146
G1 X-0.383 Y-0.173
G1 X-0.374 Y-0.2
G1 X-0.359 Y-0.224
G1 X-0.341 Y-0.245
G1 X-0.322 Y-0.265
G1 X-0.303 Y-0.285
G1 X-0.282 Y-0.303
G1 X-0.261 Y-0.319
G1 X-0.239 Y-0.335
G1 X-0.217 Y-0.349
G1 X-0.194 Y-0.362
G1 X-0.17 Y-0.375
G1 X-0.145 Y-0.386
G1 X-0.121 Y-0.395
G1 X-0.095 Y-0.404
G1 X-0.069 Y-0.412
G1 X-0.042 Y-0.417
G1 X-0.013 Y-0.424
G1 X0.014 Y-0.423
G1 X0.041 Y-0.418
G1 X0.069 Y-0.412
G1 X0.095 Y-0.404
G1 X0.121 Y-0.396
G1 X0.146 Y-0.386
G1 X0.17 Y-0.374
G1 X0.194 Y-0.363
G1 X0.217 Y-0.349
G1 X0.24 Y-0.335
G1 X0.261 Y-0.319
G1 X0.282 Y-0.303
G1 X0.302 Y-0.284
G1 X0.323 Y-0.265
G1 X0.341 Y-0.246
G1 X0.359 Y-0.223
G1 X0.374 Y-0.2
G1 X0.383 Y-0.172
G1 X0.391 Y-0.147
G1 X0.397 Y-0.119
G1 X0.403 Y-0.093
G1 X0.407 Y-0.067
G1 X0.41 Y-0.039
G1 X0.411 Y-0.014
G1 X0.411 Y0.014
G1 X0.409 Y0.04
G1 X0.407 Y0.066
G1 X0.403 Y0.093
G1 X0.398 Y0.12
G1 X0.39 Y0.146
G1 X0.383 Y0.173
G1 X0.374 Y0.2
G1 X0.359 Y0.224
G1 X0.341 Y0.245
G1 X0.322 Y0.265
G1 X0.303 Y0.285
G1 X0.282 Y0.302
G1 X0.261 Y0.32
G1 X0.239 Y0.335
G1 X0.217 Y0.349
G1 X0.194 Y0.362
G1 X0.17 Y0.375
G1 X0.145 Y0.386
G1 X0.121 Y0.395
G1 X0.095 Y0.404
G1 X0.069 Y0.412
G1 X0.042 Y0.417
G1 X0.014 Y0.423
G1 X-0.015 Y0.424
G1 X-0.041 Y0.418
G1 X-0.069 Y0.412
G1 X-0.095 Y0.404
G1 X-0.121 Y0.396
G1 X-0.146 Y0.385
G1 X-0.17 Y0.375
G1 X-0.194 Y0.363
G1 X-0.217 Y0.349
G1 X-0.24 Y0.335
G1 X-0.261 Y0.319
G1 X-0.282 Y0.302
G1 X-0.302 Y0.285
G1 X-0.322 Y0.265
G1 X-0.342 Y0.246
G1 X-0.359 Y0.223
G1 X-0.374 Y0.2
G1 X-0.383 Y0.172
M05
G0 X-22.122 Y-13.057 F0
M03 P100 S255
G1 X-0.238 Y0.159 F2000
G1 X-0.256 Y0.126
G1 X-0.267 Y0.09
G1 X-0.275 Y0.054
G1 X-0.278 Y0.018
G1 X-0.278 Y-0.018
G1 X-0.275 Y-0.054
G1 X-0.267 Y-0.09
G1 X-0.256 Y-0.126
G1 X-0.238 Y-0.159
G1 X-0.212 Y-0.186
G1 X-0.184 Y-0.211
G1 X-0.154 Y-0.232
G1 X-0.124 Y-0.25
G1 X-0.09 Y-0.265
G1 X-0.056 Y-0.276
G1 X-0.019 Y-0.286
G1 X0.019 Y-0.285
G1 X0.056 Y-0.276
G1 X0.09 Y-0.265
G1 X0.124 Y-0.25
G1 X0.154 Y-0.232
G1 X0.184 Y-0.211
G1 X0.212 Y-0.186
G1 X0.238 Y-0.159
G1 X0.256 Y-0.126
G1 X0.267 Y-0.09
G1 X0.275 Y-0.054
G1 X0.278 Y-0.018
G1 X0.278 Y0.018
G1 X0.275 Y0.054
G1 X0.267 Y0.09
G1 X0.256 Y0.126
G1 X0.238 Y0.159
G1 X0.212 Y0.186
G1 X0.184 Y0.211
G1 X0.154 Y0.232
G1 X0.124 Y0.25
G1 X0.09 Y0.265
G1 X0.056 Y0.276
G1 X0.019 Y0.285
G1 X-0.019 Y0.286
G1 X-0.056 Y0.276
G1 X-0.09 Y0.265
G1 X-0.124 Y0.25
G1 X-0.154 Y0.232
G1 X-0.184 Y0.211
G1 X-0.212 Y0.186
M05
G0 X-11.588 Y3.661 F0
M03 P100 S255
G1 X0.217 Y0.349 F2000
G1 X0.194 Y0.362
G1 X0.17 Y0.375
G1 X0.145 Y0.386
G1 X0.121 Y0.395
G1 X0.095 Y0.404
G1 X0.069 Y0.412
G1 X0.042 Y0.417
G1 X0.014 Y0.423
G1 X-0.015 Y0.424
G1 X-0.041 Y0.418
G1 X-0.069 Y0.412
G1 X-0.095 Y0.404
G1 X-0.121 Y0.396
G1 X-0.146 Y0.385
G1 X-0.17 Y0.375
G1 X-0.194 Y0.363
G1 X-0.217 Y0.349
G1 X-0.24 Y0.335
G1 X-0.261 Y0.319
G1 X-0.282 Y0.302
G1 X-0.302 Y0.285
G1 X-0.322 Y0.265
G1 X-0.342 Y0.246
G1 X-0.359 Y0.223
G1 X-0.374 Y0.2
G1 X-0.383 Y0.172
G1 X-0.391 Y0.147
G1 X-0.397 Y0.119
G1 X-0.403 Y0.093
G1 X-0.407 Y0.067
G1 X-0.41 Y0.039
G1 X-0.411 Y0.014
G1 X-0.411 Y-0.014
G1 X-0.409 Y-0.04
G1 X-0.407 Y-0.066
G1 X-0.403 Y-0.093
G1 X-0.398 Y-0.12
G1 X-0.39 Y-0.146
G1 X-0.383 Y-0.173
G1 X-0.374 Y-0.2
G1 X-0.359 Y-0.224
G1 X-0.341 Y-0.245
G1 X-0.322 Y-0.265
G1 X-0.303 Y-0.285
G1 X-0.282 Y-0.302
G1 X-0.261 Y-0.32
G1 X-0.239 Y-0.335
G1 X-0.217 Y-0.349
G1 X-0.194 Y-0.362
G1 X-0.17 Y-0.375
G1 X-0.145 Y-0.386
G1 X-0.121 Y-0.395
G1 X-0.095 Y-0.404
G1 X-0.069 Y-0.412
G1 X-0.042 Y-0.417
G1 X-0.013 Y-0.424
G1 X0.014 Y-0.423
G1 X0.041 Y-0.418
G1 X0.069 Y-0.412
G1 X0.095 Y-0.404
G1 X0.121 Y-0.396
G1 X0.146 Y-0.385
G1 X0.17 Y-0.375
G1 X0.194 Y-0.363
G1 X0.217 Y-0.349
G1 X0.24 Y-0.335
G1 X0.261 Y-0.319
G1 X0.282 Y-0.302
G1 X0.302 Y-0.285
G1 X0.322 Y-0.265
G1 X0.342 Y-0.246
G1 X0.359 Y-0.223
G1 X0.374 Y-0.2
G1 X0.383 Y-0.172
G1 X0.391 Y-0.147
G1 X0.397 Y-0.119
G1 X0.403 Y-0.093
G1 X0.407 Y-0.067
G1 X0.41 Y-0.039
G1 X0.411 Y-0.014
G1 X0.411 Y0.014
G1 X0.409 Y0.04
G1 X0.407 Y0.066
G1 X0.403 Y0.093
G1 X0.398 Y0.12
G1 X0.39 Y0.146
G1 X0.383 Y0.173
G1 X0.374 Y0.2
G1 X0.359 Y0.224
G1 X0.341 Y0.245
G1 X0.322 Y0.265
G1 X0.303 Y0.285
G1 X0.282 Y0.303
G1 X0.261 Y0.319
G1 X0.239 Y0.335
M05
G0 X-73.421 Y64.268 F0
M03 P100 S255
G1 X0.237 Y0.159 F2000
G1 X0.212 Y0.187
G1 X0.184 Y0.211
G1 X0.155 Y0.232
G1 X0.123 Y0.25
G1 X0.09 Y0.265
G1 X0.056 Y0.277
G1 X0.018 Y0.285
G1 X-0.018 Y0.286
G1 X-0.056 Y0.277
G1 X-0.09 Y0.265
G1 X-0.123 Y0.25
G1 X-0.155 Y0.232
G1 X-0.184 Y0.211
G1 X-0.212 Y0.187
G1 X-0.237 Y0.159
G1 X-0.257 Y0.127
G1 X-0.267 Y0.09
G1 X-0.275 Y0.054
G1 X-0.279 Y0.018
G1 X-0.278 Y-0.018
G1 X-0.275 Y-0.054
G1 X-0.267 Y-0.09
G1 X-0.257 Y-0.127
G1 X-0.237 Y-0.159
G1 X-0.212 Y-0.187
G1 X-0.184 Y-0.211
G1 X-0.155 Y-0.232
G1 X-0.123 Y-0.25
G1 X-0.09 Y-0.265
G1 X-0.056 Y-0.277
G1 X-0.018 Y-0.286
G1 X0.018 Y-0.285
G1 X0.056 Y-0.277
G1 X0.09 Y-0.265
G1 X0.123 Y-0.25
G1 X0.155 Y-0.232
G1 X0.184 Y-0.211
G1 X0.212 Y-0.187
G1 X0.237 Y-0.159
G1 X0.257 Y-0.127
G1 X0.267 Y-0.09
G1 X0.275 Y-0.054
G1 X0.279 Y-0.018
G1 X0.278 Y0.018
G1 X0.275 Y0.054
G1 X0.267 Y0.09
G1 X0.257 Y0.127
M05
G0 X115.343 Y27.519 F0
M03 P100 S255
G1 X0.217 Y-0.349 F2000
G1 X0.24 Y-0.335
G1 X0.261 Y-0.319
G1 X0.282 Y-0.303
G1 X0.302 Y-0.284
G1 X0.322 Y-0.265
G1 X0.342 Y-0.246
G1 X0.359 Y-0.223
G1 X0.374 Y-0.2
G1 X0.383 Y-0.172
G1 X0.391 Y-0.147
G1 X0.397 Y-0.119
G1 X0.403 Y-0.093
G1 X0.407 Y-0.067
G1 X0.41 Y-0.039
G1 X0.411 Y-0.014
G1 X0.411 Y0.014
G1 X0.409 Y0.04
G1 X0.407 Y0.066
G1 X0.403 Y0.093
G1 X0.398 Y0.12
G1 X0.39 Y0.146
G1 X0.383 Y0.173
G1 X0.374 Y0.2
G1 X0.359 Y0.224
G1 X0.341 Y0.245
G1 X0.322 Y0.265
G1 X0.303 Y0.285
G1 X0.282 Y0.302
G1 X0.261 Y0.32
G1 X0.239 Y0.335
G1 X0.217 Y0.349
G1 X0.194 Y0.362
G1 X0.17 Y0.375
G1 X0.145 Y0.386
G1 X0.121 Y0.395
G1 X0.095 Y0.404
G1 X0.069 Y0.412
G1 X0.042 Y0.417
G1 X0.014 Y0.423
G1 X-0.015 Y0.424
G1 X-0.041 Y0.418
G1 X-0.069 Y0.412
G1 X-0.095 Y0.404
G1 X-0.121 Y0.396
G1 X-0.146 Y0.385
G1 X-0.17 Y0.375
G1 X-0.194 Y0.363
G1 X-0.217 Y0.349
G1 X-0.24 Y0.335
G1 X-0.261 Y0.319
G1 X-0.282 Y0.302
G1 X-0.302 Y0.285
G1 X-0.322 Y0.265
G1 X-0.342 Y0.245
G1 X-0.359 Y0.224
G1 X-0.374 Y0.2
G1 X-0.383 Y0.172
G1 X-0.391 Y0.147
G1 X-0.397 Y0.119
G1 X-0.403 Y0.093
G1 X-0.407 Y0.067
G1 X-0.41 Y0.039
G1 X-0.411 Y0.014
G1 X-0.411 Y-0.014
G1 X-0.409 Y-0.04
G1 X-0.407 Y-0.066
G1 X-0.403 Y-0.093
G1 X-0.398 Y-0.12
G1 X-0.39 Y-0.146
G1 X-0.383 Y-0.173
G1 X-0.374 Y-0.2
G1 X-0.359 Y-0.224
G1 X-0.341 Y-0.245
G1 X-0.322 Y-0.265
G1 X-0.303 Y-0.285
G1 X-0.282 Y-0.303
G1 X-0.261 Y-0.319
G1 X-0.239 Y-0.335
G1 X-0.217 Y-0.349
G1 X-0.194 Y-0.362
G1 X-0.17 Y-0.375
G1 X-0.145 Y-0.386
G1 X-0.121 Y-0.395
G1 X-0.095 Y-0.404
G1 X-0.069 Y-0.412
G1 X-0.042 Y-0.418
G1 X-0.013 Y-0.423
G1 X0.014 Y-0.423
G1 X0.041 Y-0.418
G1 X0.069 Y-0.412
G1 X0.095 Y-0.404
G1 X0.121 Y-0.396
G1 X0.146 Y-0.386
G1 X0.17 Y-0.374
G1 X0.194 Y-0.363
M05
G0 X21.806 Y-0.835 F0
M03 P100 S255
G1 X-0.044 Y-0.434 F2000
G1 X0.044 Y-0.433
G1 X0.125 Y-0.404
G1 X0.199 Y-0.366
G1 X0.262 Y-0.319
G1 X0.319 Y-0.263
G1 X0.366 Y-0.198
G1 X0.404 Y-0.125
G1 X0.434 Y-0.044
G1 X0.433 Y0.044
G1 X0.404 Y0.125
G1 X0.366 Y0.198
G1 X0.319 Y0.263
G1 X0.263 Y0.319
G1 X0.198 Y0.366
G1 X0.125 Y0.404
G1 X0.044 Y0.433
G1 X-0.044 Y0.434
G1 X-0.125 Y0.404
G1 X-0.198 Y0.366
G1 X-0.263 Y0.319
G1 X-0.319 Y0.263
G1 X-0.366 Y0.198
G1 X-0.404 Y0.125
G1 X-0.433 Y0.044
G1 X-0.434 Y-0.044
G1 X-0.404 Y-0.125
G1 X-0.366 Y-0.198
G1 X-0.319 Y-0.263
G1 X-0.262 Y-0.319
G1 X-0.199 Y-0.366
G1 X-0.125 Y-0.404
M05
G0 X10.046 Y10.987 F0
M03 P100 S255
G1 X-0.032 Y0.32 F2000
G1 X-0.093 Y0.298
G1 X-0.146 Y0.27
G1 X-0.194 Y0.235
G1 X-0.235 Y0.193
G1 X-0.27 Y0.147
G1 X-0.298 Y0.092
G1 X-0.319 Y0.033
G1 X-3.175
G1 X-0.65 Y0.032
G1 X-0.63 Y0.097
G1 X-0.609 Y0.156
G1 X-0.583 Y0.214
G1 X-0.555 Y0.267
G1 X-0.524 Y0.318
G1 X-0.489 Y0.366
G1 X-0.451 Y0.409
G1 X-0.409 Y0.451
G1 X-0.366 Y0.489
G1 X-0.318 Y0.524
G1 X-0.267 Y0.555
G1 X-0.214 Y0.583
G1 X-0.156 Y0.609
G1 X-0.097 Y0.63
G1 X-0.032 Y0.649
G1  Y2.158
G1 X-0.037 Y0.337
G1 X-0.105 Y0.318
G1 X-0.17 Y0.289
G1 X-0.229 Y0.249
G1 X-0.277 Y0.195
G1 X-0.309 Y0.131
G1 X-0.329 Y0.063
G1 X-0.339 Y-0.008
G1 X-28.009 Y-3.688
G1 X-0.223 Y-0.045
G1 X-0.211 Y-0.076
G1 X-0.197 Y-0.104
G1 X-0.179 Y-0.13
G1 X-0.16 Y-0.153
G1 X-0.137 Y-0.174
G1 X-0.112 Y-0.194
G1 X-0.085 Y-0.212
G1 X-15.287 Y-47.543
G1 X-0.195 Y-0.471
G1 X-0.261 Y-0.427
G1 X-0.322 Y-0.376
G1 X-0.374 Y-0.32
G1 X-0.419 Y-0.258
G1 X-0.457 Y-0.191
G1 X-0.486 Y-0.119
G1 X-0.509 Y-0.041
G1 X-31.545
G1 X-0.32 Y-0.032
G1 X-0.298 Y-0.093
G1 X-0.27 Y-0.146
G1 X-0.235 Y-0.194
G1 X-0.193 Y-0.235
G1 X-0.147 Y-0.27
G1 X-0.092 Y-0.298
G1 X-0.033 Y-0.32
G1  Y-19.367
G1 X-0.013 Y-0.423
G1 X-0.042 Y-0.419
G1 X-0.069 Y-0.411
G1 X-0.095 Y-0.405
G1 X-0.12 Y-0.395
G1 X-0.146 Y-0.386
G1 X-0.17 Y-0.375
G1 X-0.194 Y-0.363
G1 X-0.217 Y-0.349
G1 X-0.239 Y-0.335
G1 X-0.261 Y-0.319
G1 X-0.282 Y-0.303
G1 X-0.303 Y-0.285
G1 X-0.322 Y-0.265
G1 X-0.341 Y-0.245
G1 X-0.36 Y-0.224
G1 X-0.373 Y-0.2
G1 X-0.383 Y-0.173
G1 X-0.391 Y-0.146
G1 X-0.398 Y-0.12
G1 X-0.403 Y-0.093
G1 X-0.407 Y-0.067
G1 X-0.41 Y-0.039
G1 X-0.411 Y-0.014
G1 X-0.411 Y0.014
G1 X-0.409 Y0.039
G1 X-0.407 Y0.067
G1 X-0.403 Y0.093
G1 X-0.398 Y0.12
G1 X-0.391 Y0.146
G1 X-0.383 Y0.173
G1 X-0.374 Y0.2
G1 X-0.359 Y0.224
G1 X-0.341 Y0.245
G1 X-0.322 Y0.265
G1 X-0.303 Y0.285
G1 X-0.282 Y0.303
G1 X-0.261 Y0.319
G1 X-0.239 Y0.335
G1 X-0.217 Y0.349
G1 X-0.194 Y0.363
G1 X-0.17 Y0.375
G1 X-0.146 Y0.386
G1 X-0.121 Y0.395
G1 X-0.095 Y0.405
G1 X-0.068 Y0.412
G1 X-0.042 Y0.418
G1 X-0.013 Y0.423
G1  Y3.175
G1 X-0.033 Y0.32
G1 X-0.092 Y0.298
G1 X-0.147 Y0.27
G1 X-0.193 Y0.235
G1 X-0.235 Y0.193
G1 X-0.27 Y0.147
G1 X-0.298 Y0.092
G1 X-0.32 Y0.032
G1 X-19.951
G1 X-0.521 Y0.043
G1 X-0.497 Y0.125
G1 X-0.466 Y0.2
G1 X-0.425 Y0.271
G1 X-0.377 Y0.333
G1 X-0.322 Y0.392
G1 X-0.257 Y0.443
G1 X-0.186 Y0.489
G1 X-5.904 Y20.489
G1 X-0.087 Y0.396
G1 X-0.036 Y0.403
G1 X0.015 Y0.404
G1 X0.067 Y0.4
G1 X6.732 Y28.723
G1 X0.042 Y0.383
G1 X-0.051 Y0.376
G1 X-0.138 Y0.354
G1 X-0.222 Y0.314
G1 X-0.291 Y0.252
G1 X-0.338 Y0.173
G1 X-0.37 Y0.087
G1 X-0.385
G1 X-16.879 Y-2.225
G1 X-0.286 Y-0.065
G1 X-0.263 Y-0.113
G1 X-0.235 Y-0.156
G1 X-0.203 Y-0.194
G1 X-0.165 Y-0.226
G1 X-0.124 Y-0.253
G1 X-0.078 Y-0.275
G1 X-0.027 Y-0.292
G1  Y-4.234
G1 X-0.029 Y-0.628
G1 X-0.091 Y-0.618
G1 X-0.151 Y-0.604
G1 X-0.208 Y-0.584
G1 X-0.264 Y-0.561
G1 X-0.318 Y-0.534
G1 X-0.371 Y-0.503
G1 X-0.422 Y-0.467
G1 X-0.466 Y-0.423
G1 X-0.502 Y-0.372
G1 X-0.533 Y-0.32
G1 X-0.561 Y-0.265
G1 X-0.584 Y-0.209
G1 X-0.603 Y-0.152
G1 X-0.618 Y-0.093
G1 X-0.628 Y-0.031
G1 X-3.176
G1 X-0.319 Y-0.032
G1 X-0.298 Y-0.092
G1 X-0.27 Y-0.147
G1 X-0.235 Y-0.194
G1 X-0.194 Y-0.235
G1 X-0.146 Y-0.269
G1 X-0.093 Y-0.298
G1 X-0.032 Y-0.32
G1  Y-13.856
G1 X-0.032 Y-0.32
G1 X-0.093 Y-0.298
G1 X-0.146 Y-0.27
G1 X-0.194 Y-0.235
G1 X-0.235 Y-0.193
G1 X-0.27 Y-0.147
G1 X-0.298 Y-0.092
G1 X-0.319 Y-0.033
G1 X-0.636
G1 X-0.319 Y-0.032
G1 X-0.298 Y-0.092
G1 X-0.27 Y-0.147
G1 X-0.235 Y-0.193
G1 X-0.194 Y-0.235
G1 X-0.146 Y-0.27
G1 X-0.093 Y-0.298
G1 X-0.032 Y-0.32
G1  Y-82.36
G1 X0.032 Y-0.319
G1 X0.093 Y-0.298
G1 X0.146 Y-0.27
G1 X0.194 Y-0.235
G1 X0.235 Y-0.194
G1 X0.27 Y-0.146
G1 X0.298 Y-0.093
G1 X0.319 Y-0.032
G1 X146.05
G1 X0.32 Y0.032
G1 X0.298 Y0.093
G1 X0.27 Y0.146
G1 X0.235 Y0.194
G1 X0.194 Y0.235
G1 X0.146 Y0.27
G1 X0.093 Y0.298
G1 X0.032 Y0.319
G1  Y9.525
G1 X-0.032 Y0.32
G1 X-0.093 Y0.298
G1 X-0.146 Y0.27
G1 X-0.194 Y0.235
G1 X-0.235 Y0.194
G1 X-0.27 Y0.146
G1 X-0.298 Y0.093
G1 X-0.319 Y0.032
G1 X-3.176
G1 X-0.423 Y0.014
G1 X-0.418 Y0.042
G1 X-0.412 Y0.069
G1 X-0.404 Y0.095
G1 X-0.396 Y0.121
G1 X-0.386 Y0.146
G1 X-0.374 Y0.17
G1 X-0.363 Y0.194
G1 X-0.349 Y0.217
G1 X-0.335 Y0.239
G1 X-0.319 Y0.261
G1 X-0.303 Y0.282
G1 X-0.284 Y0.303
G1 X-0.265 Y0.322
G1 X-0.246 Y0.341
G1 X-0.223 Y0.36
G1 X-0.2 Y0.373
G1 X-0.172 Y0.383
G1 X-0.147 Y0.391
G1 X-0.119 Y0.398
G1 X-0.093 Y0.403
G1 X-0.067 Y0.407
G1 X-0.039 Y0.409
G1 X-0.014 Y0.411
G1 X0.014 Y0.411
G1 X0.04 Y0.41
G1 X0.066 Y0.407
G1 X0.093 Y0.402
G1 X0.12 Y0.398
G1 X0.146 Y0.391
G1 X0.173 Y0.383
G1 X0.2 Y0.373
G1 X0.224 Y0.36
G1 X0.245 Y0.341
G1 X0.265 Y0.322
G1 X0.285 Y0.302
G1 X0.302 Y0.282
G1 X0.32 Y0.261
G1 X0.335 Y0.239
G1 X0.349 Y0.217
G1 X0.362 Y0.194
G1 X0.375 Y0.17
G1 X0.386 Y0.146
G1 X0.395 Y0.121
G1 X0.404 Y0.095
G1 X0.412 Y0.068
G1 X0.417 Y0.042
G1 X0.423 Y0.014
G1 X3.176
G1 X0.319 Y0.032
G1 X0.298 Y0.093
G1 X0.27 Y0.146
G1 X0.235 Y0.194
G1 X0.194 Y0.235
G1 X0.146 Y0.27
G1 X0.093 Y0.298
G1 X0.032 Y0.319
G1  Y34.779
G1 X0.007 Y0.146
G1 X0.02 Y0.144
G1 X3.255 Y17.526
G1 X0.128 Y0.554
G1 X0.175 Y0.533
G1 X0.218 Y0.509
G1 X0.26 Y0.484
G1 X0.298 Y0.457
G1 X0.335 Y0.427
G1 X0.369 Y0.397
G1 X0.4 Y0.362
G1 X0.43 Y0.328
G1 X0.457 Y0.29
G1 X0.482 Y0.252
G1 X0.503 Y0.21
G1 X0.523 Y0.166
G1 X0.541 Y0.122
G1 X0.556 Y0.074
G1 X0.568 Y0.026
G1 X4.762
G1 X0.32 Y0.032
G1 X0.298 Y0.092
G1 X0.27 Y0.147
G1 X0.235 Y0.193
G1 X0.194 Y0.235
G1 X0.146 Y0.27
G1 X0.093 Y0.298
G1 X0.032 Y0.32
G1  Y34.598
M107
M05
G90

;USER END SCRIPT
M5
G0 Z330 F6000
G0 Y100
G28
;USER END SCRIPT
